resources/luts/aged-sepia.cube
# Generated by FotoReady. Released under the project GPL-3.0-or-later license.
TITLE "aged-sepia"
LUT_3D_SIZE 9
DOMAIN_MIN 0 0 0
DOMAIN_MAX 1 1 1
0.266384 0.146649 0.032946
0.343604 0.156801 0.040926
0.420824 0.166705 0.048176
0.498717 0.176434 0.054837
0.577465 0.186001 0.061126
0.657116 0.195389 0.067042
0.737670 0.204573 0.072537
0.819104 0.213528 0.077650
0.823441 0.213736 0.077856
0.304782 0.248162 0.062255
0.383252 0.259447 0.069263
0.461397 0.270325 0.075675
0.539916 0.280887 0.081615
0.618998 0.291143 0.087148
0.698703 0.301084 0.092321
0.779039 0.310694 0.097176
0.859984 0.319949 0.101749
0.865294 0.320286 0.101983
0.346743 0.349999 0.088358
0.425711 0.361688 0.096108
0.503782 0.373063 0.101821
0.581949 0.383988 0.107169
0.660408 0.394479 0.112214
0.739226 0.404531 0.116998
0.818413 0.414129 0.121561
0.897951 0.423252 0.125937
0.904131 0.423690 0.126211
0.388558 0.451844 0.112349
0.467854 0.463335 0.120375
0.545121 0.474505 0.127766
0.622014 0.485366 0.132861
0.698940 0.495669 0.137750
0.775970 0.505413 0.142476
0.853115 0.514584 0.147074
0.930372 0.523169 0.151574
0.937304 0.523670 0.151909
0.427291 0.552651 0.135685
0.506017 0.563539 0.143948
0.582384 0.573957 0.152203
0.657257 0.584040 0.159868
0.731805 0.593765 0.164911
0.806389 0.602896 0.169818
0.881173 0.611490 0.174571
0.956290 0.619596 0.179149
0.963944 0.620161 0.179536
0.460102 0.651274 0.159488
0.537416 0.661175 0.168289
0.612367 0.670613 0.177082
0.685896 0.679743 0.185924
0.758484 0.688701 0.193961
0.831278 0.697515 0.198820
0.904538 0.705912 0.203433
0.978391 0.713937 0.207781
0.986808 0.714598 0.208188
0.485586 0.747159 0.184332
0.561926 0.756277 0.193513
0.636201 0.765075 0.202579
0.709328 0.773695 0.211595
0.781688 0.782208 0.220566
0.853621 0.790741 0.228465
0.926220 0.799332 0.232632
0.999668 0.807666 0.236447
1.000000 0.808467 0.236831
0.506087 0.841439 0.209429
0.582356 0.850188 0.218667
0.656835 0.858750 0.227691
0.730428 0.867258 0.236570
0.803509 0.875779 0.245313
0.876307 0.884365 0.253912
0.949111 0.893144 0.261167
1.000000 0.902170 0.264149
1.000000 0.903168 0.264458
0.521575 0.920393 0.229976
0.598472 0.929146 0.239016
0.673792 0.937818 0.247764
0.748437 0.946535 0.256291
0.822778 0.955363 0.264608
0.897040 0.964351 0.272707
0.971390 0.973542 0.280574
1.000000 0.983124 0.285961
1.000000 0.984342 0.286159
0.269326 0.150336 0.101264
0.346180 0.160689 0.110023
0.423013 0.170777 0.118045
0.500496 0.180673 0.125478
0.578806 0.190384 0.132396
0.657996 0.199896 0.138852
0.738068 0.209189 0.144889
0.818999 0.218241 0.150546
0.823410 0.218452 0.150602
0.308837 0.251972 0.130887
0.386755 0.263417 0.138490
0.464334 0.274436 0.145487
0.542269 0.285123 0.152010
0.620749 0.295489 0.158124
0.699832 0.305527 0.163881
0.779527 0.315220 0.169319
0.859813 0.324545 0.174476
0.865178 0.324886 0.174571
0.351530 0.353666 0.157213
0.429894 0.365512 0.165001
0.507306 0.376983 0.171323
0.584799 0.387989 0.177277
0.662567 0.398547 0.182926
0.740676 0.408652 0.188315
0.819135 0.418290 0.193483
0.897929 0.427441 0.198464
0.904147 0.427882 0.198608
0.393723 0.455218 0.181624
0.472332 0.466831 0.189588
0.548895 0.478096 0.197063
0.625027 0.488994 0.202785
0.701178 0.499322 0.208300
0.777415 0.509079 0.213651
0.853751 0.518250 0.218874
0.930206 0.526833 0.223991
0.937163 0.527337 0.224204
0.432512 0.555599 0.205458
0.510465 0.566565 0.213687
0.586052 0.577046 0.221918
0.660126 0.587169 0.229705
0.733861 0.596899 0.235377
0.807670 0.606047 0.240894
0.881713 0.614669 0.246238
0.956124 0.622815 0.251391
0.963801 0.623388 0.251660
0.465087 0.653675 0.229831
0.541605 0.663641 0.238602
0.615812 0.673155 0.247354
0.688638 0.682370 0.256144
0.760550 0.691414 0.264261
0.832663 0.700286 0.269686
0.905276 0.708751 0.274849
0.978516 0.716855 0.279729
0.986955 0.717529 0.280022
0.490431 0.749070 0.255178
0.566076 0.758295 0.264290
0.639703 0.767210 0.273276
0.712222 0.775956 0.282203
0.784009 0.784605 0.291075
0.855391 0.793273 0.299007
0.927434 0.801970 0.303683
1.000000 0.810421 0.307989
1.000000 0.811240 0.308261
0.511080 0.843003 0.280644
0.586749 0.851899 0.289774
0.660673 0.860617 0.298681
0.733749 0.869289 0.307434
0.806347 0.877984 0.316043
0.878693 0.886753 0.324498
0.951063 0.895712 0.331744
1.000000 0.904891 0.335178
1.000000 0.905915 0.335377
0.526902 0.921770 0.301401
0.603278 0.930705 0.310302
0.678119 0.939564 0.318902
0.752320 0.948476 0.327275
0.826249 0.957507 0.335428
0.900130 0.966708 0.343355
0.974127 0.976119 0.351042
1.000000 0.985911 0.356480
1.000000 0.987162 0.356569
0.272929 0.153854 0.167257
0.349940 0.164258 0.176639
0.426898 0.174381 0.185280
0.504475 0.184300 0.193334
0.582852 0.194020 0.200877
0.662082 0.203530 0.207964
0.742166 0.212809 0.214638
0.823083 0.221833 0.220938
0.827591 0.222054 0.221040
0.312959 0.255822 0.196543
0.390396 0.267416 0.204949
0.467477 0.278568 0.212742
0.544892 0.289373 0.220061
0.622828 0.299844 0.226974
0.701346 0.309973 0.233533
0.780450 0.319744 0.239779
0.860122 0.329136 0.245749
0.865541 0.329493 0.245909
0.356379 0.357406 0.223869
0.434152 0.369416 0.231938
0.510913 0.380991 0.239105
0.587735 0.392086 0.245903
0.664811 0.402720 0.252399
0.742205 0.412889 0.258639
0.819928 0.422578 0.264662
0.897961 0.431767 0.270505
0.904213 0.432223 0.270727
0.398973 0.458692 0.249494
0.476903 0.470435 0.257648
0.552763 0.481803 0.265452
0.628130 0.492748 0.272052
0.703496 0.503110 0.278447
0.778926 0.512887 0.284682
0.854436 0.522068 0.290792
0.930081 0.530668 0.296788
0.937058 0.531185 0.297090
0.437847 0.558668 0.274643
0.515024 0.569720 0.283096
0.589825 0.580271 0.291554
0.663096 0.590446 0.299713
0.736018 0.600196 0.306275
0.809045 0.609377 0.312667
0.882339 0.618045 0.318871
0.956030 0.626248 0.324870
0.963723 0.626837 0.325236
0.470224 0.656212 0.300423
0.545954 0.666258 0.309421
0.619420 0.675863 0.318385
0.691541 0.685182 0.327375
0.762771 0.694329 0.335825
0.834194 0.703275 0.342093
0.906146 0.711825 0.348083
0.978755 0.720027 0.353778
0.987210 0.720722 0.354173
0.495515 0.751144 0.327117
0.570466 0.760492 0.336422
0.643444 0.769540 0.345588
0.715350 0.778430 0.354681
0.786556 0.787235 0.363709
0.857376 0.796058 0.371936
0.928847 0.804881 0.377407
1.000000 0.813469 0.382496
1.000000 0.814318 0.382876
0.516407 0.844751 0.353817
0.591476 0.853813 0.363107
0.664842 0.862707 0.372161
0.737395 0.871564 0.381049
0.809501 0.880455 0.389780
0.881386 0.889431 0.398349
0.953312 0.898597 0.405851
1.000000 0.907953 0.410037
1.000000 0.909014 0.410346
0.532661 0.923350 0.375526
0.608514 0.932486 0.384559
0.682873 0.941555 0.393279
0.756627 0.950687 0.401758
0.830139 0.959949 0.410008
0.903632 0.969391 0.418022
0.977270 0.979054 0.425786
1.000000 0.989087 0.431551
1.000000 0.990383 0.431753
0.277088 0.157088 0.233542
0.353714 0.167812 0.242384
0.430785 0.177966 0.251640
0.508448 0.187903 0.260311
0.586882 0.197629 0.268475
0.666141 0.207132 0.276187
0.746228 0.216392 0.283493
0.827121 0.225385 0.290432
0.831725 0.225615 0.290580
0.317228 0.259587 0.261434
0.394678 0.271258 0.269834
0.471776 0.282396 0.278276
0.549179 0.293175 0.286245
0.627077 0.303608 0.293813
0.705529 0.313688 0.301032
0.784543 0.323397 0.307943
0.864098 0.332715 0.314586
0.869605 0.333078 0.314802
0.360784 0.361337 0.288521
0.438466 0.373374 0.296683
0.514624 0.385034 0.304674
0.590822 0.396200 0.312297
0.667253 0.406892 0.319619
0.743980 0.417106 0.326689
0.821012 0.426828 0.333548
0.898333 0.436039 0.340231
0.904620 0.436508 0.340532
0.403302 0.462527 0.314860
0.481486 0.474085 0.323509
0.556642 0.485550 0.331643
0.631245 0.496537 0.339113
0.705827 0.506928 0.346380
0.780451 0.516722 0.353490
0.855144 0.525912 0.360477
0.929999 0.534531 0.367337
0.936994 0.535062 0.367729
0.441753 0.562278 0.340842
0.519565 0.572912 0.350300
0.593579 0.583528 0.358988
0.666064 0.593756 0.367512
0.738192 0.603532 0.374949
0.810458 0.612750 0.382200
0.883020 0.621465 0.389251
0.956009 0.629728 0.396082
0.963718 0.630335 0.396545
0.473451 0.659480 0.367540
0.550296 0.668924 0.378016
0.623039 0.678623 0.387185
0.694475 0.688047 0.396368
0.765041 0.697300 0.405145
0.835790 0.706323 0.412240
0.907100 0.714962 0.419044
0.979093 0.723264 0.425541
0.987565 0.723983 0.426038
0.498249 0.754156 0.395083
0.574878 0.762756 0.406302
0.647225 0.771940 0.415641
0.718534 0.780977 0.424896
0.789176 0.789940 0.434074
0.859451 0.798919 0.442588
0.930367 0.807872 0.448842
1.000000 0.816600 0.454701
1.000000 0.817478 0.455188
0.518944 0.847642 0.422523
0.596252 0.855812 0.434162
0.669077 0.864883 0.443356
0.741122 0.873928 0.452374
0.812752 0.883017 0.461224
0.884191 0.892202 0.469901
0.955687 0.901575 0.477653
1.000000 0.911110 0.482577
1.000000 0.912208 0.482998
0.535257 0.926242 0.444771
0.613818 0.934365 0.456516
0.687711 0.943646 0.465350
0.761032 0.953000 0.473933
0.834142 0.962493 0.482275
0.907261 0.972177 0.490371
0.980554 0.982092 0.498207
1.000000 0.992369 0.504292
1.000000 0.993709 0.504607
0.281217 0.160209 0.300569
0.358494 0.170915 0.309073
0.434687 0.181544 0.317392
0.512424 0.191495 0.326678
0.590905 0.201222 0.335460
0.670185 0.210714 0.343796
0.750266 0.219951 0.351732
0.831127 0.228910 0.359307
0.835825 0.229148 0.359503
0.321398 0.263234 0.327055
0.399456 0.274820 0.335208
0.476052 0.286201 0.343222
0.553435 0.296950 0.351839
0.631286 0.307341 0.360059
0.709665 0.317367 0.367935
0.788579 0.327011 0.375510
0.868009 0.336252 0.382821
0.873603 0.336620 0.383094
0.364630 0.365307 0.353445
0.442920 0.377239 0.360886
0.518947 0.388913 0.368946
0.595031 0.400007 0.377250
0.671323 0.410615 0.385257
0.747885 0.420734 0.393017
0.824727 0.430349 0.400571
0.901832 0.439441 0.407956
0.908194 0.439911 0.408324
0.407424 0.466364 0.379615
0.485646 0.477906 0.387651
0.560552 0.489345 0.395947
0.634432 0.500358 0.404271
0.708269 0.510762 0.412394
0.782128 0.520557 0.420364
0.856059 0.529748 0.428206
0.930181 0.538379 0.435908
0.937197 0.538923 0.436390
0.445472 0.565870 0.406374
0.523235 0.576436 0.415318
0.597329 0.586828 0.424531
0.669043 0.597113 0.433414
0.740394 0.606918 0.441716
0.811914 0.616176 0.449816
0.883760 0.624944 0.457701
0.956062 0.633270 0.465355
0.963786 0.633895 0.465915
0.476460 0.662745 0.433953
0.553334 0.672112 0.443955
0.626686 0.681443 0.454073
0.697451 0.690976 0.463444
0.767368 0.700338 0.472541
0.837459 0.709442 0.480454
0.908140 0.718174 0.488062
0.979534 0.726579 0.495349
0.988020 0.727320 0.495949
0.500767 0.757194 0.462293
0.577569 0.765740 0.473058
0.651061 0.774418 0.483760
0.721789 0.783604 0.493171
0.791881 0.792727 0.502495
0.861624 0.801867 0.511291
0.931998 0.810951 0.518318
1.000000 0.819822 0.524937
1.000000 0.820730 0.525531
0.521264 0.850587 0.490423
0.598888 0.858724 0.501626
0.673393 0.867152 0.512597
0.744945 0.876387 0.521739
0.816112 0.885677 0.530704
0.887117 0.895072 0.539485
0.958196 0.904655 0.547481
1.000000 0.914372 0.553134
1.000000 0.915509 0.553666
0.537633 0.929210 0.513168
0.616630 0.937318 0.524494
0.692650 0.945843 0.535450
0.765551 0.955420 0.544131
0.838271 0.965147 0.552561
0.911029 0.975075 0.560735
0.983988 0.985244 0.568641
1.000000 0.995766 0.575040
1.000000 0.997152 0.575468
0.285280 0.163239 0.368411
0.363312 0.173878 0.376694
0.440007 0.184510 0.384610
0.516410 0.195081 0.392578
0.594929 0.204805 0.401978
0.674219 0.214282 0.410937
0.754285 0.223492 0.419501
0.835106 0.232413 0.427710
0.839897 0.232659 0.427956
0.325470 0.266771 0.393514
0.404185 0.278246 0.401480
0.481254 0.289560 0.409191
0.557667 0.300703 0.416983
0.635462 0.311049 0.425854
0.713759 0.321017 0.434385
0.792565 0.330592 0.442621
0.871863 0.339752 0.450600
0.877541 0.340126 0.450933
0.368350 0.369151 0.419223
0.447245 0.380971 0.425954
0.523715 0.392510 0.433808
0.599185 0.403778 0.441768
0.675330 0.414299 0.450459
0.751719 0.424318 0.458907
0.828363 0.433823 0.467155
0.905245 0.442793 0.475239
0.911680 0.443264 0.475677
0.410479 0.470363 0.444936
0.489221 0.481759 0.452173
0.564583 0.493037 0.459827
0.638200 0.504005 0.468282
0.711799 0.514281 0.477121
0.785399 0.523937 0.485810
0.859086 0.532997 0.494362
0.932990 0.541509 0.502761
0.940076 0.542052 0.503321
0.448994 0.569442 0.471513
0.526646 0.579965 0.479836
0.600667 0.590286 0.488509
0.672051 0.600521 0.497591
0.742678 0.610347 0.506737
0.813504 0.619639 0.515667
0.884686 0.628453 0.524368
0.956352 0.636836 0.532824
0.964094 0.637479 0.533482
0.479390 0.665963 0.499931
0.556158 0.675318 0.509307
0.629545 0.684604 0.518928
0.700477 0.693975 0.528774
0.769758 0.703449 0.538186
0.839205 0.712638 0.546908
0.909270 0.721465 0.555311
0.980077 0.729977 0.563380
0.988578 0.730742 0.564084
0.503239 0.760200 0.529053
0.580026 0.768775 0.539159
0.653706 0.777425 0.549394
0.725122 0.786317 0.559682
0.794676 0.795603 0.569148
0.863901 0.804906 0.578221
0.933745 0.814125 0.586012
1.000000 0.823142 0.593382
1.000000 0.824080 0.594085
0.523568 0.853514 0.557857
0.601268 0.861722 0.568369
0.676112 0.870137 0.578904
0.748870 0.878946 0.589323
0.819587 0.888439 0.598398
0.890170 0.898048 0.607280
0.960844 0.907843 0.615514
1.000000 0.917745 0.621889
1.000000 0.918920 0.622532
0.540018 0.932172 0.581088
0.619167 0.940386 0.591695
0.695653 0.948910 0.602240
0.770193 0.957951 0.612533
0.842534 0.967915 0.621047
0.914943 0.978088 0.629296
0.987579 0.988515 0.637266
1.000000 0.999283 0.643974
1.000000 1.000000 0.644515
0.289281 0.166182 0.437137
0.368055 0.176750 0.445204
0.445446 0.187300 0.452917
0.522203 0.197898 0.460402
0.598953 0.208382 0.468117
0.678246 0.217840 0.477698
0.758288 0.227020 0.486891
0.839060 0.235898 0.495734
0.843943 0.236151 0.496031
0.329449 0.270205 0.460874
0.408808 0.281564 0.468658
0.486478 0.292752 0.476201
0.563226 0.303850 0.483619
0.639607 0.314735 0.491285
0.717813 0.324642 0.500472
0.796504 0.334144 0.509369
0.875661 0.343220 0.518014
0.881422 0.343598 0.518408
0.371947 0.372877 0.485918
0.451435 0.384581 0.491945
0.528413 0.395951 0.499665
0.604199 0.407103 0.507356
0.679275 0.417947 0.515311
0.755484 0.427864 0.524447
0.831922 0.437255 0.533388
0.908574 0.446100 0.542171
0.915081 0.446571 0.542680
0.413385 0.474227 0.511188
0.492635 0.485474 0.517633
0.568455 0.496583 0.524654
0.642368 0.507365 0.532945
0.715241 0.517751 0.541512
0.788583 0.527269 0.550916
0.862036 0.536202 0.560171
0.935733 0.544600 0.569261
0.942888 0.545143 0.569899
0.450913 0.573307 0.537433
0.528980 0.583638 0.544997
0.603406 0.593771 0.552930
0.675191 0.603828 0.561405
0.745562 0.613615 0.570690
0.816215 0.622808 0.580305
0.887250 0.631534 0.589679
0.958795 0.639843 0.598795
0.966611 0.640487 0.599535
0.482112 0.669178 0.565602
0.558820 0.678515 0.574342
0.632177 0.687796 0.583331
0.703160 0.697151 0.592614
0.772224 0.706635 0.602190
0.841074 0.715901 0.611704
0.910571 0.724818 0.620885
0.980837 0.733430 0.629719
0.989358 0.734219 0.630528
0.505673 0.763181 0.595450
0.582454 0.771790 0.604898
0.656156 0.780484 0.614480
0.727745 0.789382 0.624253
0.797567 0.798570 0.634143
0.866283 0.808038 0.643488
0.935610 0.817396 0.652036
1.000000 0.826562 0.660151
1.000000 0.827531 0.660963
0.525864 0.856429 0.624915
0.603649 0.864712 0.634736
0.678603 0.873213 0.644586
0.751692 0.882040 0.654529
0.823182 0.891306 0.664419
0.893354 0.901131 0.673397
0.963634 0.911142 0.681866
1.000000 0.921231 0.688955
1.000000 0.922446 0.689710
0.542419 0.935133 0.648620
0.621727 0.943456 0.658509
0.698396 0.952100 0.668343
0.773399 0.961168 0.678192
0.846938 0.970798 0.687847
0.919007 0.981221 0.696167
0.991331 0.991906 0.704199
1.000000 1.000000 0.711210
1.000000 1.000000 0.711866
0.293220 0.169040 0.506790
0.372723 0.179533 0.514644
0.450799 0.189998 0.522160
0.528205 0.200498 0.529460
0.605160 0.211036 0.536605
0.682265 0.221389 0.544142
0.762276 0.230534 0.553963
0.842989 0.239367 0.563441
0.847963 0.239627 0.563789
0.333335 0.273538 0.529179
0.413327 0.284778 0.536785
0.491587 0.295837 0.544164
0.568889 0.306795 0.551430
0.645464 0.317658 0.558641
0.721829 0.328243 0.566255
0.800397 0.337669 0.575813
0.879405 0.346658 0.585125
0.885248 0.347040 0.585580
0.375424 0.376486 0.553570
0.455492 0.388070 0.558902
0.532967 0.399269 0.566491
0.609217 0.410239 0.574063
0.684476 0.420989 0.581674
0.759181 0.431373 0.589697
0.835407 0.440646 0.599331
0.911820 0.449364 0.608813
0.918397 0.449833 0.609395
0.416144 0.477962 0.578411
0.495890 0.489056 0.584071
0.572157 0.499992 0.590466
0.646444 0.510551 0.598669
0.719488 0.520771 0.607002
0.791687 0.530559 0.615739
0.864915 0.539369 0.625691
0.938414 0.547657 0.635466
0.945639 0.548200 0.636182
0.452661 0.577029 0.604337
0.531135 0.587166 0.611148
0.605972 0.597116 0.618339
0.678180 0.606994 0.626210
0.748862 0.616612 0.635318
0.818877 0.625947 0.644653
0.889775 0.634591 0.654692
0.961208 0.642829 0.664462
0.969098 0.643476 0.665286
0.482741 0.672835 0.632228
0.559934 0.682014 0.640187
0.633792 0.691152 0.648404
0.705297 0.700379 0.656915
0.774874 0.709743 0.665855
0.843590 0.719025 0.675475
0.913035 0.727898 0.685291
0.983275 0.736479 0.694748
0.991876 0.737274 0.695644
0.507913 0.766183 0.661589
0.584731 0.774820 0.670369
0.658497 0.783555 0.679288
0.730177 0.792505 0.688398
0.800173 0.801731 0.697697
0.868783 0.811266 0.707172
0.937636 0.820756 0.716461
1.000000 0.830065 0.725305
1.000000 0.831065 0.726226
0.528157 0.859336 0.691655
0.606034 0.867698 0.700786
0.681106 0.876288 0.709950
0.754339 0.885215 0.719208
0.826132 0.894538 0.728561
0.896674 0.904325 0.737916
0.966569 0.914553 0.746615
1.000000 0.924833 0.754411
1.000000 0.926088 0.755280
0.544839 0.938097 0.715824
0.624315 0.946533 0.724995
0.701176 0.955299 0.734118
0.776395 0.964501 0.743255
0.850372 0.974194 0.752411
0.923226 0.984474 0.761427
0.995247 0.995421 0.769517
1.000000 1.000000 0.776828
1.000000 1.000000 0.777598
0.296482 0.171377 0.566037
0.376588 0.181805 0.573716
0.455230 0.192194 0.581069
0.533172 0.202610 0.588216
0.610636 0.213054 0.595217
0.687704 0.223509 0.602118
0.765613 0.233477 0.610091
0.846271 0.242268 0.620103
0.851321 0.242535 0.620496
0.336529 0.276261 0.587307
0.417043 0.287398 0.594767
0.495789 0.298345 0.602011
0.573550 0.309183 0.609152
0.650556 0.319917 0.616247
0.726894 0.330535 0.623338
0.803630 0.340610 0.631424
0.882507 0.349523 0.641298
0.888418 0.349908 0.641806
0.378252 0.379430 0.611161
0.458799 0.390910 0.615912
0.536683 0.401963 0.623394
0.613314 0.412777 0.630868
0.688928 0.423364 0.638391
0.763616 0.433712 0.646002
0.838276 0.443465 0.654531
0.914484 0.452072 0.664600
0.921118 0.452541 0.665245
0.418347 0.480999 0.635650
0.498503 0.491962 0.640655
0.575136 0.502752 0.646528
0.649729 0.513121 0.654661
0.723056 0.523144 0.662931
0.795281 0.532845 0.671354
0.867284 0.542003 0.680536
0.940624 0.550201 0.690881
0.947908 0.550745 0.691665
0.453995 0.580045 0.661316
0.532809 0.590020 0.667497
0.607999 0.599820 0.674067
0.680567 0.609552 0.681429
0.751595 0.619002 0.690451
0.821792 0.628251 0.699529
0.891869 0.637142 0.709104
0.963215 0.645324 0.719419
0.971167 0.645974 0.720315
0.483156 0.675804 0.688970
0.560761 0.684854 0.696274
0.635045 0.693876 0.703841
0.706993 0.703000 0.711704
0.777022 0.712261 0.720111
0.846073 0.721458 0.729529
0.915101 0.730480 0.739187
0.985325 0.739037 0.749163
0.993995 0.739838 0.750133
0.507649 0.769214 0.718011
0.584956 0.777757 0.726107
0.659223 0.786409 0.734351
0.731418 0.795288 0.742786
0.801947 0.804454 0.751408
0.871079 0.813936 0.760324
0.939914 0.823477 0.769758
1.000000 0.832795 0.779095
1.000000 0.833806 0.780092
0.530083 0.861775 0.747504
0.608045 0.870205 0.756053
0.683223 0.878873 0.764643
0.756582 0.887888 0.773324
0.828523 0.897306 0.782098
0.899293 0.907172 0.790951
0.969149 0.917508 0.799809
1.000000 0.927950 0.808195
1.000000 0.929239 0.809159
0.546890 0.940591 0.772053
0.626514 0.949124 0.780621
0.703542 0.957997 0.789146
0.778948 0.967314 0.797686
0.853132 0.977130 0.806242
0.926343 0.987489 0.814802
0.998666 0.998470 0.823181
1.000000 1.000000 0.830740
1.000000 1.000000 0.831607
