resources/luts/aged-sepia.cube
# Generated by FotoReady. Released under the project GPL-3.0-or-later license.
TITLE "aged-sepia"
LUT_3D_SIZE 5
DOMAIN_MIN 0 0 0
DOMAIN_MAX 1 1 1
0.266384 0.146649 0.032946
0.420824 0.166705 0.048176
0.577465 0.186001 0.061126
0.737670 0.204573 0.072537
0.823441 0.213736 0.077856
0.346743 0.349999 0.088358
0.503782 0.373063 0.101821
0.660408 0.394479 0.112214
0.818413 0.414129 0.121561
0.904131 0.423690 0.126211
0.427291 0.552651 0.135685
0.582384 0.573957 0.152203
0.731805 0.593765 0.164911
0.881173 0.611490 0.174571
0.963944 0.620161 0.179536
0.485586 0.747159 0.184332
0.636201 0.765075 0.202579
0.781688 0.782208 0.220566
0.926220 0.799332 0.232632
1.000000 0.808467 0.236831
0.521575 0.920393 0.229976
0.673792 0.937818 0.247764
0.822778 0.955363 0.264608
0.971390 0.973542 0.280574
1.000000 0.984342 0.286159
0.272929 0.153854 0.167257
0.426898 0.174381 0.185280
0.582852 0.194020 0.200877
0.742166 0.212809 0.214638
0.827591 0.222054 0.221040
0.356379 0.357406 0.223869
0.510913 0.380991 0.239105
0.664811 0.402720 0.252399
0.819928 0.422578 0.264662
0.904213 0.432223 0.270727
0.437847 0.558668 0.274643
0.589825 0.580271 0.291554
0.736018 0.600196 0.306275
0.882339 0.618045 0.318871
0.963723 0.626837 0.325236
0.495515 0.751144 0.327117
0.643444 0.769540 0.345588
0.786556 0.787235 0.363709
0.928847 0.804881 0.377407
1.000000 0.814318 0.382876
0.532661 0.923350 0.375526
0.682873 0.941555 0.393279
0.830139 0.959949 0.410008
0.977270 0.979054 0.425786
1.000000 0.990383 0.431753
0.281217 0.160209 0.300569
0.434687 0.181544 0.317392
0.590905 0.201222 0.335460
0.750266 0.219951 0.351732
0.835825 0.229148 0.359503
0.364630 0.365307 0.353445
0.518947 0.388913 0.368946
0.671323 0.410615 0.385257
0.824727 0.430349 0.400571
0.908194 0.439911 0.408324
0.445472 0.565870 0.406374
0.597329 0.586828 0.424531
0.740394 0.606918 0.441716
0.883760 0.624944 0.457701
0.963786 0.633895 0.465915
0.500767 0.757194 0.462293
0.651061 0.774418 0.483760
0.791881 0.792727 0.502495
0.931998 0.810951 0.518318
1.000000 0.820730 0.525531
0.537633 0.929210 0.513168
0.692650 0.945843 0.535450
0.838271 0.965147 0.552561
0.983988 0.985244 0.568641
1.000000 0.997152 0.575468
0.289281 0.166182 0.437137
0.445446 0.187300 0.452917
0.598953 0.208382 0.468117
0.758288 0.227020 0.486891
0.843943 0.236151 0.496031
0.371947 0.372877 0.485918
0.528413 0.395951 0.499665
0.679275 0.417947 0.515311
0.831922 0.437255 0.533388
0.915081 0.446571 0.542680
0.450913 0.573307 0.537433
0.603406 0.593771 0.552930
0.745562 0.613615 0.570690
0.887250 0.631534 0.589679
0.966611 0.640487 0.599535
0.505673 0.763181 0.595450
0.656156 0.780484 0.614480
0.797567 0.798570 0.634143
0.935610 0.817396 0.652036
1.000000 0.827531 0.660963
0.542419 0.935133 0.648620
0.698396 0.952100 0.668343
0.846938 0.970798 0.687847
0.991331 0.991906 0.704199
1.000000 1.000000 0.711866
0.296482 0.171377 0.566037
0.455230 0.192194 0.581069
0.610636 0.213054 0.595217
0.765613 0.233477 0.610091
0.851321 0.242535 0.620496
0.378252 0.379430 0.611161
0.536683 0.401963 0.623394
0.688928 0.423364 0.638391
0.838276 0.443465 0.654531
0.921118 0.452541 0.665245
0.453995 0.580045 0.661316
0.607999 0.599820 0.674067
0.751595 0.619002 0.690451
0.891869 0.637142 0.709104
0.971167 0.645974 0.720315
0.507649 0.769214 0.718011
0.659223 0.786409 0.734351
0.801947 0.804454 0.751408
0.939914 0.823477 0.769758
1.000000 0.833806 0.780092
0.546890 0.940591 0.772053
0.703542 0.957997 0.789146
0.853132 0.977130 0.806242
0.998666 0.998470 0.823181
1.000000 1.000000 0.831607
