resources/luts/aged-sepia.cube
# Generated by FotoReady. Released under the project GPL-3.0-or-later license.
TITLE "aged-sepia"
LUT_3D_SIZE 17
DOMAIN_MIN 0 0 0
DOMAIN_MAX 1 1 1
0.266384 0.146649 0.032946
0.305091 0.151768 0.037043
0.343604 0.156801 0.040926
0.382151 0.161777 0.044631
0.420824 0.166705 0.048176
0.459671 0.171591 0.051575
0.498717 0.176434 0.054837
0.537979 0.181237 0.057998
0.577465 0.186001 0.061126
0.617177 0.190719 0.064139
0.657116 0.195389 0.067042
0.697281 0.200008 0.069840
0.737670 0.204573 0.072537
0.778279 0.209081 0.075139
0.819104 0.213528 0.077650
0.823487 0.213853 0.077883
0.823441 0.213736 0.077856
0.284932 0.197438 0.048020
0.324037 0.202880 0.051779
0.362904 0.208213 0.055343
0.401764 0.213468 0.058745
0.440715 0.218663 0.062094
0.479802 0.223799 0.065339
0.519051 0.228875 0.068462
0.558477 0.233892 0.071471
0.598090 0.238848 0.074371
0.637894 0.243742 0.077168
0.677891 0.248571 0.079869
0.718078 0.253333 0.082477
0.758456 0.258025 0.084998
0.799019 0.262644 0.087436
0.839764 0.267187 0.089795
0.844646 0.267579 0.090041
0.844600 0.267462 0.090015
0.304782 0.248162 0.062255
0.344158 0.253869 0.065847
0.383252 0.259447 0.069263
0.422300 0.264928 0.072533
0.461397 0.270325 0.075675
0.500593 0.275644 0.078699
0.539916 0.280887 0.081615
0.579381 0.286053 0.084429
0.618998 0.291143 0.087148
0.658771 0.296154 0.089777
0.698703 0.301084 0.092321
0.738793 0.305932 0.094786
0.779039 0.310694 0.097176
0.819437 0.315367 0.099496
0.859984 0.319949 0.101749
0.865340 0.320403 0.102010
0.865294 0.320286 0.101983
0.325585 0.299021 0.075736
0.365121 0.304866 0.079639
0.404312 0.310623 0.082836
0.443419 0.316265 0.085902
0.482539 0.321805 0.088854
0.521723 0.327251 0.091702
0.560999 0.332603 0.094455
0.600383 0.337863 0.097119
0.639886 0.343031 0.099701
0.679511 0.348104 0.102205
0.719262 0.353081 0.104638
0.759137 0.357959 0.107003
0.799136 0.362737 0.109305
0.839255 0.367411 0.111548
0.879491 0.371979 0.113737
0.885293 0.372487 0.114017
0.885249 0.372370 0.113990
0.346743 0.349999 0.088358
0.386535 0.355875 0.092460
0.425711 0.361688 0.096108
0.464758 0.367435 0.099015
0.503782 0.373063 0.101821
0.542837 0.378580 0.104536
0.581949 0.383988 0.107169
0.621136 0.389288 0.109726
0.660408 0.394479 0.112214
0.699771 0.399561 0.114636
0.739226 0.404531 0.116998
0.778774 0.409388 0.119305
0.818413 0.414129 0.121561
0.858140 0.418751 0.123771
0.897951 0.423252 0.125937
0.904173 0.423805 0.126239
0.904131 0.423690 0.126211
0.367856 0.400982 0.100509
0.407821 0.406849 0.104558
0.447083 0.412615 0.108542
0.485951 0.418341 0.112038
0.524764 0.424003 0.114741
0.563572 0.429538 0.117366
0.602406 0.434948 0.119921
0.641283 0.440235 0.122413
0.680212 0.445398 0.124847
0.719199 0.450436 0.127229
0.758246 0.455347 0.129562
0.797355 0.460130 0.131852
0.836522 0.464782 0.134103
0.875746 0.469301 0.136318
0.915024 0.473684 0.138502
0.921632 0.474273 0.138833
0.921594 0.474158 0.138804
0.388558 0.451844 0.112349
0.428576 0.457648 0.116388
0.467854 0.463335 0.120375
0.506645 0.468938 0.124340
0.545121 0.474505 0.127766
0.583571 0.480005 0.130342
0.622014 0.485366 0.132861
0.660467 0.490587 0.135328
0.698940 0.495669 0.137750
0.737441 0.500612 0.140131
0.775970 0.505413 0.142476
0.814528 0.510071 0.144789
0.853115 0.514584 0.147074
0.891727 0.518949 0.149336
0.930372 0.523169 0.151574
0.937338 0.523782 0.151939
0.937304 0.523670 0.151909
0.408489 0.502448 0.124027
0.448441 0.508135 0.128098
0.487616 0.513690 0.132130
0.526272 0.519147 0.136151
0.564515 0.524518 0.140178
0.602475 0.529850 0.143608
0.640415 0.535109 0.146131
0.678333 0.540213 0.148614
0.716241 0.545164 0.151064
0.754145 0.549961 0.153485
0.792049 0.554602 0.155880
0.829969 0.559095 0.158248
0.867924 0.563445 0.160587
0.905930 0.567658 0.162893
0.944001 0.571740 0.165164
0.951322 0.572382 0.165561
0.951291 0.572270 0.165529
0.427291 0.552651 0.135685
0.467058 0.558168 0.139830
0.506017 0.563539 0.143948
0.544423 0.568798 0.148067
0.582384 0.573957 0.152203
0.619957 0.579021 0.156365
0.657257 0.584040 0.159868
0.694539 0.588981 0.162405
0.731805 0.593765 0.164911
0.769081 0.598401 0.167382
0.806389 0.602896 0.169818
0.843747 0.607257 0.172215
0.881173 0.611490 0.174571
0.918682 0.615601 0.176883
0.956290 0.619596 0.179149
0.963972 0.620272 0.179569
0.963944 0.620161 0.179536
0.444611 0.602309 0.147460
0.484078 0.607602 0.151722
0.522705 0.612737 0.155966
0.560748 0.617746 0.160223
0.598328 0.622648 0.164503
0.635523 0.627457 0.168808
0.672387 0.632184 0.173140
0.709046 0.636890 0.176723
0.745759 0.641547 0.179253
0.782515 0.646072 0.181738
0.819337 0.650470 0.184175
0.856243 0.654750 0.186562
0.893250 0.658916 0.188896
0.930373 0.662975 0.191176
0.967627 0.666933 0.193398
0.975682 0.667651 0.193833
0.975656 0.667541 0.193799
0.460102 0.651274 0.159488
0.499173 0.656300 0.163899
0.537416 0.661175 0.168289
0.575105 0.665939 0.172681
0.612367 0.670613 0.177082
0.649280 0.675211 0.181496
0.685896 0.679743 0.185924
0.722256 0.684217 0.190364
0.758484 0.688701 0.193961
0.794832 0.693163 0.196420
0.831278 0.697515 0.198820
0.867841 0.701763 0.201158
0.904538 0.705912 0.203433
0.941383 0.709968 0.205641
0.978391 0.713937 0.207781
0.986833 0.714707 0.208221
0.986808 0.714598 0.208188
0.473651 0.699504 0.171815
0.512402 0.704299 0.176349
0.550365 0.708962 0.180847
0.587811 0.713532 0.185333
0.624867 0.718029 0.189816
0.661607 0.722466 0.194300
0.698086 0.726854 0.198784
0.734341 0.731199 0.203270
0.770405 0.735510 0.207755
0.806405 0.739859 0.211302
0.842583 0.744213 0.213625
0.878912 0.748478 0.215877
0.915406 0.752658 0.218053
0.952081 0.756760 0.220153
0.988951 0.760790 0.222172
0.997798 0.761623 0.222607
0.997772 0.761514 0.222574
0.485586 0.747159 0.184332
0.524130 0.751774 0.188948
0.561926 0.756277 0.193513
0.599242 0.760704 0.198054
0.636201 0.765075 0.202579
0.672879 0.769402 0.207093
0.709328 0.773695 0.211595
0.745588 0.777961 0.216087
0.781688 0.782208 0.220566
0.817656 0.786443 0.225033
0.853621 0.790741 0.228465
0.889822 0.795071 0.230591
0.926220 0.799332 0.232632
0.962831 0.803528 0.234585
0.999668 0.807666 0.236447
1.000000 0.808577 0.236864
1.000000 0.808467 0.236831
0.496276 0.794413 0.196911
0.534729 0.798901 0.201568
0.572469 0.803295 0.206162
0.609764 0.807630 0.210717
0.646737 0.811925 0.215246
0.683461 0.816192 0.219750
0.719990 0.820439 0.224232
0.756360 0.824676 0.228691
0.792604 0.828908 0.233127
0.828746 0.833142 0.237538
0.864810 0.837384 0.241922
0.900929 0.841716 0.245177
0.937338 0.846105 0.247044
0.973990 0.850443 0.248813
1.000000 0.854737 0.250480
1.000000 0.855740 0.250866
1.000000 0.855629 0.250833
0.506087 0.841439 0.209429
0.544560 0.845851 0.214086
0.582356 0.850188 0.218667
0.619740 0.854481 0.223199
0.656835 0.858750 0.227691
0.693714 0.863006 0.232148
0.730428 0.867258 0.236570
0.767016 0.871513 0.240959
0.803509 0.875779 0.245313
0.839932 0.880061 0.249631
0.876307 0.884365 0.253912
0.912654 0.888697 0.258153
0.949111 0.893144 0.261167
0.985909 0.897673 0.262714
1.000000 0.902170 0.264149
1.000000 0.903281 0.264490
1.000000 0.903168 0.264458
0.515376 0.888405 0.221760
0.553982 0.892794 0.226377
0.591944 0.897122 0.230907
0.629525 0.901424 0.235375
0.666850 0.905716 0.239793
0.703990 0.910010 0.244163
0.740997 0.914315 0.248489
0.777909 0.918638 0.252769
0.814757 0.922986 0.257003
0.851565 0.927365 0.261191
0.888356 0.931780 0.265330
0.925148 0.936236 0.269418
0.961960 0.940738 0.273454
0.998935 0.945381 0.276168
1.000000 0.950129 0.277334
1.000000 0.951366 0.277613
1.000000 0.951252 0.277583
0.521575 0.920393 0.229976
0.560335 0.924794 0.234544
0.598472 0.929146 0.239016
0.636250 0.933482 0.243419
0.673792 0.937818 0.247764
0.711171 0.942166 0.252054
0.748437 0.946535 0.256291
0.785630 0.950932 0.260476
0.822778 0.955363 0.264608
0.859908 0.959834 0.268685
0.897040 0.964351 0.272707
0.934195 0.968919 0.276670
0.971390 0.973542 0.280574
1.000000 0.978226 0.284416
1.000000 0.983124 0.285961
1.000000 0.984458 0.286189
1.000000 0.984342 0.286159
0.267802 0.148501 0.067591
0.306400 0.153678 0.071889
0.344803 0.158765 0.075972
0.383236 0.163793 0.079877
0.421794 0.168772 0.083621
0.460522 0.173705 0.087219
0.499447 0.178595 0.090680
0.538583 0.183440 0.094013
0.577939 0.188239 0.097223
0.617520 0.192991 0.100317
0.657325 0.197692 0.103301
0.697354 0.202340 0.106179
0.737604 0.206933 0.108957
0.778073 0.211467 0.111640
0.818755 0.215938 0.114231
0.823175 0.216264 0.114369
0.823129 0.216141 0.114261
0.286679 0.199327 0.082737
0.325662 0.204820 0.086702
0.364405 0.210201 0.090471
0.403139 0.215503 0.094077
0.441958 0.220737 0.097540
0.480910 0.225908 0.100870
0.520022 0.231017 0.104077
0.559309 0.236065 0.107169
0.598781 0.241050 0.110153
0.638442 0.245971 0.113034
0.678293 0.250826 0.115817
0.718333 0.255611 0.118508
0.758561 0.260325 0.121111
0.798973 0.264964 0.123630
0.839565 0.269525 0.126071
0.844479 0.269918 0.126225
0.844433 0.269795 0.126117
0.306806 0.250066 0.097043
0.346041 0.255812 0.100726
0.384994 0.261425 0.104231
0.423898 0.266940 0.107589
0.462851 0.272368 0.110818
0.501900 0.277716 0.113929
0.541074 0.282986 0.116930
0.580389 0.288177 0.119830
0.619853 0.293290 0.122634
0.659473 0.298322 0.125348
0.699249 0.303272 0.127976
0.739181 0.308138 0.130525
0.779267 0.312916 0.132999
0.819504 0.317604 0.135401
0.859887 0.322199 0.137737
0.865272 0.322653 0.137908
0.865226 0.322531 0.137799
0.327809 0.300890 0.110350
0.367200 0.306777 0.114226
0.406237 0.312563 0.117513
0.445190 0.318233 0.120669
0.484154 0.323799 0.123710
0.523180 0.329267 0.126646
0.562297 0.334641 0.129487
0.601520 0.339921 0.132238
0.640860 0.345106 0.134906
0.680321 0.350195 0.137497
0.719905 0.355186 0.140015
0.759613 0.360077 0.142465
0.799442 0.364865 0.144852
0.839390 0.369549 0.147180
0.879452 0.374124 0.149452
0.885280 0.374632 0.149644
0.885236 0.374511 0.149534
0.349114 0.351812 0.122863
0.388754 0.357727 0.126880
0.427774 0.363573 0.130510
0.466655 0.369341 0.133508
0.505513 0.374989 0.136404
0.544399 0.380524 0.139209
0.583342 0.385948 0.141931
0.622358 0.391262 0.144576
0.661458 0.396465 0.147151
0.700646 0.401558 0.149661
0.739926 0.406537 0.152110
0.779296 0.411401 0.154503
0.818756 0.416148 0.156845
0.858302 0.420774 0.159140
0.897932 0.425278 0.161391
0.904174 0.425831 0.161607
0.904132 0.425711 0.161497
0.370329 0.402721 0.134914
0.410132 0.408622 0.138881
0.449232 0.414419 0.142786
0.487932 0.420169 0.146270
0.526567 0.425846 0.149064
0.565198 0.431393 0.151780
0.603853 0.436814 0.154425
0.642548 0.442109 0.157006
0.681295 0.447279 0.159529
0.720099 0.452323 0.161999
0.758961 0.457238 0.164420
0.797883 0.462024 0.166798
0.836862 0.466677 0.169135
0.875897 0.471195 0.171437
0.914984 0.475576 0.173707
0.921609 0.476164 0.173954
0.921571 0.476046 0.173841
0.391091 0.453493 0.146662
0.430937 0.459325 0.150622
0.470042 0.465038 0.154532
0.508660 0.470665 0.158422
0.546957 0.476249 0.161840
0.585219 0.481756 0.164508
0.623473 0.487122 0.167119
0.661736 0.492347 0.169677
0.700019 0.497431 0.172188
0.738327 0.502375 0.174659
0.776662 0.507175 0.177092
0.815025 0.511831 0.179493
0.853415 0.516340 0.181866
0.891831 0.520701 0.184214
0.930285 0.524918 0.186536
0.937265 0.525531 0.186819
0.937231 0.525414 0.186704
0.411041 0.503991 0.158255
0.450810 0.509701 0.162249
0.489804 0.515277 0.166207
0.528277 0.520752 0.170156
0.566337 0.526140 0.174112
0.604108 0.531482 0.177538
0.641850 0.536741 0.180153
0.679570 0.541845 0.182728
0.717278 0.546793 0.185268
0.754980 0.551586 0.187779
0.792686 0.556224 0.190262
0.830413 0.560714 0.192715
0.868180 0.565064 0.195136
0.906002 0.569277 0.197522
0.943894 0.573362 0.199871
0.951229 0.574004 0.200185
0.951199 0.573889 0.200070
0.429825 0.554074 0.169834
0.469400 0.559608 0.173905
0.508167 0.564995 0.177951
0.546381 0.570267 0.182000
0.584150 0.575438 0.186067
0.621531 0.580513 0.190161
0.658632 0.585535 0.193665
0.695713 0.590473 0.196292
0.732784 0.595256 0.198884
0.769870 0.599892 0.201439
0.806992 0.604389 0.203956
0.844169 0.608753 0.206431
0.881420 0.612990 0.208863
0.918758 0.617107 0.211248
0.956200 0.621109 0.213585
0.963896 0.621787 0.213923
0.963868 0.621673 0.213806
0.447090 0.603598 0.181536
0.486355 0.608903 0.185726
0.524782 0.614049 0.189901
0.562627 0.619068 0.194089
0.600014 0.623981 0.198299
0.637023 0.628802 0.202534
0.673706 0.633542 0.206793
0.710184 0.638258 0.210370
0.746714 0.642919 0.212980
0.783293 0.647449 0.215542
0.819942 0.651854 0.218053
0.856680 0.656141 0.220512
0.893524 0.660317 0.222915
0.930488 0.664386 0.225261
0.967587 0.668356 0.227547
0.975656 0.669077 0.227901
0.975630 0.668964 0.227783
0.462494 0.652417 0.193495
0.501365 0.657456 0.197833
0.539416 0.662344 0.202150
0.576919 0.667123 0.206467
0.614002 0.671813 0.210793
0.650741 0.676428 0.215130
0.687189 0.680978 0.219480
0.723386 0.685472 0.223842
0.759451 0.689972 0.227427
0.795633 0.694445 0.229956
0.831918 0.698808 0.232423
0.868325 0.703068 0.234827
0.904870 0.707231 0.237164
0.941569 0.711302 0.239432
0.978434 0.715287 0.241630
0.986890 0.716062 0.241989
0.986864 0.715949 0.241871
0.475975 0.700514 0.205740
0.514539 0.705326 0.210195
0.552323 0.710008 0.214614
0.589597 0.714598 0.219020
0.626486 0.719116 0.223422
0.663066 0.723575 0.227823
0.699388 0.727985 0.232225
0.735492 0.732355 0.236626
0.771410 0.736692 0.241026
0.807262 0.741062 0.244554
0.843292 0.745432 0.246939
0.879476 0.749714 0.249249
0.915830 0.753912 0.251482
0.952369 0.758034 0.253635
0.989107 0.762084 0.255706
0.997969 0.762924 0.256061
0.997942 0.762811 0.255942
0.487877 0.748053 0.218154
0.526248 0.752691 0.222685
0.563878 0.757217 0.227166
0.601033 0.761669 0.231621
0.637838 0.766066 0.236060
0.674367 0.770420 0.240487
0.710672 0.774740 0.244901
0.746792 0.779035 0.249304
0.782758 0.783312 0.253693
0.818595 0.787578 0.258068
0.854428 0.791903 0.261475
0.890496 0.796255 0.263654
0.926765 0.800538 0.265745
0.963251 0.804758 0.267745
0.999967 0.808920 0.269652
1.000000 0.809839 0.269989
1.000000 0.809725 0.269871
0.498569 0.795210 0.230612
0.536861 0.799725 0.235179
0.574447 0.804148 0.239682
0.611594 0.808513 0.244147
0.648424 0.812838 0.248584
0.685011 0.817136 0.252996
0.721407 0.821415 0.257384
0.757649 0.825685 0.261750
0.793769 0.829951 0.266091
0.829792 0.834221 0.270406
0.865740 0.838498 0.274693
0.901742 0.842862 0.277916
0.938032 0.847277 0.279828
0.974570 0.851644 0.281638
1.000000 0.855966 0.283344
1.000000 0.856978 0.283650
1.000000 0.856864 0.283532
0.508414 0.842156 0.242989
0.546738 0.846601 0.247551
0.584392 0.850970 0.252037
0.621640 0.855298 0.256472
0.658603 0.859601 0.260868
0.695355 0.863892 0.265227
0.731948 0.868181 0.269552
0.768419 0.872473 0.273842
0.804799 0.876777 0.278096
0.841112 0.881099 0.282314
0.877382 0.885443 0.286493
0.913628 0.889815 0.290631
0.949982 0.894299 0.293608
0.986676 0.898859 0.295191
1.000000 0.903389 0.296660
1.000000 0.904511 0.296920
1.000000 0.904395 0.296803
0.517768 0.889060 0.255162
0.556237 0.893485 0.259679
0.594068 0.897851 0.264108
0.631524 0.902191 0.268475
0.668728 0.906522 0.272791
0.705753 0.910856 0.277060
0.742649 0.915201 0.281282
0.779454 0.919565 0.285459
0.816198 0.923955 0.289589
0.852907 0.928377 0.293672
0.889603 0.932835 0.297705
0.926304 0.937335 0.301686
0.963028 0.941883 0.305615
0.999914 0.946567 0.308284
1.000000 0.951351 0.309478
1.000000 0.952601 0.309677
1.000000 0.952483 0.309561
0.524028 0.921014 0.263260
0.562658 0.925455 0.267724
0.600672 0.929847 0.272092
0.638332 0.934224 0.276391
0.675761 0.938602 0.280631
0.713031 0.942992 0.284816
0.750194 0.947404 0.288948
0.787286 0.951844 0.293026
0.824338 0.956320 0.297050
0.861375 0.960837 0.301020
0.898419 0.965400 0.304932
0.935489 0.970014 0.308786
0.972602 0.974685 0.312579
1.000000 0.979417 0.316310
1.000000 0.984356 0.317850
1.000000 0.985704 0.317997
1.000000 0.985585 0.317882
0.269326 0.150336 0.101264
0.307852 0.155558 0.105752
0.346180 0.160689 0.110023
0.384536 0.165759 0.114114
0.423013 0.170777 0.118045
0.461658 0.175748 0.121830
0.500496 0.180673 0.125478
0.539543 0.185552 0.128998
0.578806 0.190384 0.132396
0.618290 0.195166 0.135679
0.657996 0.199896 0.138852
0.697923 0.204571 0.141920
0.738068 0.209189 0.144889
0.778428 0.213747 0.147763
0.818999 0.218241 0.150546
0.823456 0.218575 0.150709
0.823410 0.218452 0.150602
0.288439 0.201219 0.116495
0.327301 0.206762 0.120664
0.365922 0.212190 0.124634
0.404530 0.217537 0.128442
0.443221 0.222814 0.132105
0.482043 0.228026 0.135635
0.521021 0.233175 0.139044
0.560172 0.238260 0.142337
0.599505 0.243281 0.145522
0.639024 0.248236 0.148605
0.678729 0.253123 0.151591
0.718622 0.257939 0.154485
0.758698 0.262682 0.157292
0.798956 0.267348 0.160017
0.839390 0.271935 0.162663
0.844336 0.272338 0.162846
0.844289 0.272215 0.162738
0.308837 0.251972 0.130887
0.347937 0.257762 0.134779
0.386755 0.263417 0.138490
0.425522 0.268970 0.142053
0.464334 0.274436 0.145487
0.503241 0.279819 0.148803
0.542269 0.285123 0.152010
0.581435 0.290346 0.155115
0.620749 0.295489 0.158124
0.660214 0.300550 0.161045
0.699832 0.305527 0.163881
0.739604 0.310418 0.166637
0.779527 0.315220 0.169319
0.819598 0.319930 0.171930
0.859813 0.324545 0.174476
0.865224 0.325008 0.174679
0.865178 0.324886 0.174571
0.330056 0.302782 0.144413
0.369309 0.308716 0.148384
0.408199 0.314538 0.151881
0.447001 0.320241 0.155247
0.485814 0.325839 0.158497
0.524685 0.331337 0.161643
0.563644 0.336739 0.164692
0.602707 0.342045 0.167653
0.641883 0.347255 0.170532
0.681178 0.352367 0.173333
0.720593 0.357380 0.176062
0.760129 0.362291 0.178724
0.799783 0.367097 0.181324
0.839553 0.371797 0.183865
0.879434 0.376388 0.186352
0.885284 0.376904 0.186578
0.885240 0.376783 0.186469
0.351530 0.353666 0.157213
0.391025 0.359628 0.161268
0.429894 0.365512 0.165001
0.468613 0.371309 0.168213
0.507306 0.376983 0.171323
0.546025 0.382542 0.174341
0.584799 0.387989 0.177277
0.623642 0.393324 0.180136
0.662567 0.398547 0.182926
0.701577 0.403657 0.185650
0.740676 0.408652 0.188315
0.779862 0.413530 0.190924
0.819135 0.418290 0.193483
0.858492 0.422928 0.195995
0.897929 0.427441 0.198464
0.904189 0.428002 0.198719
0.904147 0.427882 0.198608
0.372873 0.404520 0.169564
0.412519 0.410461 0.173573
0.451460 0.416296 0.177521
0.489994 0.422078 0.181115
0.528453 0.427775 0.184127
0.566905 0.433341 0.187061
0.605378 0.438779 0.189925
0.643889 0.444090 0.192724
0.682449 0.449274 0.195466
0.721063 0.454330 0.198155
0.759733 0.459256 0.200795
0.798459 0.464051 0.203393
0.837240 0.468711 0.205951
0.876074 0.473236 0.208475
0.914956 0.477621 0.210967
0.921594 0.478216 0.211256
0.921556 0.478097 0.211144
0.393723 0.455218 0.181624
0.433398 0.461085 0.185631
0.472332 0.466831 0.189588
0.510778 0.472488 0.193526
0.548895 0.478096 0.197063
0.586966 0.483616 0.199953
0.625027 0.488994 0.202785
0.663094 0.494229 0.205566
0.701178 0.499322 0.208300
0.739284 0.504273 0.210994
0.777415 0.509079 0.213651
0.815571 0.513738 0.216276
0.853751 0.518250 0.218874
0.891958 0.522613 0.221447
0.930206 0.526833 0.223991
0.937197 0.527453 0.224318
0.937163 0.527337 0.224204
0.413721 0.505625 0.193541
0.453307 0.511364 0.197588
0.492118 0.516967 0.201597
0.530406 0.522468 0.205599
0.568280 0.527879 0.209607
0.605855 0.533237 0.213158
0.643392 0.538502 0.216000
0.680904 0.543611 0.218802
0.718402 0.548562 0.221569
0.755892 0.553357 0.224307
0.793388 0.557998 0.227015
0.830910 0.562493 0.229692
0.868475 0.566849 0.232335
0.906100 0.571070 0.234942
0.943798 0.575163 0.237509
0.951142 0.575813 0.237869
0.951112 0.575698 0.237754
0.432512 0.555599 0.205458
0.471893 0.561157 0.209585
0.510465 0.566565 0.213687
0.548482 0.571857 0.217793
0.586052 0.577046 0.221918
0.623232 0.582136 0.226071
0.660126 0.587169 0.229705
0.696997 0.592110 0.232559
0.733861 0.596899 0.235377
0.770745 0.601542 0.238156
0.807670 0.606047 0.240894
0.844653 0.610420 0.243589
0.881713 0.614669 0.246238
0.918866 0.618799 0.248840
0.956124 0.622815 0.251391
0.963830 0.623501 0.251777
0.963801 0.623388 0.251660
0.449746 0.604996 0.217511
0.488804 0.610320 0.221762
0.527024 0.615482 0.225997
0.564665 0.620517 0.230244
0.601853 0.625448 0.234512
0.638667 0.630288 0.238803
0.675161 0.635049 0.243116
0.711448 0.639781 0.246819
0.747783 0.644453 0.249651
0.784172 0.648995 0.252432
0.820634 0.653413 0.255161
0.857190 0.657716 0.257835
0.893854 0.661908 0.260452
0.930644 0.665995 0.263010
0.967572 0.669984 0.265507
0.975649 0.670715 0.265910
0.975623 0.670602 0.265793
0.465087 0.653675 0.229831
0.503752 0.658732 0.234229
0.541605 0.663641 0.238602
0.578916 0.668442 0.242975
0.615812 0.673155 0.247354
0.652368 0.677794 0.251744
0.688638 0.682370 0.256144
0.724660 0.686892 0.260555
0.760550 0.691414 0.264261
0.796553 0.695904 0.267006
0.832663 0.700286 0.269686
0.868899 0.704567 0.272302
0.905276 0.708751 0.274849
0.941811 0.712845 0.277325
0.978516 0.716855 0.279729
0.986981 0.717641 0.280139
0.986955 0.717529 0.280022
0.478529 0.701642 0.242427
0.516900 0.706479 0.246937
0.554498 0.711186 0.251409
0.591591 0.715803 0.255866
0.628304 0.720350 0.260318
0.664713 0.724839 0.264767
0.700868 0.729280 0.269215
0.736810 0.733683 0.273661
0.772569 0.738054 0.278105
0.808261 0.742453 0.281749
0.844127 0.746848 0.284344
0.880151 0.751154 0.286862
0.916349 0.755380 0.289300
0.952735 0.759530 0.291658
0.989324 0.763610 0.293931
0.998196 0.764462 0.294338
0.998169 0.764349 0.294220
0.490431 0.749070 0.255178
0.528621 0.753738 0.259760
0.566076 0.758295 0.264290
0.603062 0.762780 0.268792
0.639703 0.767210 0.273276
0.676073 0.771599 0.277746
0.712222 0.775956 0.282203
0.748191 0.780289 0.286646
0.784009 0.784605 0.291075
0.819704 0.788911 0.295488
0.855391 0.793273 0.299007
0.891310 0.797655 0.301390
0.927434 0.801970 0.303683
0.963779 0.806223 0.305883
1.000000 0.810421 0.307989
1.000000 0.811354 0.308379
1.000000 0.811240 0.308261
0.501160 0.796133 0.267958
0.539282 0.800684 0.272572
0.576706 0.805143 0.277119
0.613696 0.809545 0.281627
0.650373 0.813909 0.286105
0.686812 0.818248 0.290556
0.723064 0.822569 0.294983
0.759166 0.826882 0.299385
0.795150 0.831193 0.303762
0.831041 0.835508 0.308111
0.866861 0.839833 0.312431
0.902733 0.844239 0.315762
0.938889 0.848692 0.317871
0.975296 0.853096 0.319878
1.000000 0.857459 0.321778
1.000000 0.858487 0.322139
1.000000 0.858373 0.322021
0.511080 0.843003 0.280644
0.549246 0.847489 0.285248
0.586749 0.851899 0.289774
0.623851 0.856270 0.294248
0.660673 0.860617 0.298681
0.697289 0.864954 0.303076
0.733749 0.869289 0.307434
0.770092 0.873631 0.311757
0.806347 0.877984 0.316043
0.842540 0.882357 0.320290
0.878693 0.886753 0.324498
0.914825 0.891179 0.328664
0.951063 0.895712 0.331744
0.987638 0.900316 0.333519
1.000000 0.904891 0.335178
1.000000 0.906031 0.335494
1.000000 0.905915 0.335377
0.520545 0.889847 0.293111
0.558869 0.894319 0.297666
0.596560 0.898732 0.302131
0.633883 0.903120 0.306533
0.670957 0.907500 0.310882
0.707857 0.911885 0.315182
0.744631 0.916282 0.319434
0.781319 0.920700 0.323639
0.817950 0.925145 0.327797
0.854550 0.929622 0.331905
0.891139 0.934138 0.335963
0.927738 0.938698 0.339968
0.964364 0.943305 0.343918
1.000000 0.948045 0.346687
1.000000 0.952879 0.348068
1.000000 0.954150 0.348322
1.000000 0.954032 0.348207
0.526902 0.921770 0.301401
0.565395 0.926262 0.305900
0.603278 0.930705 0.310302
0.640812 0.935133 0.314632
0.678119 0.939564 0.318902
0.715272 0.944009 0.323116
0.752320 0.948476 0.327275
0.789303 0.952973 0.331379
0.826249 0.957507 0.335428
0.863185 0.962084 0.339420
0.900130 0.966708 0.343355
0.937105 0.971385 0.347229
0.974127 0.976119 0.351042
1.000000 0.980917 0.354791
1.000000 0.985911 0.356480
1.000000 0.987281 0.356683
1.000000 0.987162 0.356569
0.271125 0.152098 0.134394
0.309694 0.157334 0.139040
0.348059 0.162477 0.143466
0.386449 0.167556 0.147712
0.424956 0.172582 0.151798
0.463627 0.177560 0.155739
0.502488 0.182491 0.159543
0.541554 0.187373 0.163219
0.580833 0.192207 0.166774
0.620329 0.196989 0.170215
0.660044 0.201718 0.173546
0.699976 0.206391 0.176774
0.740123 0.211005 0.179903
0.780482 0.215557 0.182937
0.821048 0.220043 0.185882
0.825554 0.220382 0.186068
