resources/luts/clean-contrast.cube
TITLE "clean-contrast"
LUT_3D_SIZE 6
DOMAIN_MIN 0 0 0
DOMAIN_MAX 1 1 1
0.000000 0.000000 0.000000
0.187103 0.000000 0.000000
0.410238 0.000000 0.000000
0.630834 0.000000 0.000000
0.849866 0.000000 0.000000
1.000000 0.000000 0.000000
0.000000 0.185047 0.000000
0.182913 0.182913 0.000000
0.406113 0.180292 0.000000
0.626745 0.177671 0.000000
0.845801 0.175048 0.000000
1.000000 0.172911 0.000000
0.000000 0.405730 0.000000
0.177767 0.403629 0.000000
0.401050 0.401050 0.000000
0.621726 0.398470 0.000000
0.840811 0.395890 0.000000
1.000000 0.393788 0.000000
0.000000 0.623903 0.000000
0.172619 0.621820 0.000000
0.395985 0.619263 0.000000
0.616706 0.616706 0.000000
0.835822 0.614148 0.000000
1.000000 0.612064 0.000000
0.000000 0.840528 0.000000
0.167467 0.838457 0.000000
0.390919 0.835915 0.000000
0.611685 0.833373 0.000000
0.830831 0.830831 0.000000
1.000000 0.828760 0.000000
0.000000 1.000000 0.000000
0.163267 1.000000 0.000000
0.386790 1.000000 0.000000
0.607593 1.000000 0.000000
0.826765 1.000000 0.000000
1.000000 1.000000 0.000000
0.000000 0.000000 0.188423
0.186289 0.000000 0.186289
0.409437 0.000000 0.183670
0.630040 0.000000 0.181049
0.849076 0.000000 0.178428
1.000000 0.000000 0.176292
0.000000 0.184234 0.184234
0.182099 0.182099 0.182099
0.405312 0.179478 0.179478
0.625951 0.176856 0.176856
0.845011 0.174234 0.174234
1.000000 0.172096 0.172096
0.000000 0.404929 0.179089
0.176953 0.402828 0.176953
0.400248 0.400248 0.174330
0.620931 0.397668 0.171707
0.840022 0.395088 0.169083
1.000000 0.392986 0.166944
0.000000 0.623109 0.173941
0.171804 0.621025 0.171804
0.395183 0.618468 0.169180
0.615911 0.615911 0.166555
0.835032 0.613354 0.163929
1.000000 0.611270 0.161789
0.000000 0.839738 0.168790
0.166652 0.837667 0.166652
0.390117 0.835126 0.164026
0.610890 0.832584 0.161400
0.830042 0.830042 0.158772
1.000000 0.827970 0.156631
0.000000 1.000000 0.164591
0.162451 1.000000 0.162451
0.385988 1.000000 0.159824
0.606798 1.000000 0.157197
0.825975 1.000000 0.154568
1.000000 1.000000 0.152425
0.000000 0.000000 0.413132
0.185291 0.000000 0.411032
0.408453 0.000000 0.408453
0.629066 0.000000 0.405875
0.848107 0.000000 0.403296
1.000000 0.000000 0.401194
0.000000 0.183235 0.409008
0.181099 0.181099 0.406907
0.404328 0.178478 0.404328
0.624976 0.175856 0.401749
0.844042 0.173234 0.399170
1.000000 0.171096 0.397068
0.000000 0.403946 0.403946
0.175953 0.401844 0.401844
0.399265 0.399265 0.399265
0.619956 0.396685 0.396685
0.839053 0.394105 0.394105
1.000000 0.392002 0.392002
0.000000 0.622134 0.398882
0.170803 0.620051 0.396780
0.394200 0.617493 0.394200
0.614936 0.614936 0.391619
0.834063 0.612379 0.389038
1.000000 0.610294 0.386935
0.000000 0.838769 0.393817
0.165651 0.836698 0.391714
0.389133 0.834156 0.389133
0.609915 0.831614 0.386552
0.829072 0.829072 0.383971
1.000000 0.827001 0.381867
0.000000 1.000000 0.389689
0.161450 1.000000 0.387586
0.385004 1.000000 0.385004
0.605823 1.000000 0.382422
0.825005 1.000000 0.379840
1.000000 1.000000 0.377736
0.000000 0.000000 0.635286
0.184292 0.000000 0.633203
0.407470 0.000000 0.630647
0.628091 0.000000 0.628091
0.847138 0.000000 0.625534
1.000000 0.000000 0.623451
0.000000 0.182236 0.631197
0.180100 0.180100 0.629114
0.403345 0.177479 0.626558
0.624001 0.174857 0.624001
0.843073 0.172234 0.621444
1.000000 0.170096 0.619361
0.000000 0.402962 0.626179
0.174953 0.400861 0.624095
0.398281 0.398281 0.621539
0.618982 0.395701 0.618982
0.838084 0.393121 0.616424
1.000000 0.391018 0.614340
0.000000 0.621159 0.621159
0.169803 0.619076 0.619076
0.393216 0.616518 0.616518
0.613961 0.613961 0.613961
0.833094 0.611403 0.611403
1.000000 0.609319 0.609319
0.000000 0.837800 0.616139
0.164650 0.835729 0.614055
0.388149 0.833187 0.611497
0.608940 0.830645 0.608940
0.828103 0.828103 0.606382
1.000000 0.826031 0.604297
0.000000 1.000000 0.612048
0.160448 1.000000 0.609964
0.384020 1.000000 0.607406
0.604847 1.000000 0.604847
0.824036 1.000000 0.602289
1.000000 1.000000 0.600204
0.000000 0.000000 0.855863
0.183293 0.000000 0.853792
0.406487 0.000000 0.851252
0.627116 0.000000 0.848711
0.846170 0.000000 0.846170
1.000000 0.000000 0.844099
0.000000 0.181236 0.851798
0.179101 0.179101 0.849728
0.402362 0.176479 0.847187
0.623026 0.173857 0.844646
0.842104 0.171233 0.842104
1.000000 0.169095 0.840034
0.000000 0.401979 0.846810
0.173953 0.399877 0.844739
0.397297 0.397297 0.842198
0.618007 0.394717 0.839656
0.837115 0.392137 0.837115
1.000000 0.390034 0.835044
0.000000 0.620184 0.841821
0.168802 0.618101 0.839750
0.392232 0.615543 0.837208
0.612986 0.612986 0.834666
0.832125 0.610428 0.832125
1.000000 0.608344 0.830053
0.000000 0.836831 0.836831
0.163648 0.834760 0.834760
0.387165 0.832218 0.832218
0.607964 0.829676 0.829676
0.827134 0.827134 0.827134
1.000000 0.825062 0.825062
0.000000 1.000000 0.832765
0.159446 1.000000 0.830694
0.383036 1.000000 0.828151
0.603872 1.000000 0.825609
0.823067 1.000000 0.823067
1.000000 1.000000 0.820995
0.000000 0.000000 1.000000
0.182479 0.000000 1.000000
0.405686 0.000000 1.000000
0.626322 0.000000 1.000000
0.845380 0.000000 1.000000
1.000000 0.000000 1.000000
0.000000 0.180422 1.000000
0.178286 0.178286 1.000000
0.401560 0.175664 1.000000
0.622232 0.173042 1.000000
0.841315 0.170418 1.000000
1.000000 0.168280 1.000000
0.000000 0.401178 1.000000
0.173138 0.399076 1.000000
0.396496 0.396496 1.000000
0.617212 0.393916 1.000000
0.836325 0.391335 1.000000
1.000000 0.389232 1.000000
0.000000 0.619390 1.000000
0.167987 0.617306 1.000000
0.391430 0.614749 1.000000
0.612191 0.612191 1.000000
0.831335 0.609633 1.000000
1.000000 0.607549 1.000000
0.000000 0.836041 1.000000
0.162832 0.833970 1.000000
0.386363 0.831428 1.000000
0.607170 0.828886 1.000000
0.826344 0.826344 1.000000
1.000000 0.824272 1.000000
0.000000 1.000000 1.000000
0.158630 1.000000 1.000000
0.382233 1.000000 1.000000
0.603077 1.000000 1.000000
0.822277 1.000000 1.000000
1.000000 1.000000 1.000000
