resources/luts/clean-contrast.cube
TITLE "clean-contrast"
LUT_3D_SIZE 16
DOMAIN_MIN 0 0 0
DOMAIN_MAX 1 1 1
0.000000 0.000000 0.000000
0.035175 0.000000 0.000000
0.111707 0.000000 0.000000
0.187103 0.000000 0.000000
0.261878 0.000000 0.000000
0.336223 0.000000 0.000000
0.410238 0.000000 0.000000
0.483984 0.000000 0.000000
0.557506 0.000000 0.000000
0.630834 0.000000 0.000000
0.703992 0.000000 0.000000
0.776997 0.000000 0.000000
0.849866 0.000000 0.000000
0.922609 0.000000 0.000000
0.995238 0.000000 0.000000
1.000000 0.000000 0.000000
0.000000 0.034789 0.000000
0.034387 0.034387 0.000000
0.110938 0.033484 0.000000
0.186341 0.032580 0.000000
0.261122 0.031676 0.000000
0.335470 0.030771 0.000000
0.409488 0.029866 0.000000
0.483237 0.028960 0.000000
0.556761 0.028053 0.000000
0.630091 0.027146 0.000000
0.703250 0.026238 0.000000
0.776257 0.025330 0.000000
0.849127 0.024421 0.000000
0.921871 0.023511 0.000000
0.994501 0.022601 0.000000
1.000000 0.022196 0.000000
0.000000 0.110480 0.000000
0.032613 0.110088 0.000000
0.109205 0.109205 0.000000
0.184627 0.108323 0.000000
0.259419 0.107440 0.000000
0.333776 0.106557 0.000000
0.407800 0.105674 0.000000
0.481555 0.104791 0.000000
0.555084 0.103908 0.000000
0.628418 0.103025 0.000000
0.701581 0.102141 0.000000
0.774591 0.101257 0.000000
0.847464 0.100373 0.000000
0.920211 0.099489 0.000000
0.992843 0.098605 0.000000
1.000000 0.098212 0.000000
0.000000 0.185047 0.000000
0.030838 0.184659 0.000000
0.107473 0.183786 0.000000
0.182913 0.182913 0.000000
0.257716 0.182039 0.000000
0.332082 0.181166 0.000000
0.406113 0.180292 0.000000
0.479873 0.179418 0.000000
0.553407 0.178545 0.000000
0.626745 0.177671 0.000000
0.699912 0.176797 0.000000
0.772925 0.175923 0.000000
0.845801 0.175048 0.000000
0.918551 0.174174 0.000000
0.991186 0.173300 0.000000
1.000000 0.172911 0.000000
0.000000 0.259001 0.000000
0.029060 0.258616 0.000000
0.105739 0.257748 0.000000
0.181198 0.256881 0.000000
0.256013 0.256013 0.000000
0.330387 0.255146 0.000000
0.404425 0.254278 0.000000
0.478191 0.253410 0.000000
0.551730 0.252542 0.000000
0.625072 0.251675 0.000000
0.698242 0.250807 0.000000
0.771259 0.249939 0.000000
0.844138 0.249071 0.000000
0.916891 0.248203 0.000000
0.989528 0.247335 0.000000
1.000000 0.246949 0.000000
0.000000 0.332529 0.000000
0.027280 0.332145 0.000000
0.104006 0.331282 0.000000
0.179483 0.330419 0.000000
0.254310 0.329556 0.000000
0.328693 0.328693 0.000000
0.402737 0.327829 0.000000
0.476509 0.326966 0.000000
0.550052 0.326103 0.000000
0.623399 0.325239 0.000000
0.696573 0.324376 0.000000
0.769593 0.323512 0.000000
0.842475 0.322649 0.000000
0.915230 0.321785 0.000000
0.987870 0.320922 0.000000
1.000000 0.320538 0.000000
0.000000 0.405730 0.000000
0.025497 0.405348 0.000000
0.102271 0.404488 0.000000
0.177767 0.403629 0.000000
0.252606 0.402769 0.000000
0.326998 0.401909 0.000000
0.401050 0.401050 0.000000
0.474827 0.400190 0.000000
0.548375 0.399330 0.000000
0.621726 0.398470 0.000000
0.694903 0.397610 0.000000
0.767927 0.396750 0.000000
0.840811 0.395890 0.000000
0.913570 0.395030 0.000000
0.986212 0.394170 0.000000
1.000000 0.393788 0.000000
0.000000 0.478667 0.000000
0.023712 0.478286 0.000000
0.100536 0.477429 0.000000
0.176051 0.476572 0.000000
0.250903 0.475715 0.000000
0.325303 0.474859 0.000000
0.399361 0.474002 0.000000
0.473145 0.473145 0.000000
0.546698 0.472288 0.000000
0.620052 0.471431 0.000000
0.693234 0.470574 0.000000
0.766261 0.469717 0.000000
0.839148 0.468859 0.000000
0.911909 0.468002 0.000000
0.984554 0.467145 0.000000
1.000000 0.466764 0.000000
0.000000 0.551381 0.000000
0.021925 0.551001 0.000000
0.098800 0.550147 0.000000
0.174335 0.549292 0.000000
0.249199 0.548438 0.000000
0.323608 0.547583 0.000000
0.397673 0.546729 0.000000
0.471462 0.545875 0.000000
0.545020 0.545020 0.000000
0.618379 0.544165 0.000000
0.691564 0.543311 0.000000
0.764594 0.542456 0.000000
0.837485 0.541602 0.000000
0.910249 0.540747 0.000000
0.982897 0.539892 0.000000
1.000000 0.539512 0.000000
0.000000 0.623903 0.000000
0.020134 0.623524 0.000000
0.097064 0.622672 0.000000
0.172619 0.621820 0.000000
0.247494 0.620968 0.000000
0.321912 0.620115 0.000000
0.395985 0.619263 0.000000
0.469780 0.618410 0.000000
0.543342 0.617558 0.000000
0.616706 0.616706 0.000000
0.689894 0.615853 0.000000
0.762928 0.615001 0.000000
0.835822 0.614148 0.000000
0.908588 0.613296 0.000000
0.981238 0.612443 0.000000
1.000000 0.612064 0.000000
0.000000 0.696257 0.000000
0.018341 0.695879 0.000000
0.095327 0.695028 0.000000
0.170902 0.694178 0.000000
0.245790 0.693328 0.000000
0.320217 0.692477 0.000000
0.394296 0.691627 0.000000
0.468097 0.690776 0.000000
0.541664 0.689926 0.000000
0.615032 0.689075 0.000000
0.688225 0.688225 0.000000
0.761261 0.687374 0.000000
0.834158 0.686523 0.000000
0.906928 0.685673 0.000000
0.979580 0.684822 0.000000
1.000000 0.684444 0.000000
0.000000 0.768460 0.000000
0.016543 0.768083 0.000000
0.093590 0.767234 0.000000
0.169185 0.766385 0.000000
0.244085 0.765537 0.000000
0.318521 0.764688 0.000000
0.392608 0.763839 0.000000
0.466414 0.762990 0.000000
0.539987 0.762142 0.000000
0.613358 0.761293 0.000000
0.686555 0.760444 0.000000
0.759595 0.759595 0.000000
0.832495 0.758746 0.000000
0.905267 0.757897 0.000000
0.977922 0.757048 0.000000
1.000000 0.756671 0.000000
0.000000 0.840528 0.000000
0.014742 0.840151 0.000000
0.091852 0.839304 0.000000
0.167467 0.838457 0.000000
0.242380 0.837610 0.000000
0.316825 0.836762 0.000000
0.390919 0.835915 0.000000
0.464731 0.835068 0.000000
0.538309 0.834221 0.000000
0.611685 0.833373 0.000000
0.684885 0.832526 0.000000
0.757928 0.831679 0.000000
0.830831 0.830831 0.000000
0.903606 0.829984 0.000000
0.976264 0.829136 0.000000
1.000000 0.828760 0.000000
0.000000 0.912472 0.000000
0.012937 0.912096 0.000000
0.090113 0.911250 0.000000
0.165749 0.910404 0.000000
0.240675 0.909559 0.000000
0.315129 0.908713 0.000000
0.389230 0.907867 0.000000
0.463048 0.907021 0.000000
0.536630 0.906175 0.000000
0.610011 0.905329 0.000000
0.683215 0.904483 0.000000
0.756262 0.903637 0.000000
0.829168 0.902791 0.000000
0.901945 0.901945 0.000000
0.974606 0.901099 0.000000
1.000000 0.900723 0.000000
0.000000 0.984303 0.000000
0.011126 0.983927 0.000000
0.088373 0.983083 0.000000
0.164031 0.982238 0.000000
0.238970 0.981394 0.000000
0.313433 0.980549 0.000000
0.387541 0.979705 0.000000
0.461365 0.978860 0.000000
0.534952 0.978016 0.000000
0.608337 0.977171 0.000000
0.681545 0.976326 0.000000
0.754595 0.975482 0.000000
0.827504 0.974637 0.000000
0.900285 0.973792 0.000000
0.972948 0.972948 0.000000
1.000000 0.972572 0.000000
0.000000 1.000000 0.000000
0.010319 1.000000 0.000000
0.087600 1.000000 0.000000
0.163267 1.000000 0.000000
0.238212 1.000000 0.000000
0.312679 1.000000 0.000000
0.386790 1.000000 0.000000
0.460617 1.000000 0.000000
0.534206 1.000000 0.000000
0.607593 1.000000 0.000000
0.680802 1.000000 0.000000
0.753854 1.000000 0.000000
0.826765 1.000000 0.000000
0.899546 1.000000 0.000000
0.972211 1.000000 0.000000
1.000000 1.000000 0.000000
0.000000 0.000000 0.035423
0.035022 0.000000 0.035022
0.111558 0.000000 0.034119
0.186955 0.000000 0.033216
0.261731 0.000000 0.032312
0.336077 0.000000 0.031407
0.410092 0.000000 0.030502
0.483839 0.000000 0.029597
0.557362 0.000000 0.028691
0.630690 0.000000 0.027784
0.703848 0.000000 0.026877
0.776853 0.000000 0.025969
0.849722 0.000000 0.025060
0.922466 0.000000 0.024151
0.995095 0.000000 0.023241
1.000000 0.000000 0.022837
0.000000 0.034636 0.034636
0.034234 0.034234 0.034234
0.110788 0.033331 0.033331
0.186193 0.032427 0.032427
0.260975 0.031522 0.031522
0.335324 0.030618 0.030618
0.409342 0.029712 0.029712
0.483092 0.028806 0.028806
0.556616 0.027899 0.027899
0.629946 0.026992 0.026992
0.703106 0.026085 0.026085
0.776113 0.025176 0.025176
0.848983 0.024267 0.024267
0.921728 0.023357 0.023357
0.994358 0.022447 0.022447
1.000000 0.022042 0.022042
0.000000 0.110330 0.032862
0.032460 0.109938 0.032460
0.109056 0.109056 0.031556
0.184479 0.108173 0.030651
0.259272 0.107291 0.029745
0.333630 0.106408 0.028839
0.407655 0.105525 0.027933
0.481410 0.104642 0.027026
0.554939 0.103758 0.026118
0.628274 0.102875 0.025210
0.701437 0.101991 0.024300
0.774447 0.101108 0.023391
0.847320 0.100224 0.022480
0.920068 0.099340 0.021569
0.992700 0.098455 0.020657
1.000000 0.098062 0.020252
0.000000 0.184899 0.031086
0.030684 0.184511 0.030684
0.107323 0.183638 0.029779
0.182765 0.182765 0.028873
0.257569 0.181891 0.027966
0.331936 0.181018 0.027059
0.405967 0.180144 0.026151
0.479728 0.179270 0.025243
0.553262 0.178396 0.024334
0.626601 0.177523 0.023424
0.699767 0.176649 0.022514
0.772781 0.175775 0.021603
0.845657 0.174900 0.020691
0.918407 0.174026 0.019778
0.991043 0.173152 0.018864
1.000000 0.172763 0.018458
0.000000 0.258854 0.029309
0.028906 0.258469 0.028906
0.105590 0.257601 0.028000
0.181050 0.256734 0.027092
0.255866 0.255866 0.026185
0.330241 0.254999 0.025276
0.404280 0.254131 0.024367
0.478046 0.253263 0.023458
0.551585 0.252395 0.022547
0.624928 0.251528 0.021636
0.698098 0.250660 0.020724
0.771115 0.249792 0.019812
0.843994 0.248924 0.018898
0.916747 0.248056 0.017984
0.989385 0.247188 0.017068
1.000000 0.246802 0.016661
0.000000 0.332383 0.027529
0.027126 0.331999 0.027126
0.103856 0.331136 0.026218
0.179335 0.330273 0.025310
0.254163 0.329410 0.024401
0.328546 0.328546 0.023491
0.402592 0.327683 0.022581
0.476364 0.326820 0.021670
0.549908 0.325956 0.020758
0.623255 0.325093 0.019845
0.696429 0.324230 0.018932
0.769449 0.323366 0.018017
0.842331 0.322503 0.017102
0.915087 0.321639 0.016186
0.987727 0.320775 0.015268
1.000000 0.320392 0.014860
0.000000 0.405584 0.025747
0.025343 0.405202 0.025343
0.102121 0.404343 0.024434
0.177619 0.403483 0.023525
0.252459 0.402623 0.022614
0.326852 0.401764 0.021703
0.400904 0.400904 0.020791
0.474682 0.400044 0.019879
0.548230 0.399184 0.018965
0.621581 0.398324 0.018051
0.694759 0.397464 0.017136
0.767783 0.396604 0.016219
0.840668 0.395744 0.015302
0.913427 0.394884 0.014384
0.986069 0.394024 0.013464
1.000000 0.393642 0.013055
0.000000 0.478522 0.023962
0.023558 0.478141 0.023558
0.100386 0.477284 0.022648
0.175903 0.476427 0.021737
0.250755 0.475570 0.020825
0.325157 0.474713 0.019912
0.399216 0.473856 0.018999
0.472999 0.472999 0.018085
0.546553 0.472142 0.017169
0.619908 0.471285 0.016253
0.693090 0.470428 0.015336
0.766117 0.469571 0.014417
0.839005 0.468714 0.013498
0.911766 0.467857 0.012577
0.984411 0.467000 0.011655
1.000000 0.466619 0.011245
0.000000 0.551236 0.022175
0.021770 0.550856 0.021770
0.098651 0.550002 0.020859
0.174187 0.549148 0.019946
0.249051 0.548293 0.019033
0.323461 0.547439 0.018118
0.397528 0.546584 0.017203
0.471317 0.545730 0.016287
0.544875 0.544875 0.015370
0.618235 0.544021 0.014451
0.691420 0.543166 0.013532
0.764450 0.542311 0.012611
0.837341 0.541457 0.011689
0.910106 0.540602 0.010765
0.982753 0.539747 0.009840
1.000000 0.539368 0.009429
0.000000 0.623759 0.020385
0.019980 0.623380 0.019980
0.096914 0.622528 0.019066
0.172470 0.621675 0.018152
0.247347 0.620823 0.017237
0.321766 0.619971 0.016321
0.395839 0.619118 0.015403
0.469634 0.618266 0.014485
0.543197 0.617414 0.013566
0.616561 0.616561 0.012645
0.689750 0.615709 0.011723
0.762784 0.614856 0.010799
0.835678 0.614004 0.009874
0.908445 0.613151 0.008947
0.981095 0.612299 0.008019
1.000000 0.611920 0.007605
0.000000 0.696113 0.018592
0.018186 0.695735 0.018186
0.095177 0.694884 0.017270
0.170754 0.694034 0.016354
0.245643 0.693184 0.015437
0.320071 0.692333 0.014519
0.394151 0.691483 0.013599
0.467952 0.690632 0.012679
0.541520 0.689782 0.011757
0.614888 0.688931 0.010833
0.688080 0.688080 0.009908
0.761118 0.687230 0.008982
0.834015 0.686379 0.008053
0.906784 0.685529 0.007122
0.979437 0.684678 0.006189
1.000000 0.684300 0.005773
0.000000 0.768316 0.016795
0.016388 0.767939 0.016388
0.093440 0.767090 0.015471
0.169036 0.766242 0.014553
0.243938 0.765393 0.013633
0.318375 0.764544 0.012713
0.392462 0.763695 0.011791
0.466269 0.762847 0.010867
0.539842 0.761998 0.009942
0.613214 0.761149 0.009016
0.686411 0.760300 0.008087
0.759451 0.759451 0.007156
0.832351 0.758602 0.006223
0.905124 0.757753 0.005287
0.977779 0.756904 0.004348
1.000000 0.756527 0.003929
0.000000 0.840384 0.014995
0.014586 0.840008 0.014586
0.091702 0.839161 0.013667
0.167319 0.838313 0.012747
0.242233 0.837466 0.011825
0.316679 0.836619 0.010901
0.390773 0.835772 0.009976
0.464586 0.834924 0.009050
0.538164 0.834077 0.008121
0.611540 0.833230 0.007191
0.684741 0.832382 0.006258
0.757785 0.831535 0.005322
0.830688 0.830688 0.004383
0.903463 0.829840 0.003439
0.976121 0.828993 0.002491
1.000000 0.828616 0.002067
0.000000 0.912329 0.013190
0.012780 0.911953 0.012780
0.089963 0.911107 0.011859
0.165601 0.910261 0.010935
0.240528 0.909415 0.010011
0.314983 0.908569 0.009084
0.389084 0.907724 0.008156
0.462903 0.906878 0.007225
0.536486 0.906032 0.006292
0.609866 0.905186 0.005356
0.683071 0.904340 0.004417
0.756118 0.903494 0.003474
0.829024 0.902648 0.002526
0.901802 0.901802 0.001570
0.974463 0.900956 0.000602
1.000000 0.900580 0.000162
0.000000 0.984160 0.011380
0.010969 0.983784 0.010969
0.088223 0.982940 0.010045
0.163883 0.982095 0.009118
0.238822 0.981251 0.008190
0.313287 0.980406 0.007259
0.387395 0.979562 0.006326
0.461220 0.978717 0.005391
0.534807 0.977872 0.004452
0.608192 0.977028 0.003509
0.681400 0.976183 0.002561
0.754451 0.975338 0.001605
0.827360 0.974494 0.000638
0.900141 0.973649 0.000000
0.972804 0.972804 0.000000
1.000000 0.972429 0.000000
0.000000 1.000000 0.010574
0.010163 1.000000 0.010163
0.087450 1.000000 0.009236
0.163119 1.000000 0.008308
0.238064 1.000000 0.007378
0.312533 1.000000 0.006445
0.386645 1.000000 0.005510
0.460471 1.000000 0.004572
0.534061 1.000000 0.003629
0.607448 1.000000 0.002682
0.680658 1.000000 0.001728
0.753710 1.000000 0.000762
0.826621 1.000000 0.000000
0.899403 1.000000 0.000000
0.972067 1.000000 0.000000
1.000000 1.000000 0.000000
0.000000 0.000000 0.112496
0.034678 0.000000 0.112104
0.111222 0.000000 0.111222
0.186622 0.000000 0.110339
0.261401 0.000000 0.109457
0.335748 0.000000 0.108574
0.409764 0.000000 0.107692
0.483513 0.000000 0.106809
0.557036 0.000000 0.105926
0.630365 0.000000 0.105043
0.703524 0.000000 0.104160
0.776530 0.000000 0.103276
0.849399 0.000000 0.102393
0.922143 0.000000 0.101509
0.994773 0.000000 0.100625
1.000000 0.000000 0.100233
0.000000 0.034291 0.111726
0.033890 0.033890 0.111334
0.110452 0.032986 0.110452
0.185861 0.032082 0.109569
0.260644 0.031178 0.108687
0.334995 0.030272 0.107804
0.409014 0.029367 0.106922
0.482765 0.028460 0.106039
0.556291 0.027554 0.105156
0.629622 0.026646 0.104272
0.702782 0.025738 0.103389
0.775790 0.024830 0.102506
0.848660 0.023920 0.101622
0.921405 0.023010 0.100738
0.994036 0.022099 0.099854
1.000000 0.021694 0.099461
0.000000 0.109994 0.109994
0.032115 0.109602 0.109602
0.108719 0.108719 0.108719
0.184146 0.107837 0.107837
0.258941 0.106954 0.106954
0.333301 0.106071 0.106071
0.407327 0.105188 0.105188
0.481083 0.104305 0.104305
0.554614 0.103422 0.103422
0.627949 0.102538 0.102538
0.701113 0.101654 0.101654
0.774124 0.100771 0.100771
0.846997 0.099887 0.099887
0.919745 0.099002 0.099002
0.992378 0.098118 0.098118
1.000000 0.097725 0.097725
0.000000 0.184566 0.108262
0.030339 0.184178 0.107869
0.106987 0.183305 0.106987
0.182432 0.182432 0.106104
0.257239 0.181558 0.105221
0.331606 0.180685 0.104337
0.405639 0.179811 0.103454
0.479402 0.178937 0.102571
0.552936 0.178063 0.101687
0.626276 0.177189 0.100803
0.699443 0.176315 0.099919
0.772458 0.175441 0.099035
0.845334 0.174567 0.098151
0.918085 0.173693 0.097266
0.990721 0.172818 0.096382
1.000000 0.172430 0.095989
0.000000 0.258523 0.106529
0.028561 0.258138 0.106136
0.105253 0.257270 0.105253
0.180717 0.256403 0.104370
0.255535 0.255535 0.103487
0.329912 0.254668 0.102603
0.403952 0.253800 0.101719
0.477720 0.252932 0.100836
0.551259 0.252065 0.099952
0.624603 0.251197 0.099068
0.697774 0.250329 0.098183
0.770792 0.249461 0.097299
0.843671 0.248593 0.096414
0.916425 0.247725 0.095530
0.989063 0.246857 0.094645
1.000000 0.246471 0.094251
0.000000 0.332054 0.104795
0.026780 0.331670 0.104402
0.103519 0.330807 0.103519
0.179001 0.329944 0.102636
0.253832 0.329081 0.101752
0.328217 0.328217 0.100868
0.402264 0.327354 0.099984
0.476037 0.326491 0.099100
0.549582 0.325627 0.098216
0.622930 0.324764 0.097331
0.696104 0.323900 0.096447
0.769126 0.323037 0.095562
0.842008 0.322173 0.094677
0.914764 0.321310 0.093792
0.987405 0.320446 0.092907
1.000000 0.320062 0.092513
0.000000 0.405257 0.103061
0.024997 0.404875 0.102668
0.101784 0.404015 0.101784
0.177286 0.403155 0.100901
0.252128 0.402296 0.100017
0.326522 0.401436 0.099133
0.400576 0.400576 0.098248
0.474355 0.399716 0.097364
0.547905 0.398856 0.096479
0.621256 0.397996 0.095595
0.694435 0.397136 0.094710
0.767459 0.396276 0.093825
0.840345 0.395416 0.092939
0.913104 0.394556 0.092054
0.985747 0.393696 0.091168
1.000000 0.393314 0.090775
0.000000 0.478195 0.101326
0.023211 0.477814 0.100933
0.100049 0.476957 0.100049
0.175570 0.476100 0.099165
0.250425 0.475244 0.098281
0.324827 0.474387 0.097396
0.398888 0.473530 0.096512
0.472673 0.472673 0.095627
0.546227 0.471816 0.094742
0.619583 0.470959 0.093857
0.692765 0.470102 0.092972
0.765793 0.469245 0.092087
0.838682 0.468387 0.091201
0.911444 0.467530 0.090315
0.984089 0.466673 0.089429
1.000000 0.466292 0.089036
0.000000 0.550910 0.099591
0.021423 0.550531 0.099198
0.098313 0.549676 0.098313
0.173854 0.548822 0.097429
0.248721 0.547967 0.096544
0.323132 0.547113 0.095660
0.397200 0.546258 0.094775
0.470990 0.545404 0.093890
0.544549 0.544549 0.093005
0.617910 0.543695 0.092119
0.691096 0.542840 0.091234
0.764127 0.541986 0.090348
0.837018 0.541131 0.089462
0.909783 0.540276 0.088576
0.982431 0.539422 0.087690
1.000000 0.539042 0.087296
0.000000 0.623434 0.097855
0.019631 0.623055 0.097462
0.096577 0.622203 0.096577
0.172137 0.621350 0.095692
0.247016 0.620498 0.094807
0.321437 0.619646 0.093922
0.395511 0.618793 0.093037
0.469308 0.617941 0.092152
0.542872 0.617089 0.091266
0.616236 0.616236 0.090380
0.689426 0.615384 0.089495
0.762460 0.614531 0.088608
0.835355 0.613679 0.087722
0.908122 0.612826 0.086836
0.980773 0.611974 0.085949
1.000000 0.611595 0.085555
0.000000 0.695788 0.096118
0.017837 0.695411 0.095725
0.094840 0.694560 0.094840
0.170420 0.693710 0.093955
0.245312 0.692859 0.093070
0.319741 0.692009 0.092184
0.393823 0.691158 0.091299
0.467625 0.690308 0.090413
0.541194 0.689457 0.089527
0.614563 0.688607 0.088641
0.687756 0.687756 0.087755
0.760794 0.686906 0.086868
0.833692 0.686055 0.085982
0.906462 0.685204 0.085095
0.979115 0.684354 0.084208
1.000000 0.683976 0.083814
0.000000 0.767993 0.094381
0.016038 0.767616 0.093987
0.093102 0.766767 0.093102
0.168703 0.765918 0.092217
0.243607 0.765069 0.091331
0.318046 0.764221 0.090446
0.392134 0.763372 0.089560
0.465942 0.762523 0.088674
0.539516 0.761674 0.087787
0.612889 0.760825 0.086901
0.686086 0.759976 0.086014
0.759127 0.759127 0.085128
0.832028 0.758279 0.084241
0.904801 0.757430 0.083354
0.977457 0.756581 0.082466
1.000000 0.756203 0.082072
0.000000 0.840061 0.092643
0.014236 0.839685 0.092249
0.091364 0.838838 0.091364
0.166985 0.837990 0.090478
0.241902 0.837143 0.089592
0.316350 0.836296 0.088706
0.390445 0.835449 0.087820
0.464259 0.834601 0.086934
0.537838 0.833754 0.086047
0.611215 0.832907 0.085160
0.684416 0.832059 0.084273
0.757461 0.831212 0.083386
0.830365 0.830365 0.082499
0.903140 0.829517 0.081611
0.975799 0.828670 0.080724
1.000000 0.828293 0.080329
0.000000 0.912006 0.090904
0.012429 0.911630 0.090511
0.089625 0.910784 0.089625
0.165267 0.909939 0.088739
0.240197 0.909093 0.087853
0.314654 0.908247 0.086966
0.388756 0.907401 0.086080
0.462576 0.906555 0.085193
0.536160 0.905709 0.084306
0.609541 0.904863 0.083419
0.682746 0.904017 0.082531
0.755794 0.903172 0.081644
0.828701 0.902326 0.080756
0.901480 0.901480 0.079868
0.974141 0.900634 0.078980
1.000000 0.900258 0.078585
0.000000 0.983838 0.089165
0.010617 0.983462 0.088771
0.087885 0.982618 0.087885
0.163549 0.981773 0.086999
0.238491 0.980929 0.086112
0.312957 0.980084 0.085226
0.387067 0.979240 0.084339
0.460893 0.978395 0.083451
0.534481 0.977550 0.082564
0.607867 0.976706 0.081677
0.681076 0.975861 0.080789
0.754127 0.975016 0.079901
0.827037 0.974172 0.079013
0.899819 0.973327 0.078125
0.972482 0.972482 0.077236
1.000000 0.972107 0.076841
0.000000 1.000000 0.088392
0.009810 1.000000 0.087998
0.087112 1.000000 0.087112
0.162785 1.000000 0.086225
0.237733 1.000000 0.085339
0.312203 1.000000 0.084452
0.386316 1.000000 0.083565
0.460145 1.000000 0.082677
0.533735 1.000000 0.081790
0.607123 1.000000 0.080902
0.680334 1.000000 0.080014
0.753387 1.000000 0.079126
0.826298 1.000000 0.078238
0.899080 1.000000 0.077349
0.971745 1.000000 0.076461
1.000000 1.000000 0.076066
0.000000 0.000000 0.188423
0.034334 0.000000 0.188035
0.110885 0.000000 0.187163
0.186289 0.000000 0.186289
0.261070 0.000000 0.185416
0.335419 0.000000 0.184543
0.409437 0.000000 0.183670
0.483186 0.000000 0.182796
0.556710 0.000000 0.181923
0.630040 0.000000 0.181049
0.703199 0.000000 0.180176
0.776206 0.000000 0.179302
0.849076 0.000000 0.178428
0.921821 0.000000 0.177554
0.994451 0.000000 0.176680
1.000000 0.000000 0.176292
0.000000 0.033947 0.187662
0.033545 0.033545 0.187274
0.110115 0.032642 0.186401
0.185528 0.031737 0.185528
0.260313 0.030832 0.184654
0.334666 0.029927 0.183781
0.408687 0.029021 0.182908
0.482439 0.028115 0.182034
0.555965 0.027208 0.181161
0.629297 0.026300 0.180287
0.702458 0.025392 0.179413
0.775466 0.024483 0.178540
0.848337 0.023573 0.177666
0.921083 0.022663 0.176792
0.993714 0.021752 0.175918
1.000000 0.021347 0.175529
0.000000 0.109658 0.185948
0.031771 0.109265 0.185560
0.108383 0.108383 0.184687
0.183813 0.107500 0.183813
0.258611 0.106617 0.182940
0.332972 0.105734 0.182066
0.406999 0.104851 0.181193
0.480757 0.103968 0.180319
0.554288 0.103085 0.179446
0.627624 0.102201 0.178572
0.700788 0.101317 0.177698
0.773800 0.100434 0.176824
0.846674 0.099550 0.175950
0.919423 0.098665 0.175076
0.992056 0.097781 0.174202
1.000000 0.097388 0.173813
0.000000 0.184234 0.184234
0.029994 0.183845 0.183845
0.106650 0.182972 0.182972
0.182099 0.182099 0.182099
0.256908 0.181225 0.181225
0.331277 0.180351 0.180351
0.405312 0.179478 0.179478
0.479075 0.178604 0.178604
0.552611 0.177730 0.177730
0.625951 0.176856 0.176856
0.699119 0.175982 0.175982
0.772134 0.175108 0.175108
0.845011 0.174234 0.174234
0.917763 0.173359 0.173359
0.990399 0.172485 0.172485
1.000000 0.172096 0.172096
0.000000 0.258193 0.182519
0.028215 0.257807 0.182131
0.104916 0.256940 0.181257
0.180384 0.256072 0.180384
0.255205 0.255205 0.179510
0.329583 0.254337 0.178636
0.403624 0.253469 0.177762
0.477393 0.252601 0.176888
0.550934 0.251734 0.176014
0.624278 0.250866 0.175140
0.697450 0.249998 0.174266
0.770468 0.249130 0.173392
0.843348 0.248262 0.172517
0.916102 0.247394 0.171643
0.988741 0.246525 0.170768
1.000000 0.246140 0.170379
0.000000 0.331724 0.180804
0.026434 0.331341 0.180416
0.103182 0.330478 0.179542
0.178668 0.329615 0.178668
0.253501 0.328751 0.177794
0.327888 0.327888 0.176920
0.401936 0.327025 0.176046
0.475711 0.326162 0.175172
0.549256 0.325298 0.174298
0.622605 0.324435 0.173424
0.695780 0.323571 0.172549
0.768802 0.322708 0.171675
0.841685 0.321844 0.170800
0.914442 0.320980 0.169926
0.987083 0.320117 0.169051
1.000000 0.319733 0.168662
0.000000 0.404929 0.179089
0.024650 0.404547 0.178700
0.101447 0.403687 0.177827
0.176953 0.402828 0.176953
0.251798 0.401968 0.176079
0.326193 0.401108 0.175204
0.400248 0.400248 0.174330
0.474028 0.399388 0.173456
0.547579 0.398528 0.172582
0.620931 0.397668 0.171707
0.694111 0.396809 0.170833
0.767136 0.395949 0.169958
0.840022 0.395088 0.169083
0.912782 0.394228 0.168208
0.985425 0.393368 0.167333
1.000000 0.392986 0.166944
0.000000 0.477868 0.177373
0.022864 0.477487 0.176985
0.099712 0.476631 0.176111
0.175237 0.475774 0.175237
0.250094 0.474917 0.174362
0.324498 0.474060 0.173488
