resources/luts/cool-print.cube
TITLE "cool-print"
LUT_3D_SIZE 6
DOMAIN_MIN 0 0 0
DOMAIN_MAX 1 1 1
0.002200 0.006600 0.013200
0.193158 0.010040 0.016709
0.387997 0.013246 0.019680
0.578713 0.016160 0.022137
0.766839 0.018883 0.024259
0.939575 0.021311 0.026060
0.008626 0.207375 0.019255
0.198349 0.209641 0.021455
0.392907 0.211963 0.023534
0.583460 0.214218 0.025443
0.771496 0.216471 0.027321
0.944202 0.218619 0.029163
0.014872 0.411392 0.023546
0.203748 0.413346 0.025197
0.398114 0.415488 0.027022
0.588593 0.417722 0.029007
0.776629 0.420130 0.031321
0.949390 0.422565 0.033855
0.020879 0.610847 0.027097
0.209140 0.612827 0.028842
0.403416 0.615174 0.031128
0.593919 0.617768 0.033891
0.782050 0.620654 0.037224
0.954929 0.623564 0.040770
0.026894 0.807969 0.031249
0.214713 0.810318 0.033760
0.408997 0.813169 0.037090
0.599584 0.816282 0.040927
0.787739 0.819410 0.044783
0.960577 0.822305 0.048338
0.032656 0.989812 0.036705
0.220178 0.992661 0.040235
0.414410 0.995769 0.044100
0.604920 0.998871 0.047942
0.793017 1.000000 0.051745
0.965814 1.000000 0.055226
0.003564 0.007997 0.222983
0.194188 0.011192 0.225532
0.388962 0.014262 0.227765
0.579638 0.017085 0.229627
0.767738 0.019753 0.231263
0.940462 0.022158 0.232697
0.009774 0.208234 0.227391
0.199320 0.210430 0.229024
0.393835 0.212709 0.230609
0.584367 0.214950 0.232120
0.772396 0.217218 0.233686
0.945107 0.219417 0.235333
0.015949 0.412106 0.230602
0.204700 0.414048 0.231887
0.399042 0.416209 0.233405
0.589521 0.418505 0.235192
0.777571 0.421000 0.237378
0.950354 0.423535 0.239848
0.021940 0.611553 0.233470
0.210112 0.613594 0.235041
0.404386 0.616032 0.237206
0.594908 0.618740 0.239910
0.783070 0.621760 0.243239
0.955946 0.624688 0.246581
0.027984 0.808816 0.237317
0.215745 0.811277 0.239788
0.410045 0.814267 0.243120
0.600620 0.817395 0.246730
0.788764 0.820522 0.250335
0.961595 0.823413 0.253662
0.033809 0.990882 0.242726
0.221257 0.993766 0.246083
0.415462 0.996873 0.249697
0.605956 0.999971 0.253291
0.794042 1.000000 0.256848
0.966831 1.000000 0.260104
0.004936 0.009362 0.437019
0.195286 0.012379 0.439236
0.389996 0.015327 0.441189
0.580634 0.018071 0.442837
0.768711 0.020695 0.444320
0.941425 0.023087 0.445666
0.010995 0.209140 0.440825
0.200366 0.211275 0.442253
0.394838 0.213521 0.443683
0.585352 0.215761 0.445103
0.773378 0.218061 0.446646
0.946097 0.220326 0.448344
0.017109 0.412885 0.443670
0.205733 0.414828 0.444876
0.400055 0.417027 0.446380
0.590536 0.419398 0.448231
0.778603 0.421993 0.450532
0.951413 0.424643 0.453153
0.023093 0.612353 0.446445
0.211175 0.614471 0.448087
0.405449 0.617013 0.450374
0.595994 0.619849 0.453250
0.784176 0.622970 0.456696
0.957043 0.625899 0.459962
0.029175 0.809786 0.450485
0.216877 0.812374 0.453129
0.411180 0.815464 0.456580
0.601738 0.818593 0.460108
0.789870 0.821718 0.463625
0.962691 0.824603 0.466865
0.035062 0.992070 0.456193
0.222420 0.994955 0.459476
0.416596 0.998061 0.463003
0.607073 1.000000 0.466503
0.795147 1.000000 0.469960
0.967927 1.000000 0.473121
0.006261 0.010643 0.646499
0.196370 0.013515 0.648454
0.391023 0.016362 0.650197
0.581626 0.019042 0.651697
0.769685 0.021636 0.653093
0.942393 0.024028 0.654408
0.012202 0.210022 0.649838
0.201407 0.212110 0.651125
0.395842 0.214337 0.652467
0.586342 0.216587 0.653858
0.774369 0.218938 0.655454
0.947099 0.221277 0.657254
0.018266 0.413668 0.652451
0.206771 0.415625 0.653636
0.401077 0.417879 0.655202
0.591565 0.420336 0.657174
0.779652 0.423040 0.659643
0.952492 0.425812 0.662462
0.024253 0.613190 0.655269
0.212251 0.615393 0.657035
0.406529 0.618048 0.659499
0.597100 0.621021 0.662599
0.785282 0.624180 0.666072
0.958140 0.627109 0.669292
0.030381 0.810809 0.659611
0.218029 0.813532 0.662479
0.412314 0.816662 0.665958
0.602856 0.819790 0.669435
0.790975 0.822911 0.672897
0.963788 0.825790 0.676078
0.036314 0.993258 0.665576
0.223583 0.996144 0.668813
0.417730 0.999246 0.672284
0.608190 1.000000 0.675720
0.796252 1.000000 0.679110
0.969024 1.000000 0.682204
0.007552 0.011859 0.853091
0.197444 0.014609 0.854827
0.392043 0.017371 0.856402
0.582617 0.020002 0.857796
0.770661 0.022579 0.859144
0.943366 0.024983 0.860467
0.013395 0.210885 0.856047
0.202446 0.212938 0.857233
0.396848 0.215159 0.858527
0.587338 0.217434 0.859933
0.775369 0.219851 0.861627
0.948115 0.222272 0.863560
0.019422 0.414458 0.858510
0.207816 0.416443 0.859718
0.402109 0.418768 0.861391
0.592607 0.421319 0.863517
0.780719 0.424142 0.866188
0.953588 0.427032 0.869212
0.025420 0.614063 0.861462
0.213341 0.616360 0.863383
0.407627 0.619138 0.866058
0.598218 0.622229 0.869359
0.786388 0.625389 0.872800
0.959237 0.628317 0.875986
0.031602 0.811888 0.866172
0.219193 0.814728 0.869240
0.413449 0.817859 0.872687
0.603973 0.820985 0.876127
0.792081 0.824100 0.879543
0.964885 0.826972 0.882677
0.037563 0.994447 0.872310
0.224746 0.997331 0.875512
0.418864 1.000000 0.878939
0.609307 1.000000 0.882323
0.797358 1.000000 0.885657
0.970120 1.000000 0.888693
0.008737 0.012973 1.000000
0.198448 0.015642 1.000000
0.393005 0.018352 1.000000
0.583558 0.020959 1.000000
0.771594 0.023536 1.000000
0.944299 0.025963 1.000000
0.014514 0.211735 1.000000
0.203433 0.213775 1.000000
0.397808 0.216005 1.000000
0.588292 0.218314 1.000000
0.776328 0.220788 1.000000
0.949084 0.223274 1.000000
0.020519 0.415275 1.000000
0.208814 0.417297 1.000000
0.403096 0.419682 1.000000
0.593600 0.422306 1.000000
0.781728 0.425215 1.000000
0.954605 0.428156 1.000000
0.026531 0.614962 1.000000
0.214377 0.617332 1.000000
0.408665 0.620200 1.000000
0.599255 0.623337 1.000000
0.787413 0.626497 1.000000
0.960254 0.629422 1.000000
0.032753 0.812939 1.000000
0.220272 0.815824 1.000000
0.414501 0.818954 1.000000
0.605009 0.822079 1.000000
0.793106 0.825189 1.000000
0.965902 0.828055 1.000000
0.038721 0.995534 1.000000
0.225824 0.998416 1.000000
0.419916 1.000000 1.000000
0.610343 1.000000 1.000000
0.798382 1.000000 1.000000
0.971137 1.000000 1.000000
