resources/luts/cool-print.cube
TITLE "cool-print"
LUT_3D_SIZE 16
DOMAIN_MIN 0 0 0
DOMAIN_MAX 1 1 1
0.002200 0.006600 0.013200
0.058551 0.007650 0.014305
0.126632 0.008878 0.015560
0.193158 0.010040 0.016709
0.258737 0.011150 0.017770
0.323633 0.012217 0.018757
0.387997 0.013246 0.019680
0.451923 0.014244 0.020546
0.515478 0.015214 0.021363
0.578713 0.016160 0.022137
0.641666 0.017084 0.022873
0.704366 0.017991 0.023579
0.766839 0.018883 0.024259
0.829105 0.019763 0.024918
0.891181 0.020635 0.025563
0.939575 0.021311 0.026060
0.004140 0.065967 0.015248
0.060158 0.066765 0.016156
0.128167 0.067755 0.017238
0.194645 0.068714 0.018242
0.260188 0.069644 0.019179
0.325055 0.070548 0.020057
0.389394 0.071430 0.020883
0.453298 0.072292 0.021664
0.516835 0.073137 0.022408
0.580054 0.073968 0.023118
0.642993 0.074787 0.023802
0.705681 0.075597 0.024465
0.768144 0.076400 0.025111
0.830403 0.077199 0.025747
0.892473 0.077996 0.026377
0.940864 0.078619 0.026869
0.006432 0.137551 0.017414
0.062166 0.138262 0.018174
0.130089 0.139151 0.019094
0.196513 0.140016 0.019958
0.262015 0.140859 0.020771
0.326849 0.141684 0.021541
0.391160 0.142493 0.022273
0.455041 0.143288 0.022975
0.518558 0.144073 0.023650
0.581760 0.144850 0.024306
0.644685 0.145620 0.024947
0.707363 0.146388 0.025578
0.769817 0.147154 0.026205
0.832069 0.147922 0.026832
0.894136 0.148694 0.027465
0.942525 0.149302 0.027966
0.008626 0.207375 0.019255
0.064131 0.208024 0.019903
0.131974 0.208841 0.020699
0.198349 0.209641 0.021455
0.263815 0.210427 0.022176
0.328620 0.211200 0.022867
0.392907 0.211963 0.023534
0.456769 0.212719 0.024182
0.520271 0.213470 0.024817
0.583460 0.214218 0.025443
0.646376 0.214966 0.026066
0.709046 0.215716 0.026690
0.771496 0.216471 0.027321
0.833745 0.217232 0.027964
0.895811 0.218005 0.028626
0.944202 0.218619 0.029163
0.010753 0.276108 0.020851
0.066062 0.276710 0.021413
0.133831 0.277475 0.022115
0.200162 0.278229 0.022793
0.265596 0.278975 0.023449
0.330376 0.279714 0.024088
0.394644 0.280449 0.024715
0.458490 0.281182 0.025335
0.521980 0.281916 0.025952
0.585161 0.282652 0.026573
0.648070 0.283394 0.027201
0.710737 0.284143 0.027842
0.773186 0.284904 0.028504
0.835437 0.285682 0.029198
0.897506 0.286478 0.029926
0.945901 0.287114 0.030521
0.012831 0.344054 0.022263
0.067967 0.344622 0.022763
0.135668 0.345349 0.023399
0.201959 0.346072 0.024024
0.267365 0.346792 0.024640
0.332125 0.347512 0.025252
0.396377 0.348233 0.025862
0.460212 0.348958 0.026477
0.523694 0.349689 0.027101
0.586870 0.350428 0.027739
0.649777 0.351180 0.028401
0.712444 0.351949 0.029095
0.774895 0.352737 0.029824
0.837150 0.353546 0.030593
0.899227 0.354377 0.031406
0.947628 0.355044 0.032074
0.014872 0.411392 0.023546
0.069855 0.411937 0.024005
0.137493 0.412640 0.024600
0.203748 0.413346 0.025197
0.269130 0.414054 0.025798
0.333873 0.414768 0.026404
0.398114 0.415488 0.027022
0.461941 0.416217 0.027655
0.525418 0.416961 0.028314
0.588593 0.417722 0.029007
0.651501 0.418503 0.029736
0.714172 0.419305 0.030507
0.776629 0.420130 0.031321
0.838893 0.420981 0.032185
0.900980 0.421859 0.033100
0.949390 0.422565 0.033855
0.016887 0.478246 0.024749
0.071733 0.478778 0.025186
0.139313 0.479470 0.025765
0.205537 0.480170 0.026358
0.270899 0.480879 0.026966
0.335628 0.481599 0.027591
0.399861 0.482334 0.028245
0.463684 0.483087 0.028934
0.527161 0.483861 0.029662
0.590338 0.484657 0.030431
0.653251 0.485477 0.031247
0.715929 0.486322 0.032112
0.778396 0.487196 0.033031
0.840671 0.488098 0.034007
0.902771 0.489032 0.035043
0.951194 0.489785 0.035899
0.018887 0.544707 0.025917
0.073608 0.545236 0.026353
0.141135 0.545929 0.026940
0.207332 0.546637 0.027551
0.272677 0.547361 0.028196
0.337398 0.548106 0.028878
0.401626 0.548873 0.029601
0.465449 0.549662 0.030368
0.528929 0.550476 0.031182
0.592111 0.551317 0.032048
0.655032 0.552185 0.032968
0.717721 0.553084 0.033947
0.780200 0.554015 0.034987
0.842491 0.554979 0.036093
0.904608 0.555979 0.037269
0.953046 0.556786 0.038238
0.020879 0.610847 0.027097
0.075487 0.611383 0.027549
0.142967 0.612093 0.028173
0.209140 0.612827 0.028842
0.274473 0.613584 0.029557
0.339188 0.614366 0.030318
0.403416 0.615174 0.031128
0.467242 0.616009 0.031992
0.530727 0.616873 0.032912
0.593919 0.617768 0.033891
0.656852 0.618695 0.034934
0.719554 0.619657 0.036044
0.782050 0.620654 0.037224
0.844359 0.621689 0.038478
0.906489 0.622741 0.039764
0.954929 0.623564 0.040770
0.022872 0.676731 0.028339
0.077378 0.677290 0.028839
0.144815 0.678034 0.029534
0.210969 0.678806 0.030284
0.276293 0.679606 0.031087
0.341006 0.680434 0.031946
0.405236 0.681293 0.032863
0.469069 0.682183 0.033841
0.532564 0.683107 0.034884
0.595768 0.684065 0.035996
0.658716 0.685060 0.037179
0.721436 0.686093 0.038437
0.783943 0.687142 0.039724
0.846251 0.688191 0.041011
0.908376 0.689240 0.042297
0.956812 0.690060 0.043301
0.024875 0.742424 0.029710
0.079287 0.743015 0.030277
0.146686 0.743803 0.031063
0.212824 0.744623 0.031912
0.278144 0.745474 0.032822
0.342858 0.746359 0.033797
0.407095 0.747278 0.034838
0.470937 0.748232 0.035950
0.534446 0.749225 0.037135
0.597665 0.750255 0.038395
0.660623 0.751300 0.039682
0.723340 0.752346 0.040970
0.785841 0.753392 0.042256
0.848144 0.754437 0.043541
0.910263 0.755483 0.044824
0.958695 0.756299 0.045825
0.026894 0.807969 0.031249
0.081221 0.808599 0.031898
0.148586 0.809441 0.032794
0.214713 0.810318 0.033760
0.280032 0.811231 0.034797
0.344751 0.812181 0.035906
0.408997 0.813169 0.037090
0.472853 0.814197 0.038351
0.536368 0.815239 0.039639
0.599584 0.816282 0.040927
0.662534 0.817325 0.042214
0.725245 0.818367 0.043499
0.787739 0.819410 0.044783
0.850036 0.820451 0.046064
0.912150 0.821492 0.047342
0.960577 0.822305 0.048338
0.028936 0.873403 0.032991
0.083186 0.874082 0.033736
0.150523 0.874986 0.034762
0.216642 0.875930 0.035864
0.281963 0.876914 0.037045
0.346691 0.877938 0.038305
0.410940 0.878977 0.039594
0.474789 0.880017 0.040883
0.538295 0.881057 0.042170
0.601502 0.882097 0.043457
0.664444 0.883137 0.044741
0.727149 0.884176 0.046022
0.789637 0.885214 0.047300
0.851928 0.886250 0.048575
0.914037 0.887286 0.049846
0.962460 0.888093 0.050836
0.031010 0.938763 0.034971
0.085190 0.939496 0.035827
0.152502 0.940473 0.037000
0.218617 0.941492 0.038257
0.283935 0.942529 0.039547
0.348651 0.943567 0.040837
0.412888 0.944605 0.042125
0.476726 0.945642 0.043412
0.540222 0.946679 0.044697
0.603421 0.947716 0.045979
0.666355 0.948751 0.047258
0.729052 0.949785 0.048533
0.791534 0.950818 0.049804
0.853819 0.951849 0.051070
0.915923 0.952878 0.052331
0.964343 0.953680 0.053313
0.032656 0.989812 0.036705
0.086786 0.990593 0.037659
0.154080 0.991625 0.038944
0.220178 0.992661 0.040235
0.285480 0.993698 0.041525
0.350184 0.994734 0.042814
0.414410 0.995769 0.044100
0.478239 0.996804 0.045384
0.541728 0.997838 0.046665
0.604920 0.998871 0.047942
0.667848 0.999903 0.049215
0.730540 1.000000 0.050483
0.793017 1.000000 0.051745
0.855298 1.000000 0.053002
0.917397 1.000000 0.054253
0.965814 1.000000 0.055226
0.002605 0.007019 0.075107
0.058866 0.008022 0.075981
0.126933 0.009226 0.077025
0.193448 0.010368 0.077995
0.259020 0.011462 0.078898
0.323910 0.012516 0.079743
0.388268 0.013534 0.080534
0.452190 0.014521 0.081280
0.515741 0.015482 0.081984
0.578973 0.016419 0.082652
0.641922 0.017337 0.083291
0.704620 0.018238 0.083904
0.767091 0.019126 0.084498
0.829355 0.020002 0.085077
0.891430 0.020871 0.085645
0.939823 0.021546 0.086086
0.004495 0.066271 0.076758
0.060465 0.067058 0.077518
0.128460 0.068037 0.078434
0.194929 0.068984 0.079289
0.260466 0.069904 0.080089
0.325327 0.070799 0.080842
0.389661 0.071673 0.081552
0.453561 0.072529 0.082226
0.517095 0.073368 0.082868
0.580311 0.074194 0.083484
0.643247 0.075009 0.084080
0.705933 0.075816 0.084659
0.768395 0.076617 0.085228
0.830652 0.077415 0.085790
0.892722 0.078212 0.086351
0.941112 0.078835 0.086792
0.006768 0.137820 0.078581
0.062465 0.138522 0.079224
0.130374 0.139401 0.080007
0.196791 0.140257 0.080745
0.262287 0.141092 0.081442
0.327116 0.141910 0.082104
0.391422 0.142714 0.082735
0.455300 0.143504 0.083342
0.518815 0.144286 0.083930
0.582015 0.145059 0.084502
0.644938 0.145828 0.085065
0.707614 0.146595 0.085624
0.770068 0.147362 0.086182
0.832319 0.148131 0.086745
0.894385 0.148904 0.087317
0.942774 0.149514 0.087774
0.008950 0.207617 0.080144
0.064423 0.208259 0.080693
0.132254 0.209068 0.081373
0.198622 0.209862 0.082020
0.264082 0.210642 0.082640
0.328883 0.211411 0.083237
0.393167 0.212170 0.083816
0.457026 0.212924 0.084381
0.520526 0.213673 0.084938
0.583714 0.214420 0.085491
0.646628 0.215168 0.086045
0.709298 0.215920 0.086606
0.771747 0.216676 0.087176
0.833997 0.217441 0.087763
0.896063 0.218218 0.088375
0.944454 0.218838 0.088877
0.011068 0.276331 0.081504
0.066348 0.276927 0.081982
0.134106 0.277686 0.082583
0.200431 0.278436 0.083166
0.265860 0.279178 0.083733
0.330637 0.279915 0.084289
0.394902 0.280648 0.084838
0.458747 0.281381 0.085385
0.522235 0.282115 0.085934
0.585415 0.282853 0.086491
0.648324 0.283596 0.087059
0.710991 0.284349 0.087644
0.773440 0.285116 0.088258
0.835691 0.285900 0.088905
0.897762 0.286703 0.089590
0.946157 0.287345 0.090155
0.013138 0.344262 0.082713
0.068250 0.344826 0.083139
0.135941 0.345549 0.083686
0.202226 0.346270 0.084228
0.267628 0.346989 0.084766
0.332385 0.347708 0.085305
0.396635 0.348430 0.085847
0.460469 0.349156 0.086398
0.523950 0.349889 0.086962
0.587126 0.350631 0.087545
0.650033 0.351389 0.088158
0.712700 0.352165 0.088806
0.775153 0.352960 0.089493
0.837409 0.353776 0.090222
0.899487 0.354617 0.090999
0.947890 0.355291 0.091640
0.015174 0.411590 0.083818
0.070135 0.412133 0.084211
0.137764 0.412834 0.084729
0.204014 0.413539 0.085253
0.269393 0.414248 0.085785
0.334134 0.414963 0.086328
0.398373 0.415686 0.086886
0.462200 0.416419 0.087464
0.525677 0.417168 0.088074
0.588852 0.417936 0.088721
0.651761 0.418724 0.089408
0.714433 0.419534 0.090139
0.776892 0.420369 0.090918
0.839157 0.421229 0.091748
0.901246 0.422117 0.092633
0.949659 0.422831 0.093366
0.017186 0.478438 0.084864
0.072012 0.478970 0.085244
0.139584 0.479663 0.085755
0.205803 0.480364 0.086284
0.271163 0.481076 0.086832
0.335891 0.481799 0.087403
0.400123 0.482540 0.088008
0.463946 0.483300 0.088651
0.527424 0.484081 0.089337
0.590601 0.484885 0.090067
0.653516 0.485714 0.090847
0.716195 0.486569 0.091679
0.778664 0.487453 0.092567
0.840942 0.488367 0.093516
0.903046 0.489312 0.094527
0.951471 0.490075 0.095365
0.019184 0.544898 0.085895
0.073887 0.545428 0.086280
0.141407 0.546124 0.086807
0.207600 0.546835 0.087365
0.272944 0.547566 0.087961
0.337664 0.548318 0.088597
0.401892 0.549091 0.089278
0.465715 0.549889 0.090007
0.529196 0.550712 0.090785
0.592380 0.551563 0.091618
0.655303 0.552442 0.092508
0.717994 0.553352 0.093459
0.780477 0.554295 0.094475
0.842770 0.555272 0.095559
0.904891 0.556285 0.096715
0.953331 0.557102 0.097670
0.021176 0.611041 0.086954
0.075768 0.611580 0.087364
0.143241 0.612296 0.087939
0.209412 0.613037 0.088564
0.274744 0.613802 0.089236
0.339458 0.614592 0.089958
0.403686 0.615409 0.090734
0.467513 0.616254 0.091564
0.531001 0.617129 0.092454
0.594195 0.618035 0.093407
0.657130 0.618974 0.094425
0.719836 0.619948 0.095513
0.782335 0.620959 0.096673
0.844646 0.622005 0.097903
0.906776 0.623057 0.099145
0.955214 0.623880 0.100117
0.023171 0.676934 0.088095
0.077661 0.677498 0.088561
0.145093 0.678250 0.089215
0.211245 0.679031 0.089926
0.276569 0.679840 0.090694
0.341282 0.680678 0.091520
0.405513 0.681548 0.092407
0.469347 0.682449 0.093359
0.532845 0.683385 0.094378
0.596052 0.684356 0.095468
0.659003 0.685365 0.096632
0.721725 0.686408 0.097864
0.784231 0.687457 0.099107
0.846539 0.688506 0.100350
0.908663 0.689555 0.101594
0.957098 0.690375 0.102565
0.025176 0.742639 0.089382
0.079574 0.743238 0.089920
0.146968 0.744035 0.090671
0.213106 0.744865 0.091487
0.278425 0.745727 0.092368
0.343141 0.746624 0.093316
0.407379 0.747555 0.094334
0.471224 0.748523 0.095424
0.534735 0.749529 0.096589
0.597957 0.750569 0.097823
0.660913 0.751614 0.099067
0.723630 0.752660 0.100311
0.786129 0.753706 0.101555
0.848431 0.754751 0.102798
0.910550 0.755797 0.104040
0.958980 0.756613 0.105009
0.027198 0.808201 0.090849
0.081514 0.808840 0.091473
0.148875 0.809692 0.092341
0.215001 0.810581 0.093281
0.280320 0.811507 0.094293
0.345041 0.812470 0.095381
0.409290 0.813473 0.096546
0.473147 0.814510 0.097781
0.536661 0.815552 0.099025
0.599875 0.816595 0.100270
0.662824 0.817638 0.101514
0.725534 0.818680 0.102758
0.788027 0.819723 0.104000
0.850323 0.820764 0.105240
0.912436 0.821804 0.106478
0.960863 0.822617 0.107444
0.029246 0.873655 0.092531
0.083485 0.874343 0.093256
0.150819 0.875260 0.094258
0.216938 0.876218 0.095340
0.282260 0.877215 0.096502
0.346988 0.878249 0.097737
0.411236 0.879289 0.098982
0.475083 0.880329 0.100227
0.538588 0.881369 0.101472
0.601794 0.882409 0.102716
0.664734 0.883449 0.103959
0.727437 0.884487 0.105200
0.789925 0.885525 0.106438
0.852215 0.886561 0.107673
0.914323 0.887596 0.108905
0.962746 0.888403 0.109864
0.031326 0.939037 0.094461
0.085497 0.939781 0.095302
0.152806 0.940773 0.096457
0.218921 0.941803 0.097690
0.284235 0.942840 0.098936
0.348949 0.943878 0.100182
0.413184 0.944916 0.101428
0.477020 0.945953 0.102673
0.540515 0.946990 0.103917
0.603712 0.948027 0.105158
0.666645 0.949062 0.106397
0.729341 0.950095 0.107632
0.791822 0.951127 0.108864
0.854106 0.952157 0.110092
0.916209 0.953185 0.111314
0.964628 0.953987 0.112266
0.032978 0.990107 0.096163
0.087100 0.990900 0.097106
0.154387 0.991936 0.098353
0.220482 0.992972 0.099601
0.285780 0.994008 0.100848
0.350481 0.995044 0.102094
0.414706 0.996080 0.103339
0.478533 0.997115 0.104582
0.542020 0.998148 0.105822
0.605211 0.999181 0.107060
0.668138 1.000000 0.108294
0.730829 1.000000 0.109522
0.793305 1.000000 0.110746
0.855585 1.000000 0.111964
0.917683 1.000000 0.113178
0.966100 1.000000 0.114122
0.003091 0.007517 0.149900
0.059267 0.008487 0.150716
0.127315 0.009663 0.151689
0.193819 0.010783 0.152592
0.259381 0.011859 0.153433
0.324264 0.012896 0.154217
0.388616 0.013900 0.154952
0.452532 0.014874 0.155644
0.516078 0.015824 0.156297
0.579306 0.016752 0.156917
0.642252 0.017662 0.157511
0.704946 0.018557 0.158082
0.767414 0.019439 0.158635
0.829676 0.020311 0.159177
0.891750 0.021177 0.159711
0.940142 0.021851 0.160126
0.004945 0.066656 0.151436
0.060856 0.067430 0.152142
0.128833 0.068394 0.152993
0.195292 0.069328 0.153786
0.260820 0.070236 0.154529
0.325675 0.071121 0.155227
0.390002 0.071985 0.155885
0.453898 0.072833 0.156510
0.517427 0.073665 0.157106
0.580640 0.074486 0.157679
0.643573 0.075296 0.158234
0.706258 0.076100 0.158775
0.768717 0.076899 0.159309
0.830973 0.077696 0.159839
0.893042 0.078493 0.160370
0.941431 0.079117 0.160789
0.007196 0.138161 0.153127
0.062846 0.138852 0.153721
0.130739 0.139719 0.154446
0.197146 0.140565 0.155129
0.262634 0.141391 0.155774
0.327457 0.142202 0.156387
0.391759 0.142998 0.156973
0.455633 0.143784 0.157537
0.519144 0.144561 0.158084
0.582341 0.145332 0.158619
0.645263 0.146099 0.159147
0.707937 0.146865 0.159673
0.770390 0.147632 0.160202
0.832641 0.148402 0.160738
0.894707 0.149179 0.161285
0.943096 0.149791 0.161725
0.009363 0.207927 0.154573
0.064796 0.208560 0.155078
0.132612 0.209360 0.155705
0.198971 0.210146 0.156304
0.264425 0.210920 0.156878
0.329221 0.211683 0.157432
0.393501 0.212439 0.157971
0.457357 0.213189 0.158499
0.520854 0.213937 0.159021
0.584040 0.214684 0.159542
0.646953 0.215433 0.160067
0.709622 0.216186 0.160600
0.772071 0.216945 0.161147
0.834321 0.217714 0.161714
0.896388 0.218499 0.162311
0.944780 0.219125 0.162802
0.011469 0.276617 0.155828
0.066715 0.277207 0.156267
0.134460 0.277959 0.156822
0.200776 0.278704 0.157361
0.266200 0.279442 0.157889
0.330972 0.280176 0.158408
0.395234 0.280908 0.158922
0.459076 0.281640 0.159437
0.522563 0.282375 0.159957
0.585742 0.283115 0.160487
0.648650 0.283861 0.161032
0.711317 0.284619 0.161598
0.773767 0.285393 0.162197
0.836019 0.286185 0.162831
0.898091 0.286998 0.163506
0.946488 0.287647 0.164064
0.013531 0.344531 0.156944
0.068613 0.345090 0.157336
0.136291 0.345810 0.157843
0.202569 0.346527 0.158348
0.267966 0.347245 0.158851
0.332719 0.347964 0.159358
0.396967 0.348687 0.159871
0.460800 0.349415 0.160396
0.524280 0.350151 0.160936
0.587455 0.350899 0.161501
0.650363 0.351664 0.162099
0.713031 0.352448 0.162735
0.775484 0.353252 0.163412
0.837743 0.354079 0.164133
0.899823 0.354930 0.164904
0.948228 0.355614 0.165542
0.015561 0.411847 0.157967
0.070495 0.412388 0.158332
0.138112 0.413088 0.158815
0.204357 0.413792 0.159307
0.269731 0.414502 0.159810
0.334469 0.415219 0.160327
0.398707 0.415945 0.160861
0.462533 0.416684 0.161422
0.526010 0.417441 0.162018
0.589186 0.418217 0.162653
0.652096 0.419015 0.163330
0.714769 0.419835 0.164053
0.777230 0.420681 0.164826
0.839498 0.421553 0.165653
0.901590 0.422454 0.166537
0.950005 0.423180 0.167270
0.017570 0.478689 0.158943
0.072371 0.479221 0.159299
0.139932 0.479914 0.159782
0.206146 0.480618 0.160284
0.271502 0.481333 0.160809
0.336229 0.482062 0.161362
0.400460 0.482811 0.161953
0.464284 0.483579 0.162585
0.527762 0.484370 0.163261
0.590941 0.485185 0.163984
0.653857 0.486025 0.164758
0.716539 0.486892 0.165587
0.779011 0.487789 0.166474
0.841292 0.488717 0.167424
0.903399 0.489678 0.168439
0.951827 0.490453 0.169280
0.019565 0.545147 0.159916
0.074246 0.545680 0.160282
0.141757 0.546379 0.160785
0.207946 0.547097 0.161325
0.273287 0.547835 0.161907
0.338006 0.548595 0.162533
0.402234 0.549379 0.163204
0.466058 0.550187 0.163925
0.529540 0.551022 0.164699
0.592726 0.551885 0.165528
0.655652 0.552777 0.166418
0.718346 0.553702 0.167370
0.780832 0.554660 0.168389
0.843130 0.555653 0.169479
0.905255 0.556683 0.170642
0.953697 0.557508 0.171591
0.021558 0.611294 0.160927
0.076129 0.611839 0.161324
0.143594 0.612563 0.161887
0.209761 0.613313 0.162500
0.275092 0.614087 0.163163
0.339806 0.614888 0.163878
0.404035 0.615717 0.164649
0.467864 0.616575 0.165477
0.531353 0.617463 0.166366
0.594550 0.618383 0.167320
0.657489 0.619338 0.168342
0.720198 0.620329 0.169436
0.782702 0.621357 0.170604
0.845014 0.622409 0.171820
0.907142 0.623462 0.173037
0.955580 0.624285 0.173989
0.023554 0.677200 0.162039
0.078026 0.677772 0.162497
0.145451 0.678534 0.163142
0.211600 0.679325 0.163847
0.276923 0.680146 0.164610
0.341637 0.680998 0.165434
0.405870 0.681881 0.166321
0.469706 0.682797 0.167274
0.533207 0.683748 0.168297
0.596417 0.684736 0.169393
0.659373 0.685762 0.170565
0.722095 0.686810 0.171782
0.784600 0.687859 0.173000
0.846906 0.688908 0.174218
0.909029 0.689958 0.175436
0.957463 0.690778 0.176387
0.025562 0.742923 0.163305
0.079945 0.743530 0.163839
0.147332 0.744339 0.164587
0.213468 0.745182 0.165401
0.278787 0.746059 0.166282
0.343504 0.746970 0.167233
0.407745 0.747917 0.168254
0.471593 0.748901 0.169351
0.535108 0.749925 0.170525
0.598329 0.750970 0.171742
0.661284 0.752015 0.172960
0.723999 0.753061 0.174179
0.786498 0.754107 0.175397
0.848798 0.755153 0.176615
0.910916 0.756198 0.177831
0.959346 0.757014 0.178781
0.027590 0.808505 0.164762
0.081890 0.809155 0.165386
0.149247 0.810022 0.166254
0.215372 0.810926 0.167197
0.280692 0.811867 0.168214
0.345415 0.812847 0.169309
0.409667 0.813867 0.170483
0.473523 0.814909 0.171701
0.537035 0.815952 0.172920
0.600248 0.816995 0.174139
0.663195 0.818038 0.175358
0.725903 0.819080 0.176576
0.788396 0.820122 0.177793
0.850690 0.821163 0.179007
0.912803 0.822203 0.180220
0.961229 0.823015 0.181165
0.029645 0.873984 0.166441
0.083871 0.874685 0.167170
0.151200 0.875618 0.168178
0.217318 0.876593 0.169267
0.282642 0.877608 0.170439
0.347369 0.878648 0.171658
0.411614 0.879688 0.172877
0.475459 0.880728 0.174097
0.538962 0.881768 0.175317
0.602166 0.882808 0.176536
0.665106 0.883847 0.177753
0.727807 0.884886 0.178968
0.790293 0.885923 0.180180
0.852582 0.886958 0.181390
0.914689 0.887992 0.182596
0.963112 0.888799 0.183535
0.031733 0.939395 0.168378
0.085891 0.940154 0.169227
0.153198 0.941163 0.170392
0.219309 0.942200 0.171612
0.284619 0.943238 0.172833
0.349330 0.944276 0.174054
0.413562 0.945314 0.175274
0.477396 0.946351 0.176493
0.540889 0.947388 0.177711
0.604084 0.948424 0.178927
0.667016 0.949458 0.180140
0.729711 0.950491 0.181350
0.792191 0.951523 0.182556
0.854474 0.952552 0.183758
0.916576 0.953579 0.184955
0.964994 0.954379 0.185887
0.033393 0.990491 0.170093
0.087502 0.991296 0.171039
0.154781 0.992333 0.172262
0.220869 0.993369 0.173484
0.286164 0.994405 0.174706
0.350862 0.995441 0.175926
0.415084 0.996477 0.177146
0.478909 0.997511 0.178363
0.542394 0.998544 0.179578
0.605583 0.999576 0.180789
0.668509 1.000000 0.181998
0.731199 1.000000 0.183200
0.793673 1.000000 0.184398
0.855952 1.000000 0.185590
0.918050 1.000000 0.186778
0.966465 1.000000 0.187702
0.003564 0.007997 0.222983
0.059665 0.008941 0.223755
0.127696 0.010091 0.224677
0.194188 0.011192 0.225532
0.259741 0.012250 0.226327
0.324617 0.013272 0.227070
0.388962 0.014262 0.227765
0.452873 0.015225 0.228419
0.516415 0.016165 0.229038
0.579638 0.017085 0.229627
0.642581 0.017987 0.230190
0.705272 0.018876 0.230734
0.767738 0.019753 0.231263
0.829998 0.020622 0.231782
0.892070 0.021485 0.232296
0.940462 0.022158 0.232697
0.005390 0.067036 0.224433
0.061245 0.067797 0.225100
0.129206 0.068746 0.225904
0.195654 0.069668 0.226654
0.261174 0.070565 0.227357
0.326022 0.071440 0.228016
0.390344 0.072296 0.228640
0.454235 0.073136 0.229231
0.517760 0.073963 0.229797
0.580970 0.074778 0.230343
0.643900 0.075585 0.230872
0.706582 0.076386 0.231390
0.769040 0.077183 0.231903
0.831295 0.077979 0.232414
0.893363 0.078777 0.232929
0.941752 0.079402 0.233337
0.007621 0.138498 0.226029
0.063226 0.139180 0.226588
0.131104 0.140035 0.227272
0.197501 0.140871 0.227917
0.262982 0.141689 0.228527
0.327799 0.142493 0.229108
0.392096 0.143283 0.229663
0.455966 0.144064 0.230200
0.519474 0.144838 0.230722
0.582669 0.145606 0.231234
0.645588 0.146372 0.231742
0.708261 0.147137 0.232250
0.770713 0.147905 0.232763
0.832963 0.148678 0.233285
0.895030 0.149457 0.233822
0.943419 0.150074 0.234257
0.009774 0.208234 0.227391
0.065168 0.208860 0.227867
0.132970 0.209651 0.228458
0.199320 0.210430 0.229024
0.264768 0.211198 0.229568
0.329559 0.211957 0.230095
0.393835 0.212709 0.230609
0.457688 0.213457 0.231114
0.521182 0.214203 0.231616
0.584367 0.214950 0.232120
0.647279 0.215700 0.232629
0.709947 0.216455 0.233150
0.772396 0.217218 0.233686
0.834646 0.217994 0.234247
0.896714 0.218786 0.234842
0.945107 0.219417 0.235333
0.011870 0.276902 0.228575
0.067082 0.277486 0.228988
0.134813 0.278232 0.229512
0.201122 0.278972 0.230025
0.266540 0.279707 0.230527
0.331308 0.280439 0.231023
0.395567 0.281170 0.231518
0.459407 0.281902 0.232016
0.522892 0.282638 0.232521
0.586070 0.283380 0.233038
0.648978 0.284131 0.233572
0.711645 0.284895 0.234134
0.774096 0.285677 0.234731
0.836349 0.286477 0.235365
0.898423 0.287299 0.236042
0.946821 0.287956 0.236602
0.013924 0.344800 0.229630
0.068975 0.345356 0.230000
0.136641 0.346071 0.230482
0.202912 0.346787 0.230964
0.268305 0.347504 0.231448
0.333055 0.348223 0.231937
0.397301 0.348947 0.232436
0.461131 0.349677 0.232948
0.524611 0.350417 0.233479
0.587786 0.351172 0.234039
0.650694 0.351945 0.234636
0.713363 0.352737 0.235272
0.775818 0.353551 0.235950
0.838079 0.354388 0.236676
0.900161 0.355251 0.237452
0.948568 0.355944 0.238096
0.015949 0.412106 0.230602
0.070856 0.412645 0.230949
0.138462 0.413343 0.231412
0.204700 0.414048 0.231887
0.270070 0.414760 0.232376
0.334806 0.415479 0.232880
0.399042 0.416209 0.233405
0.462868 0.416955 0.233962
0.526345 0.417720 0.234556
0.589521 0.418505 0.235192
0.652432 0.419312 0.235871
0.715108 0.420143 0.236599
0.777571 0.421000 0.237378
0.839841 0.421885 0.238213
0.901936 0.422799 0.239106
0.950354 0.423535 0.239848
0.017953 0.478942 0.231537
0.072730 0.479474 0.231880
0.140282 0.480169 0.232347
0.206491 0.480876 0.232838
0.271844 0.481595 0.233353
0.336569 0.482331 0.233903
