resources/luts/cross-pop.cube
# Generated by FotoReady. Released under the project GPL-3.0-or-later license.
TITLE "cross-pop"
LUT_3D_SIZE 5
DOMAIN_MIN 0 0 0
DOMAIN_MAX 1 1 1
0.000000 0.039413 0.139137
0.280329 0.032355 0.105550
0.723778 0.018586 0.094765
0.976197 0.009708 0.091487
0.976197 0.009708 0.091487
0.000000 0.224908 0.096080
0.229712 0.192274 0.093242
0.683547 0.147326 0.089891
0.994499 0.119378 0.088550
0.993806 0.115236 0.088626
0.015536 0.547195 0.085930
0.160629 0.522781 0.085393
0.620551 0.482157 0.081187
1.000000 0.451930 0.074376
1.000000 0.443596 0.074861
0.053099 0.873649 0.061588
0.122870 0.855138 0.061355
0.556875 0.831047 0.050401
0.975265 0.807674 0.040725
1.000000 0.796622 0.039206
0.061491 0.971501 0.051097
0.111535 0.972061 0.049523
0.536812 0.976970 0.037483
0.949852 0.979171 0.030046
1.000000 0.968296 0.029116
0.000000 0.037353 0.456605
0.275253 0.029467 0.420207
0.720054 0.015533 0.364078
0.979645 0.006691 0.327864
0.979476 0.006838 0.316378
0.000000 0.213347 0.367916
0.224582 0.181079 0.341242
0.691975 0.134419 0.298985
0.995268 0.105437 0.272147
0.994333 0.100617 0.264562
0.016622 0.538886 0.239346
0.141002 0.519702 0.203856
0.617000 0.475177 0.165762
1.000000 0.442162 0.153264
1.000000 0.432634 0.155610
0.053256 0.867539 0.139559
0.089756 0.859394 0.094679
0.539762 0.830785 0.052287
0.974137 0.803427 0.041128
1.000000 0.791142 0.039680
0.061988 0.971717 0.106410
0.071346 0.971633 0.056812
0.513252 0.976712 0.038060
0.942351 0.977951 0.030176
1.000000 0.965455 0.029186
0.000000 0.033932 0.897147
0.253707 0.025477 0.867320
0.715323 0.010099 0.827579
0.986091 0.001117 0.764686
0.985731 0.001426 0.740382
0.000000 0.195444 0.825483
0.213493 0.166145 0.817694
0.684575 0.118139 0.779126
1.000000 0.091146 0.725111
0.999531 0.087318 0.704987
0.021264 0.523160 0.707003
0.135442 0.503490 0.691025
0.611244 0.460154 0.651591
1.000000 0.425147 0.605953
1.000000 0.414148 0.594066
0.056421 0.859241 0.579150
0.081588 0.849629 0.553417
0.514388 0.828277 0.493497
0.972244 0.794944 0.451365
1.000000 0.780843 0.445828
0.065834 0.973443 0.531870
0.065555 0.973316 0.501203
0.478694 0.977782 0.434505
0.931380 0.972965 0.394392
1.000000 0.957835 0.383576
0.000000 0.032093 1.000000
0.234549 0.023576 1.000000
0.672940 0.008404 1.000000
0.990912 0.000000 1.000000
0.990912 0.000000 1.000000
0.000000 0.183902 1.000000
0.205017 0.157565 1.000000
0.653641 0.115430 1.000000
1.000000 0.078360 1.000000
1.000000 0.075121 1.000000
0.023926 0.503866 1.000000
0.148579 0.486606 1.000000
0.599046 0.448835 1.000000
1.000000 0.413460 1.000000
1.000000 0.403274 1.000000
0.059204 0.848869 1.000000
0.080668 0.838478 0.995014
0.507551 0.816295 0.963482
0.965982 0.782779 0.921697
1.000000 0.767364 0.902677
0.069638 0.975150 0.943825
0.069523 0.975099 0.931548
0.471433 0.979175 0.893438
0.917403 0.963770 0.849204
1.000000 0.946007 0.833506
0.000000 0.032093 1.000000
0.225340 0.023874 1.000000
0.652104 0.009152 1.000000
0.990912 0.000000 1.000000
0.990912 0.000000 1.000000
0.000000 0.181272 1.000000
0.200828 0.156367 1.000000
0.638506 0.117214 1.000000
1.000000 0.082015 1.000000
1.000000 0.071498 1.000000
0.023034 0.497494 1.000000
0.153967 0.481312 1.000000
0.592870 0.445513 1.000000
1.000000 0.412687 1.000000
1.000000 0.398340 1.000000
0.058759 0.838339 1.000000
0.095643 0.829495 1.000000
0.511185 0.809266 1.000000
0.959183 0.777781 1.000000
1.000000 0.761936 1.000000
0.070550 0.975546 1.000000
0.070550 0.975546 1.000000
0.471258 0.979551 1.000000
0.913689 0.957474 1.000000
1.000000 0.939598 1.000000
