resources/luts/cross-pop.cube
# Generated by FotoReady. Released under the project GPL-3.0-or-later license.
TITLE "cross-pop"
LUT_3D_SIZE 17
DOMAIN_MIN 0 0 0
DOMAIN_MAX 1 1 1
0.000000 0.039413 0.139137
0.000000 0.039413 0.139137
0.026867 0.038262 0.130727
0.157444 0.035451 0.113931
0.280329 0.032355 0.105550
0.397746 0.029042 0.101926
0.510514 0.025607 0.099004
0.619094 0.022106 0.096651
0.723778 0.018586 0.094765
0.824764 0.015085 0.093258
0.922200 0.011638 0.092058
0.976197 0.009708 0.091487
0.976197 0.009708 0.091487
0.976197 0.009708 0.091487
0.976197 0.009708 0.091487
0.976197 0.009708 0.091487
0.976197 0.009708 0.091487
0.000000 0.039413 0.139137
0.000000 0.039413 0.139137
0.026867 0.038262 0.130727
0.157444 0.035451 0.113931
0.280329 0.032355 0.105550
0.397746 0.029042 0.101926
0.510514 0.025607 0.099004
0.619094 0.022106 0.096651
0.723778 0.018586 0.094765
0.824764 0.015085 0.093258
0.922200 0.011638 0.092058
0.976197 0.009708 0.091487
0.976197 0.009708 0.091487
0.976197 0.009708 0.091487
0.976197 0.009708 0.091487
0.976197 0.009708 0.091487
0.976197 0.009708 0.091487
0.000000 0.042507 0.136284
0.000000 0.042507 0.136284
0.025257 0.038312 0.128246
0.155883 0.035510 0.111362
0.278871 0.032394 0.105599
0.396386 0.029082 0.101965
0.509273 0.025646 0.099033
0.617995 0.022143 0.096673
0.722841 0.018618 0.094780
0.824011 0.015111 0.093268
0.921651 0.011658 0.092064
0.976197 0.009708 0.091487
0.976197 0.009708 0.091487
0.976197 0.009708 0.091487
0.976197 0.009708 0.091487
0.976197 0.009708 0.091487
0.976197 0.009708 0.091487
0.000000 0.137558 0.104659
0.000000 0.137558 0.104659
0.000000 0.131410 0.103792
0.128173 0.117486 0.101069
0.252162 0.104680 0.098802
0.370582 0.092863 0.096886
0.484333 0.081943 0.095265
0.593909 0.071875 0.093895
0.699625 0.062632 0.092743
0.801698 0.054200 0.091778
0.900292 0.046571 0.090970
0.981242 0.040255 0.090405
0.980791 0.037542 0.090490
0.980450 0.035487 0.090556
0.980241 0.034229 0.090597
0.980250 0.034282 0.090595
0.980250 0.034282 0.090595
0.000000 0.224908 0.096080
0.000000 0.224908 0.096080
0.000000 0.219873 0.096233
0.104065 0.205856 0.094576
0.229712 0.192274 0.093242
0.349813 0.179618 0.092151
0.465182 0.167939 0.091251
0.576321 0.157185 0.090508
0.683547 0.147326 0.089891
0.787085 0.138344 0.089374
0.887098 0.130227 0.088932
0.983714 0.122971 0.088543
0.994499 0.119378 0.088550
0.994074 0.116841 0.088596
0.993797 0.115183 0.088627
0.993806 0.115236 0.088626
0.993806 0.115236 0.088626
0.000000 0.308038 0.091445
0.000000 0.308038 0.091445
0.000000 0.303479 0.091629
0.083484 0.290491 0.090932
0.208558 0.277205 0.090195
0.330154 0.264144 0.089602
0.446979 0.251946 0.089111
0.559521 0.240741 0.088689
0.668104 0.230495 0.088310
0.772954 0.221186 0.087951
0.874238 0.212802 0.087590
0.972086 0.205334 0.087207
1.000000 0.200507 0.087098
1.000000 0.197456 0.087159
1.000000 0.195392 0.087199
1.000000 0.195445 0.087198
1.000000 0.195445 0.087198
0.000000 0.388657 0.089095
0.000000 0.388657 0.089095
0.000000 0.384177 0.089191
0.066403 0.372699 0.088961
0.189948 0.359951 0.088525
0.310964 0.347541 0.088131
0.429149 0.335267 0.087756
0.542954 0.323828 0.087372
0.652756 0.313405 0.086955
0.758783 0.303978 0.086483
0.861205 0.295528 0.085938
0.960155 0.288047 0.085302
1.000000 0.282317 0.084903
1.000000 0.278689 0.085031
1.000000 0.276180 0.085117
1.000000 0.276232 0.085115
1.000000 0.276232 0.085115
0.003015 0.468034 0.087654
0.003015 0.468034 0.087654
0.002288 0.463592 0.087732
0.052229 0.453521 0.087652
0.174138 0.441523 0.087226
0.293513 0.429915 0.086755
0.411109 0.418634 0.086213
0.526154 0.407424 0.085594
0.637047 0.397025 0.084876
0.744130 0.387668 0.084036
0.847584 0.379333 0.083056
0.947541 0.372012 0.081920
1.000000 0.365856 0.080833
1.000000 0.361602 0.081099
1.000000 0.358633 0.081281
1.000000 0.358687 0.081277
1.000000 0.358687 0.081277
0.015536 0.547195 0.085930
0.015536 0.547195 0.085930
0.014861 0.542756 0.086053
0.040463 0.533823 0.086087
0.160629 0.522781 0.085393
0.278261 0.512173 0.084574
0.394087 0.501937 0.083608
0.508522 0.492047 0.082471
0.620551 0.482157 0.081187
0.728586 0.473054 0.079734
0.832967 0.465009 0.078100
0.933844 0.457980 0.076307
1.000000 0.451930 0.074376
1.000000 0.446985 0.074560
1.000000 0.443540 0.074866
1.000000 0.443596 0.074861
1.000000 0.443596 0.074861
0.026951 0.627010 0.082878
0.026951 0.627010 0.082878
0.026353 0.622544 0.083098
0.030618 0.614368 0.083415
0.148910 0.604476 0.082185
0.264682 0.595056 0.080758
0.378669 0.586050 0.079116
0.491271 0.577406 0.077273
0.602746 0.569079 0.075255
0.711932 0.560580 0.073163
0.817289 0.552724 0.070999
0.919168 0.545826 0.068748
1.000000 0.539851 0.066428
1.000000 0.534438 0.066025
1.000000 0.530543 0.066429
1.000000 0.530601 0.066423
1.000000 0.530601 0.066423
0.036901 0.708136 0.077608
0.036901 0.708136 0.077608
0.036403 0.703709 0.077956
0.035492 0.695731 0.078567
0.138616 0.687251 0.076879
0.252531 0.679082 0.074752
0.364717 0.671255 0.072486
0.475575 0.663717 0.070103
0.585356 0.656427 0.067624
0.694236 0.649351 0.065073
0.800915 0.641894 0.062573
0.903898 0.634936 0.060102
1.000000 0.628849 0.057629
1.000000 0.623187 0.056549
1.000000 0.618878 0.057013
1.000000 0.618938 0.057007
1.000000 0.618938 0.057007
0.045466 0.790590 0.070197
0.045466 0.790590 0.070197
0.045045 0.786262 0.070622
0.044280 0.778456 0.071380
0.129827 0.771002 0.069669
0.242007 0.763884 0.067086
0.352517 0.757031 0.064448
0.461753 0.750396 0.061773
0.569961 0.743941 0.059080
0.677313 0.737636 0.056387
0.783938 0.731455 0.053716
0.888409 0.724702 0.051199
0.989288 0.718321 0.048798
1.000000 0.712473 0.047144
1.000000 0.707796 0.047619
1.000000 0.707857 0.047613
1.000000 0.707857 0.047613
0.053099 0.873649 0.061588
0.053099 0.873649 0.061588
0.052731 0.869469 0.062035
0.052062 0.861924 0.062840
0.122870 0.855138 0.061355
0.233436 0.848867 0.058565
0.342391 0.842789 0.055800
0.450124 0.836861 0.053073
0.556875 0.831047 0.050401
0.662816 0.825322 0.047801
0.768071 0.819659 0.045292
0.872735 0.814038 0.042891
0.975265 0.807674 0.040725
1.000000 0.801550 0.038786
1.000000 0.796561 0.039211
1.000000 0.796622 0.039206
1.000000 0.796622 0.039206
0.060229 0.956608 0.052673
0.060229 0.956608 0.052673
0.059890 0.952617 0.053098
0.059279 0.945408 0.053868
0.118062 0.939078 0.052708
0.227133 0.933458 0.049953
0.334651 0.927962 0.047296
0.440994 0.922549 0.044750
0.546404 0.917189 0.042329
0.651045 0.911857 0.040048
0.755041 0.906529 0.037925
0.858486 0.901185 0.035975
0.961458 0.895806 0.034216
1.000000 0.889534 0.032743
1.000000 0.884447 0.032723
1.000000 0.884508 0.032720
1.000000 0.884508 0.032720
0.061491 0.971501 0.051097
0.061491 0.971501 0.051097
0.061491 0.971501 0.051097
0.061491 0.971501 0.051097
0.111418 0.972060 0.049526
0.219603 0.973310 0.046201
0.326278 0.974567 0.043067
0.431854 0.975796 0.040153
0.536588 0.976967 0.037489
0.640628 0.978048 0.035108
0.744104 0.979008 0.033045
0.847119 0.979817 0.031331
0.949615 0.979184 0.030048
1.000000 0.973428 0.029273
1.000000 0.968298 0.029116
1.000000 0.968297 0.029116
1.000000 0.968297 0.029116
0.061491 0.971501 0.051097
0.061491 0.971501 0.051097
0.061491 0.971501 0.051097
0.061491 0.971501 0.051097
0.111535 0.972061 0.049523
0.219752 0.973312 0.046197
0.326470 0.974569 0.043062
0.432074 0.975799 0.040147
0.536812 0.976970 0.037483
0.640855 0.978050 0.035103
0.744335 0.979010 0.033041
0.847354 0.979819 0.031328
0.949852 0.979171 0.030046
1.000000 0.973413 0.029271
1.000000 0.968296 0.029116
1.000000 0.968296 0.029116
1.000000 0.968296 0.029116
0.061491 0.971501 0.051097
0.061491 0.971501 0.051097
0.061491 0.971501 0.051097
0.061491 0.971501 0.051097
0.111535 0.972061 0.049523
0.219752 0.973312 0.046197
0.326470 0.974569 0.043062
0.432074 0.975799 0.040147
0.536812 0.976970 0.037483
0.640855 0.978050 0.035103
0.744335 0.979010 0.033041
0.847354 0.979819 0.031328
0.949852 0.979171 0.030046
1.000000 0.973413 0.029271
1.000000 0.968296 0.029116
1.000000 0.968296 0.029116
1.000000 0.968296 0.029116
0.000000 0.039413 0.139137
0.000000 0.039413 0.139137
0.026867 0.038262 0.130727
0.157444 0.035451 0.113931
0.280329 0.032355 0.105550
0.397746 0.029042 0.101926
0.510514 0.025607 0.099004
0.619094 0.022106 0.096651
0.723778 0.018586 0.094765
0.824764 0.015085 0.093258
0.922200 0.011638 0.092058
0.976197 0.009708 0.091487
0.976197 0.009708 0.091487
0.976197 0.009708 0.091487
0.976197 0.009708 0.091487
0.976197 0.009708 0.091487
0.976197 0.009708 0.091487
0.000000 0.039413 0.139137
0.000000 0.039413 0.139137
0.026867 0.038262 0.130727
0.157444 0.035451 0.113931
0.280329 0.032355 0.105550
0.397746 0.029042 0.101926
0.510514 0.025607 0.099004
0.619094 0.022106 0.096651
0.723778 0.018586 0.094765
0.824764 0.015085 0.093258
0.922200 0.011638 0.092058
0.976197 0.009708 0.091487
0.976197 0.009708 0.091487
0.976197 0.009708 0.091487
0.976197 0.009708 0.091487
0.976197 0.009708 0.091487
0.976197 0.009708 0.091487
0.000000 0.042507 0.136284
0.000000 0.042507 0.136284
0.025257 0.038312 0.128246
0.155883 0.035510 0.111362
0.278871 0.032394 0.105599
0.396386 0.029082 0.101965
0.509273 0.025646 0.099033
0.617995 0.022143 0.096673
0.722841 0.018618 0.094780
0.824011 0.015111 0.093268
0.921651 0.011658 0.092064
0.976197 0.009708 0.091487
0.976197 0.009708 0.091487
0.976197 0.009708 0.091487
0.976197 0.009708 0.091487
0.976197 0.009708 0.091487
0.976197 0.009708 0.091487
0.000000 0.137558 0.104659
0.000000 0.137558 0.104659
0.000000 0.131410 0.103792
0.128173 0.117486 0.101069
0.252162 0.104680 0.098802
0.370582 0.092863 0.096886
0.484333 0.081943 0.095265
0.593909 0.071875 0.093895
0.699625 0.062632 0.092743
0.801698 0.054200 0.091778
0.900292 0.046571 0.090970
0.981242 0.040255 0.090405
0.980791 0.037542 0.090490
0.980450 0.035487 0.090556
0.980241 0.034229 0.090597
0.980250 0.034282 0.090595
0.980250 0.034282 0.090595
0.000000 0.224908 0.096080
0.000000 0.224908 0.096080
0.000000 0.219873 0.096233
0.104065 0.205856 0.094576
0.229712 0.192274 0.093242
0.349813 0.179618 0.092151
0.465182 0.167939 0.091251
0.576321 0.157185 0.090508
0.683547 0.147326 0.089891
0.787085 0.138344 0.089374
0.887098 0.130227 0.088932
0.983714 0.122971 0.088543
0.994499 0.119378 0.088550
0.994074 0.116841 0.088596
0.993797 0.115183 0.088627
0.993806 0.115236 0.088626
0.993806 0.115236 0.088626
0.000000 0.308038 0.091445
0.000000 0.308038 0.091445
0.000000 0.303479 0.091629
0.083484 0.290491 0.090932
0.208558 0.277205 0.090195
0.330154 0.264144 0.089602
0.446979 0.251946 0.089111
0.559521 0.240741 0.088689
0.668104 0.230495 0.088310
0.772954 0.221186 0.087951
0.874238 0.212802 0.087590
0.972086 0.205334 0.087207
1.000000 0.200507 0.087098
1.000000 0.197456 0.087159
1.000000 0.195392 0.087199
1.000000 0.195445 0.087198
1.000000 0.195445 0.087198
0.000000 0.388657 0.089095
0.000000 0.388657 0.089095
0.000000 0.384177 0.089191
0.066403 0.372699 0.088961
0.189948 0.359951 0.088525
0.310964 0.347541 0.088131
0.429149 0.335267 0.087756
0.542954 0.323828 0.087372
0.652756 0.313405 0.086955
0.758783 0.303978 0.086483
0.861205 0.295528 0.085938
0.960155 0.288047 0.085302
1.000000 0.282317 0.084903
1.000000 0.278689 0.085031
1.000000 0.276180 0.085117
1.000000 0.276232 0.085115
1.000000 0.276232 0.085115
0.003015 0.468034 0.087654
0.003015 0.468034 0.087654
0.002288 0.463592 0.087732
0.052229 0.453521 0.087652
0.174138 0.441523 0.087226
0.293513 0.429915 0.086755
0.411109 0.418634 0.086213
0.526154 0.407424 0.085594
0.637047 0.397025 0.084876
0.744130 0.387668 0.084036
0.847584 0.379333 0.083056
0.947541 0.372012 0.081920
1.000000 0.365856 0.080833
1.000000 0.361602 0.081099
1.000000 0.358633 0.081281
1.000000 0.358687 0.081277
1.000000 0.358687 0.081277
0.015536 0.547195 0.085930
0.015536 0.547195 0.085930
0.014861 0.542756 0.086053
0.040463 0.533823 0.086087
0.160629 0.522781 0.085393
0.278261 0.512173 0.084574
0.394087 0.501937 0.083608
0.508522 0.492047 0.082471
0.620551 0.482157 0.081187
0.728586 0.473054 0.079734
0.832967 0.465009 0.078100
0.933844 0.457980 0.076307
1.000000 0.451930 0.074376
1.000000 0.446985 0.074560
1.000000 0.443540 0.074866
1.000000 0.443596 0.074861
1.000000 0.443596 0.074861
0.026951 0.627010 0.082878
0.026951 0.627010 0.082878
0.026353 0.622544 0.083098
0.030618 0.614368 0.083415
0.148910 0.604476 0.082185
0.264682 0.595056 0.080758
0.378669 0.586050 0.079116
0.491271 0.577406 0.077273
0.602746 0.569079 0.075255
0.711932 0.560580 0.073163
0.817289 0.552724 0.070999
0.919168 0.545826 0.068748
1.000000 0.539851 0.066428
1.000000 0.534438 0.066025
1.000000 0.530543 0.066429
1.000000 0.530601 0.066423
1.000000 0.530601 0.066423
0.036901 0.708136 0.077608
0.036901 0.708136 0.077608
0.036403 0.703709 0.077956
0.035492 0.695731 0.078567
0.138616 0.687251 0.076879
0.252531 0.679082 0.074752
0.364717 0.671255 0.072486
0.475575 0.663717 0.070103
0.585356 0.656427 0.067624
0.694236 0.649351 0.065073
0.800915 0.641894 0.062573
0.903898 0.634936 0.060102
1.000000 0.628849 0.057629
1.000000 0.623187 0.056549
1.000000 0.618878 0.057013
1.000000 0.618938 0.057007
1.000000 0.618938 0.057007
0.045466 0.790590 0.070197
0.045466 0.790590 0.070197
0.045045 0.786262 0.070622
0.044280 0.778456 0.071380
0.129827 0.771002 0.069669
0.242007 0.763884 0.067086
0.352517 0.757031 0.064448
0.461753 0.750396 0.061773
0.569961 0.743941 0.059080
0.677313 0.737636 0.056387
0.783938 0.731455 0.053716
0.888409 0.724702 0.051199
0.989288 0.718321 0.048798
1.000000 0.712473 0.047144
1.000000 0.707796 0.047619
1.000000 0.707857 0.047613
1.000000 0.707857 0.047613
0.053099 0.873649 0.061588
0.053099 0.873649 0.061588
0.052731 0.869469 0.062035
0.052062 0.861924 0.062840
0.122870 0.855138 0.061355
0.233436 0.848867 0.058565
0.342391 0.842789 0.055800
0.450124 0.836861 0.053073
0.556875 0.831047 0.050401
0.662816 0.825322 0.047801
0.768071 0.819659 0.045292
0.872735 0.814038 0.042891
0.975265 0.807674 0.040725
1.000000 0.801550 0.038786
1.000000 0.796561 0.039211
1.000000 0.796622 0.039206
1.000000 0.796622 0.039206
0.060229 0.956608 0.052673
0.060229 0.956608 0.052673
0.059890 0.952617 0.053098
0.059279 0.945408 0.053868
0.118062 0.939078 0.052708
0.227133 0.933458 0.049953
0.334651 0.927962 0.047296
0.440994 0.922549 0.044750
0.546404 0.917189 0.042329
0.651045 0.911857 0.040048
0.755041 0.906529 0.037925
0.858486 0.901185 0.035975
0.961458 0.895806 0.034216
1.000000 0.889534 0.032743
1.000000 0.884447 0.032723
1.000000 0.884508 0.032720
1.000000 0.884508 0.032720
0.061491 0.971501 0.051097
0.061491 0.971501 0.051097
0.061491 0.971501 0.051097
0.061491 0.971501 0.051097
0.111418 0.972060 0.049526
0.219603 0.973310 0.046201
0.326278 0.974567 0.043067
0.431854 0.975796 0.040153
0.536588 0.976967 0.037489
0.640628 0.978048 0.035108
0.744104 0.979008 0.033045
0.847119 0.979817 0.031331
0.949615 0.979184 0.030048
1.000000 0.973428 0.029273
1.000000 0.968298 0.029116
1.000000 0.968297 0.029116
1.000000 0.968297 0.029116
0.061491 0.971501 0.051097
0.061491 0.971501 0.051097
0.061491 0.971501 0.051097
0.061491 0.971501 0.051097
0.111535 0.972061 0.049523
0.219752 0.973312 0.046197
0.326470 0.974569 0.043062
0.432074 0.975799 0.040147
0.536812 0.976970 0.037483
0.640855 0.978050 0.035103
0.744335 0.979010 0.033041
0.847354 0.979819 0.031328
0.949852 0.979171 0.030046
1.000000 0.973413 0.029271
1.000000 0.968296 0.029116
1.000000 0.968296 0.029116
1.000000 0.968296 0.029116
0.061491 0.971501 0.051097
0.061491 0.971501 0.051097
0.061491 0.971501 0.051097
0.061491 0.971501 0.051097
0.111535 0.972061 0.049523
0.219752 0.973312 0.046197
0.326470 0.974569 0.043062
0.432074 0.975799 0.040147
0.536812 0.976970 0.037483
0.640855 0.978050 0.035103
0.744335 0.979010 0.033041
0.847354 0.979819 0.031328
0.949852 0.979171 0.030046
1.000000 0.973413 0.029271
1.000000 0.968296 0.029116
1.000000 0.968296 0.029116
1.000000 0.968296 0.029116
0.000000 0.039038 0.201187
0.000000 0.039038 0.201187
0.025691 0.037842 0.193190
0.156376 0.034960 0.176097
0.279289 0.031863 0.161374
0.396683 0.028601 0.148513
0.509425 0.025229 0.137250
0.617979 0.021796 0.127408
0.722641 0.018343 0.118851
0.823610 0.014908 0.111469
0.921037 0.011520 0.105173
0.976325 0.009596 0.100258
0.976273 0.009642 0.096680
0.976232 0.009678 0.093849
0.976204 0.009702 0.091931
0.976205 0.009701 0.092003
0.976205 0.009701 0.092003
0.000000 0.039038 0.201187
0.000000 0.039038 0.201187
0.025691 0.037842 0.193190
0.156376 0.034960 0.176097
0.279289 0.031863 0.161374
0.396683 0.028601 0.148513
0.509425 0.025229 0.137250
0.617979 0.021796 0.127408
0.722641 0.018343 0.118851
0.823610 0.014908 0.111469
0.921037 0.011520 0.105173
0.976325 0.009596 0.100258
0.976273 0.009642 0.096680
0.976232 0.009678 0.093849
0.976204 0.009702 0.091931
0.976205 0.009701 0.092003
0.976205 0.009701 0.092003
0.000000 0.040475 0.199657
0.000000 0.040475 0.199657
0.024029 0.037888 0.191688
0.154766 0.035013 0.174501
0.277754 0.031921 0.159696
0.395248 0.028662 0.146762
0.508110 0.025291 0.135438
0.616808 0.021856 0.125544
0.721634 0.018400 0.116943
0.822789 0.014960 0.109527
0.920423 0.011566 0.103205
0.976296 0.009622 0.098268
0.976244 0.009667 0.094684
0.976203 0.009703 0.091852
0.976197 0.009708 0.091487
0.976197 0.009708 0.091487
0.976197 0.009708 0.091487
0.000000 0.135493 0.148582
0.000000 0.135493 0.148582
0.000000 0.129542 0.142128
0.126968 0.115521 0.128706
0.251740 0.102643 0.117235
0.370944 0.090752 0.107123
0.485487 0.079752 0.098225
0.595917 0.069551 0.093993
0.702530 0.060140 0.092822
0.805507 0.051536 0.091840
0.905012 0.043734 0.091020
0.980778 0.037461 0.090493
0.980303 0.034605 0.090585
0.979939 0.032406 0.090657
0.979709 0.031018 0.090704
0.979717 0.031066 0.090702
0.979717 0.031066 0.090702
0.000000 0.223234 0.105767
0.000000 0.223234 0.105767
0.000000 0.218710 0.099643
0.101731 0.204494 0.094703
0.228256 0.190719 0.093345
0.349265 0.177892 0.092233
0.465543 0.166041 0.091317
0.577594 0.155113 0.090560
0.685738 0.145079 0.089933
0.790199 0.135919 0.089407
0.891142 0.127624 0.088959
0.988695 0.120186 0.088565
0.994040 0.116635 0.088600
0.993591 0.113953 0.088649
0.993291 0.112166 0.088683
0.993299 0.112215 0.088682
0.993299 0.112215 0.088682
0.000000 0.306535 0.091505
0.000000 0.306535 0.091505
0.000000 0.302567 0.091667
0.080416 0.289468 0.090998
0.206330 0.275939 0.090250
0.328821 0.262676 0.089646
0.446575 0.250299 0.089147
0.560048 0.238914 0.088719
0.669568 0.228487 0.088337
0.775360 0.218996 0.087975
0.877592 0.210428 0.087614
0.976394 0.202775 0.087231
1.000000 0.197940 0.087149
1.000000 0.194741 0.087212
1.000000 0.192548 0.087254
1.000000 0.192598 0.087253
1.000000 0.192598 0.087253
0.000000 0.387196 0.089126
0.000000 0.387196 0.089126
0.000000 0.383576 0.089204
0.062592 0.372007 0.088996
0.186996 0.359007 0.088557
0.308866 0.346347 0.088161
0.427966 0.333865 0.087785
0.542721 0.322240 0.087402
0.653477 0.311633 0.086986
0.760464 0.302019 0.086516
0.863851 0.293384 0.085974
0.963771 0.285716 0.085341
1.000000 0.279917 0.084988
1.000000 0.276153 0.085118
1.000000 0.273531 0.085207
1.000000 0.273583 0.085205
1.000000 0.273583 0.085205
0.002781 0.466600 0.087679
0.002781 0.466600 0.087679
0.002242 0.463310 0.087737
0.047665 0.453157 0.087681
0.170449 0.440902 0.087258
0.290697 0.429036 0.086791
0.409163 0.417497 0.086256
0.525143 0.406073 0.085642
0.637008 0.395486 0.084929
0.745064 0.385946 0.084094
0.849484 0.377436 0.083118
0.950402 0.369942 0.081986
1.000000 0.363671 0.080971
1.000000 0.359277 0.081242
1.000000 0.356194 0.081427
1.000000 0.356248 0.081424
1.000000 0.356248 0.081424
0.015321 0.545778 0.085970
0.015321 0.545778 0.085970
0.014869 0.542814 0.086051
0.035130 0.533790 0.086128
0.156189 0.522484 0.085442
0.274709 0.511612 0.084633
0.391437 0.501116 0.083677
0.506768 0.490970 0.082552
0.619746 0.480876 0.081276
0.728754 0.471596 0.079828
0.834100 0.463380 0.078196
0.935935 0.456183 0.076402
1.000000 0.449969 0.074467
1.000000 0.444886 0.074747
1.000000 0.441323 0.075061
1.000000 0.441380 0.075056
1.000000 0.441380 0.075056
0.026763 0.625602 0.082948
0.026763 0.625602 0.082948
0.026411 0.622976 0.083077
0.025282 0.614656 0.083472
0.143769 0.604511 0.082263
0.260460 0.594828 0.080849
0.375353 0.585562 0.079219
0.488850 0.576663 0.077387
0.601212 0.568086 0.075377
0.711336 0.559392 0.073286
0.817654 0.551372 0.071116
0.920488 0.544313 0.068857
1.000000 0.538181 0.066529
1.000000 0.532603 0.066215
1.000000 0.528588 0.066631
1.000000 0.528647 0.066625
1.000000 0.528647 0.066625
0.036747 0.706757 0.077718
0.036747 0.706757 0.077718
0.036497 0.704540 0.077892
0.035558 0.696306 0.078524
0.132811 0.687622 0.076986
0.247643 0.679194 0.074867
0.360732 0.671115 0.072607
0.472482 0.663327 0.070228
0.583147 0.655791 0.067753
0.692903 0.648473 0.065203
0.800510 0.640831 0.062696
0.904446 0.633718 0.060213
1.000000 0.627479 0.057726
1.000000 0.621644 0.056715
1.000000 0.617215 0.057193
1.000000 0.617275 0.057186
1.000000 0.617275 0.057186
0.045337 0.789264 0.070327
0.045337 0.789264 0.070327
0.045167 0.787509 0.070500
0.044377 0.779440 0.071285
0.123352 0.771728 0.069784
0.236446 0.764356 0.067204
0.347857 0.757256 0.064567
0.457983 0.750376 0.061892
0.567072 0.743680 0.059197
0.675299 0.737136 0.056503
0.782791 0.730719 0.053828
0.888184 0.723788 0.051300
0.990007 0.717258 0.048883
1.000000 0.711241 0.047269
1.000000 0.706446 0.047757
1.000000 0.706507 0.047751
1.000000 0.706507 0.047751
0.052988 0.872393 0.061722
0.052988 0.872393 0.061722
0.052878 0.871139 0.061856
0.052187 0.863326 0.062691
0.115719 0.856234 0.061462
0.227198 0.849714 0.058671
0.337052 0.843392 0.055903
0.445673 0.837222 0.053173
0.553305 0.831170 0.050497
0.660118 0.825209 0.047892
0.766239 0.819314 0.045378
0.871765 0.813461 0.042971
0.975211 0.806923 0.040792
1.000000 0.800642 0.038863
1.000000 0.795536 0.039300
1.000000 0.795597 0.039294
1.000000 0.795597 0.039294
0.060129 0.955434 0.052798
0.060129 0.955434 0.052798
0.060068 0.954707 0.052875
0.059433 0.947228 0.053673
0.110234 0.940555 0.052797
0.220217 0.934690 0.050037
0.328632 0.928951 0.047376
0.435863 0.923299 0.044824
0.542151 0.917704 0.042397
0.647664 0.912138 0.040110
0.752526 0.906579 0.037981
0.856833 0.901005 0.036025
0.960660 0.895397 0.034259
1.000000 0.888953 0.032775
1.000000 0.883752 0.032765
1.000000 0.883813 0.032761
1.000000 0.883813 0.032761
0.061491 0.971501 0.051097
0.061491 0.971501 0.051097
0.061491 0.971501 0.051097
0.061491 0.971501 0.051097
0.102746 0.971962 0.049798
0.211862 0.973220 0.046435
0.319453 0.974486 0.043263
0.425948 0.975728 0.040310
0.531584 0.976913 0.037610
0.636520 0.978007 0.035197
0.740887 0.978980 0.033104
0.844789 0.979801 0.031366
0.948162 0.979096 0.030067
1.000000 0.973111 0.029286
1.000000 0.967850 0.029126
1.000000 0.967849 0.029127
1.000000 0.967849 0.029127
0.061491 0.971501 0.051097
0.061491 0.971501 0.051097
0.061491 0.971501 0.051097
0.061491 0.971501 0.051097
0.102866 0.971963 0.049794
0.212017 0.973221 0.046430
0.319656 0.974489 0.043257
0.426170 0.975731 0.040304
0.531810 0.976915 0.037605
0.636749 0.978009 0.035192
0.741120 0.978982 0.033100
0.845026 0.979803 0.031362
0.948400 0.979081 0.030065
1.000000 0.973095 0.029284
1.000000 0.967848 0.029127
1.000000 0.967847 0.029127
1.000000 0.967847 0.029127
0.061491 0.971501 0.051097
0.061491 0.971501 0.051097
0.061491 0.971501 0.051097
0.061491 0.971501 0.051097
0.102866 0.971963 0.049794
0.212017 0.973221 0.046430
0.319656 0.974489 0.043257
0.426170 0.975731 0.040304
0.531810 0.976915 0.037605
0.636749 0.978009 0.035192
0.741120 0.978982 0.033100
0.845026 0.979803 0.031362
0.948400 0.979081 0.030065
1.000000 0.973095 0.029284
1.000000 0.967848 0.029127
1.000000 0.967847 0.029127
1.000000 0.967847 0.029127
0.000000 0.038196 0.333115
0.000000 0.038196 0.333115
0.022227 0.036934 0.325508
0.154082 0.033869 0.309538
0.277220 0.030663 0.293096
0.394821 0.027316 0.278517
0.507754 0.023881 0.265532
0.616488 0.020402 0.253959
0.721316 0.016920 0.243664
0.822443 0.013470 0.234535
0.920018 0.010079 0.226485
0.978063 0.008072 0.219754
0.977985 0.008141 0.214352
0.977917 0.008201 0.209703
0.977865 0.008246 0.206134
0.977866 0.008245 0.206206
