resources/luts/cross-pop.cube
# Generated by FotoReady. Released under the project GPL-3.0-or-later license.
TITLE "cross-pop"
LUT_3D_SIZE 9
DOMAIN_MIN 0 0 0
DOMAIN_MAX 1 1 1
0.000000 0.039413 0.139137
0.026867 0.038262 0.130727
0.280329 0.032355 0.105550
0.510514 0.025607 0.099004
0.723778 0.018586 0.094765
0.922200 0.011638 0.092058
0.976197 0.009708 0.091487
0.976197 0.009708 0.091487
0.976197 0.009708 0.091487
0.000000 0.042507 0.136284
0.025257 0.038312 0.128246
0.278871 0.032394 0.105599
0.509273 0.025646 0.099033
0.722841 0.018618 0.094780
0.921651 0.011658 0.092064
0.976197 0.009708 0.091487
0.976197 0.009708 0.091487
0.976197 0.009708 0.091487
0.000000 0.224908 0.096080
0.000000 0.219873 0.096233
0.229712 0.192274 0.093242
0.465182 0.167939 0.091251
0.683547 0.147326 0.089891
0.887098 0.130227 0.088932
0.994499 0.119378 0.088550
0.993797 0.115183 0.088627
0.993806 0.115236 0.088626
0.000000 0.388657 0.089095
0.000000 0.384177 0.089191
0.189948 0.359951 0.088525
0.429149 0.335267 0.087756
0.652756 0.313405 0.086955
0.861205 0.295528 0.085938
1.000000 0.282317 0.084903
1.000000 0.276180 0.085117
1.000000 0.276232 0.085115
0.015536 0.547195 0.085930
0.014861 0.542756 0.086053
0.160629 0.522781 0.085393
0.394087 0.501937 0.083608
0.620551 0.482157 0.081187
0.832967 0.465009 0.078100
1.000000 0.451930 0.074376
1.000000 0.443540 0.074866
1.000000 0.443596 0.074861
0.036901 0.708136 0.077608
0.036403 0.703709 0.077956
0.138616 0.687251 0.076879
0.364717 0.671255 0.072486
0.585356 0.656427 0.067624
0.800915 0.641894 0.062573
1.000000 0.628849 0.057629
1.000000 0.618878 0.057013
1.000000 0.618938 0.057007
0.053099 0.873649 0.061588
0.052731 0.869469 0.062035
0.122870 0.855138 0.061355
0.342391 0.842789 0.055800
0.556875 0.831047 0.050401
0.768071 0.819659 0.045292
0.975265 0.807674 0.040725
1.000000 0.796561 0.039211
1.000000 0.796622 0.039206
0.061491 0.971501 0.051097
0.061491 0.971501 0.051097
0.111418 0.972060 0.049526
0.326278 0.974567 0.043067
0.536588 0.976967 0.037489
0.744104 0.979008 0.033045
0.949615 0.979184 0.030048
1.000000 0.968298 0.029116
1.000000 0.968297 0.029116
0.061491 0.971501 0.051097
0.061491 0.971501 0.051097
0.111535 0.972061 0.049523
0.326470 0.974569 0.043062
0.536812 0.976970 0.037483
0.744335 0.979010 0.033041
0.949852 0.979171 0.030046
1.000000 0.968296 0.029116
1.000000 0.968296 0.029116
0.000000 0.039038 0.201187
0.025691 0.037842 0.193190
0.279289 0.031863 0.161374
0.509425 0.025229 0.137250
0.722641 0.018343 0.118851
0.921037 0.011520 0.105173
0.976273 0.009642 0.096680
0.976204 0.009702 0.091931
0.976205 0.009701 0.092003
0.000000 0.040475 0.199657
0.024029 0.037888 0.191688
0.277754 0.031921 0.159696
0.508110 0.025291 0.135438
0.721634 0.018400 0.116943
0.920423 0.011566 0.103205
0.976244 0.009667 0.094684
0.976197 0.009708 0.091487
0.976197 0.009708 0.091487
0.000000 0.223234 0.105767
0.000000 0.218710 0.099643
0.228256 0.190719 0.093345
0.465543 0.166041 0.091317
0.685738 0.145079 0.089933
0.891142 0.127624 0.088959
0.994040 0.116635 0.088600
0.993291 0.112166 0.088683
0.993299 0.112215 0.088682
0.000000 0.387196 0.089126
0.000000 0.383576 0.089204
0.186996 0.359007 0.088557
0.427966 0.333865 0.087785
0.653477 0.311633 0.086986
0.863851 0.293384 0.085974
1.000000 0.279917 0.084988
1.000000 0.273531 0.085207
1.000000 0.273583 0.085205
0.015321 0.545778 0.085970
0.014869 0.542814 0.086051
0.156189 0.522484 0.085442
0.391437 0.501116 0.083677
0.619746 0.480876 0.081276
0.834100 0.463380 0.078196
1.000000 0.449969 0.074467
1.000000 0.441323 0.075061
1.000000 0.441380 0.075056
0.036747 0.706757 0.077718
0.036497 0.704540 0.077892
0.132811 0.687622 0.076986
0.360732 0.671115 0.072607
0.583147 0.655791 0.067753
0.800510 0.640831 0.062696
1.000000 0.627479 0.057726
1.000000 0.617215 0.057193
1.000000 0.617275 0.057186
0.052988 0.872393 0.061722
0.052878 0.871139 0.061856
0.115719 0.856234 0.061462
0.337052 0.843392 0.055903
0.553305 0.831170 0.050497
0.766239 0.819314 0.045378
0.975211 0.806923 0.040792
1.000000 0.795536 0.039300
1.000000 0.795597 0.039294
0.061491 0.971501 0.051097
0.061491 0.971501 0.051097
0.102746 0.971962 0.049798
0.319453 0.974486 0.043263
0.531584 0.976913 0.037610
0.740887 0.978980 0.033104
0.948162 0.979096 0.030067
1.000000 0.967850 0.029126
1.000000 0.967849 0.029127
0.061491 0.971501 0.051097
0.061491 0.971501 0.051097
0.102866 0.971963 0.049794
0.319656 0.974489 0.043257
0.531810 0.976915 0.037605
0.741120 0.978982 0.033100
0.948400 0.979081 0.030065
1.000000 0.967848 0.029127
1.000000 0.967847 0.029127
0.000000 0.037353 0.456605
0.019158 0.036035 0.449340
0.275253 0.029467 0.420207
0.506165 0.022555 0.389307
0.720054 0.015533 0.364078
0.919045 0.008684 0.343510
0.979645 0.006691 0.327864
0.979475 0.006839 0.316306
0.979476 0.006838 0.316378
0.000000 0.037415 0.455610
0.017565 0.036082 0.448146
0.273613 0.029531 0.418700
0.504760 0.022620 0.387703
0.718971 0.015591 0.362413
0.918369 0.008730 0.341817
0.979620 0.006712 0.326177
0.979452 0.006859 0.314693
0.979452 0.006858 0.314751
0.000000 0.213347 0.367916
0.000000 0.209000 0.363896
0.224582 0.181079 0.341242
0.466874 0.155884 0.317999
0.691975 0.134419 0.298985
0.902232 0.116465 0.283670
0.995268 0.105437 0.272147
0.994323 0.100568 0.264506
0.994333 0.100617 0.264562
0.000000 0.378807 0.296573
0.000000 0.375144 0.290905
0.177666 0.352649 0.266328
0.424998 0.326206 0.246531
0.657266 0.302978 0.232864
0.874325 0.283731 0.222237
1.000000 0.269620 0.214901
1.000000 0.262349 0.211925
1.000000 0.262401 0.211979
0.016622 0.538886 0.239346
0.016063 0.535890 0.232335
0.141002 0.519702 0.203856
0.382396 0.496808 0.182892
0.617000 0.475177 0.165762
0.838117 0.456611 0.158275
1.000000 0.442162 0.153264
1.000000 0.432578 0.155562
1.000000 0.432634 0.155610
0.037367 0.701133 0.187928
0.037021 0.698880 0.179810
0.112071 0.688021 0.147365
0.346229 0.669813 0.125496
0.574758 0.652777 0.103585
0.798422 0.636305 0.087915
1.000000 0.621885 0.086612
1.000000 0.610614 0.092232
1.000000 0.610674 0.092276
0.053256 0.867539 0.139559
0.053057 0.866240 0.130339
0.089756 0.859394 0.094679
0.317372 0.844765 0.073232
0.539762 0.830785 0.052287
0.758859 0.817256 0.045789
0.974137 0.803427 0.041128
1.000000 0.791081 0.039686
1.000000 0.791142 0.039680
0.061987 0.971717 0.106370
0.061894 0.971676 0.095940
0.071207 0.971631 0.056684
0.294444 0.974192 0.043985
0.513021 0.976710 0.038066
0.728664 0.978873 0.033332
0.942107 0.977969 0.030178
1.000000 0.965459 0.029186
1.000000 0.965458 0.029186
0.061988 0.971717 0.106410
0.061894 0.971676 0.095995
0.071346 0.971633 0.056812
0.294668 0.974194 0.043978
0.513252 0.976712 0.038060
0.728903 0.978875 0.033327
0.942351 0.977951 0.030176
1.000000 0.965456 0.029186
1.000000 0.965455 0.029186
0.000000 0.035650 0.686259
0.014025 0.034239 0.679638
0.263911 0.027428 0.653313
0.503132 0.019913 0.630241
0.717639 0.012802 0.598432
0.917176 0.005963 0.571232
0.982895 0.003868 0.548751
0.982628 0.004098 0.530703
0.982629 0.004097 0.530775
0.000000 0.035712 0.685572
0.012514 0.034285 0.678777
0.262382 0.027486 0.652187
0.501639 0.019979 0.628853
0.716483 0.012860 0.597017
0.916440 0.006006 0.569823
0.982874 0.003885 0.547378
0.982610 0.004114 0.529462
0.982611 0.004113 0.529522
0.000000 0.203740 0.606333
0.000000 0.199649 0.604605
0.218427 0.172980 0.589229
0.462550 0.147074 0.567727
0.688231 0.126177 0.541799
0.899032 0.108827 0.519620
0.997919 0.098187 0.501230
0.996956 0.093822 0.487234
0.996965 0.093870 0.487292
0.000000 0.369417 0.539896
0.000000 0.365688 0.536338
0.174279 0.343337 0.519825
0.421742 0.316997 0.499834
0.658652 0.293373 0.477928
0.880257 0.273781 0.459130
1.000000 0.259458 0.443824
1.000000 0.251745 0.433654
1.000000 0.251798 0.433710
0.019104 0.531552 0.476984
0.018558 0.528352 0.472051
0.136547 0.511881 0.450968
0.374322 0.490694 0.426060
0.614941 0.467960 0.404731
0.842339 0.448674 0.388440
1.000000 0.433476 0.375031
1.000000 0.422938 0.369915
1.000000 0.422995 0.369966
0.039305 0.695540 0.417617
0.038974 0.693098 0.411640
0.107621 0.681819 0.386619
0.332897 0.667406 0.355546
0.567320 0.648985 0.331874
0.796992 0.631283 0.312216
1.000000 0.615960 0.302457
1.000000 0.603701 0.300876
1.000000 0.603762 0.300924
0.054863 0.863315 0.361887
0.054671 0.861844 0.354791
0.085485 0.854490 0.326544
0.299103 0.845574 0.290881
0.527474 0.830057 0.268366
0.752358 0.814912 0.246436
0.973619 0.799651 0.231295
1.000000 0.786400 0.232786
1.000000 0.786462 0.232833
0.063926 0.972579 0.321522
0.063850 0.972545 0.313194
0.067783 0.972464 0.281201
0.271228 0.974714 0.241711
0.495903 0.977199 0.220319
0.717589 0.979264 0.200425
0.936784 0.975985 0.182426
1.000000 0.962162 0.174065
1.000000 0.962161 0.174134
0.063926 0.972579 0.321547
0.063851 0.972545 0.313244
0.067956 0.972467 0.281357
0.271460 0.974718 0.241926
0.496142 0.977203 0.220534
0.717836 0.979267 0.200640
0.937036 0.975965 0.182642
1.000000 0.962158 0.174299
1.000000 0.962156 0.174368
0.000000 0.033932 0.897147
0.010055 0.032450 0.891129
0.253707 0.025477 0.867320
0.487089 0.017943 0.846609
0.715323 0.010099 0.827579
0.915375 0.003302 0.793852
0.986091 0.001117 0.764686
0.985730 0.001427 0.740309
0.985731 0.001426 0.740382
0.000000 0.033994 0.896794
0.008639 0.032493 0.890626
0.252303 0.025529 0.866602
0.485748 0.018000 0.845675
0.714095 0.010158 0.826427
0.914581 0.003344 0.792739
0.986076 0.001131 0.763639
0.985717 0.001438 0.739450
0.985718 0.001437 0.739513
0.000000 0.195444 0.825483
0.000000 0.191563 0.826005
0.213493 0.166145 0.817694
0.451793 0.141799 0.798087
0.684575 0.118139 0.779126
0.895901 0.101394 0.750219
1.000000 0.091146 0.725111
0.999522 0.087269 0.704926
0.999531 0.087318 0.704987
0.000000 0.359168 0.764941
0.000000 0.355647 0.763775
0.174658 0.334311 0.756322
0.415753 0.309349 0.742727
0.654327 0.285246 0.722237
0.876370 0.266412 0.696512
1.000000 0.252653 0.674326
1.000000 0.245376 0.658102
1.000000 0.245428 0.658160
0.021264 0.523160 0.707003
0.020753 0.519895 0.704262
0.135442 0.503490 0.691025
0.370615 0.482582 0.673380
0.611244 0.460154 0.651591
0.842989 0.440637 0.627201
1.000000 0.425147 0.605953
1.000000 0.414090 0.594013
1.000000 0.414148 0.594066
0.041148 0.690193 0.641995
0.040831 0.687569 0.638107
0.103442 0.675771 0.620573
0.327931 0.661124 0.596227
0.558943 0.644262 0.568873
0.794495 0.625343 0.545337
1.000000 0.609122 0.527333
1.000000 0.595900 0.518700
1.000000 0.595962 0.518751
0.056421 0.859241 0.579150
0.056234 0.857604 0.574128
0.081588 0.849629 0.553417
0.294427 0.840358 0.524593
0.514388 0.828277 0.493497
0.745061 0.811593 0.470131
0.972244 0.794944 0.451365
1.000000 0.780781 0.445778
1.000000 0.780843 0.445828
0.065834 0.973443 0.531842
0.065777 0.973417 0.525567
0.065553 0.973315 0.500996
0.267586 0.975578 0.468517
0.478448 0.977779 0.434276
0.706227 0.979737 0.413151
0.931122 0.972989 0.394161
1.000000 0.957843 0.383251
1.000000 0.957841 0.383326
0.065834 0.973443 0.531870
0.065777 0.973417 0.525631
0.065555 0.973316 0.501203
0.267818 0.975582 0.468740
0.478694 0.977782 0.434505
0.706480 0.979739 0.413381
0.931380 0.972965 0.394392
1.000000 0.957837 0.383501
1.000000 0.957835 0.383576
0.000000 0.032221 1.000000
0.007139 0.030684 1.000000
0.244612 0.023611 1.000000
0.472009 0.016110 1.000000
0.694626 0.008380 1.000000
0.913620 0.000692 1.000000
0.989251 0.000000 0.977323
0.988796 0.000000 0.946732
0.988797 0.000000 0.946804
0.000000 0.032224 1.000000
0.005831 0.030722 1.000000
0.243346 0.023656 1.000000
0.470834 0.016156 1.000000
0.693587 0.008426 1.000000
0.912767 0.000732 1.000000
0.989240 0.000000 0.976615
0.988789 0.000000 0.946266
0.988790 0.000000 0.946331
0.000000 0.188338 1.000000
0.000000 0.184662 1.000000
0.209701 0.160454 1.000000
0.442152 0.137702 1.000000
0.669383 0.115568 0.994230
0.892811 0.094112 0.977249
1.000000 0.084265 0.945518
1.000000 0.080864 0.919261
1.000000 0.080913 0.919324
0.000000 0.350185 0.973033
0.000000 0.346872 0.974246
0.176067 0.326514 0.975695
0.410858 0.302935 0.968352
0.643712 0.280543 0.949413
0.872507 0.259244 0.930154
1.000000 0.246070 0.901167
1.000000 0.239215 0.879004
1.000000 0.239267 0.879064
0.022854 0.512789 0.919994
0.022420 0.509760 0.919732
0.141817 0.494309 0.915229
0.370426 0.474763 0.905862
0.604826 0.453854 0.889928
0.838151 0.433970 0.866792
1.000000 0.419223 0.838614
1.000000 0.408574 0.820822
1.000000 0.408632 0.820877
0.042695 0.683097 0.860347
0.042406 0.680446 0.858647
0.104243 0.668636 0.848839
0.326227 0.654195 0.831773
0.554764 0.637510 0.811537
0.790432 0.618706 0.787779
1.000000 0.602067 0.762155
1.000000 0.588373 0.746862
1.000000 0.588434 0.746915
0.057945 0.855276 0.793043
0.057764 0.853476 0.790062
0.077743 0.844883 0.776771
0.290034 0.835164 0.754910
0.509353 0.822653 0.730541
0.736847 0.807273 0.703866
0.969869 0.789243 0.681550
1.000000 0.774192 0.668990
1.000000 0.774255 0.669044
0.067733 0.974302 0.738970
0.067694 0.974285 0.734719
0.067534 0.974213 0.717366
0.264333 0.976413 0.692208
0.474656 0.978512 0.664901
0.694176 0.980164 0.636146
0.924566 0.968919 0.616226
1.000000 0.952457 0.602836
1.000000 0.952455 0.602915
0.067734 0.974303 0.739020
0.067695 0.974285 0.734813
0.067536 0.974214 0.717600
0.264565 0.976416 0.692440
0.474901 0.978515 0.665139
0.694436 0.980167 0.636391
0.924830 0.968892 0.616471
1.000000 0.952450 0.603102
1.000000 0.952448 0.603181
0.000000 0.032093 1.000000
0.003222 0.030627 1.000000
0.234549 0.023576 1.000000
0.456070 0.016102 1.000000
0.672940 0.008404 1.000000
0.886658 0.000728 1.000000
0.990912 0.000000 1.000000
0.990912 0.000000 1.000000
0.990912 0.000000 1.000000
0.000000 0.032093 1.000000
0.002031 0.030661 1.000000
0.233430 0.023612 1.000000
0.455072 0.016137 1.000000
0.672108 0.008434 1.000000
0.886035 0.000750 1.000000
0.990912 0.000000 1.000000
0.990912 0.000000 1.000000
0.990912 0.000000 1.000000
0.000000 0.183902 1.000000
0.000000 0.180456 1.000000
0.205017 0.157565 1.000000
0.431876 0.136195 1.000000
0.653641 0.115430 1.000000
0.871949 0.095242 1.000000
1.000000 0.078360 1.000000
1.000000 0.075071 1.000000
1.000000 0.075121 1.000000
0.000000 0.343298 1.000000
0.000000 0.340239 1.000000
0.177125 0.320897 1.000000
0.405716 0.298593 1.000000
0.633076 0.277680 1.000000
0.856617 0.257833 1.000000
1.000000 0.239925 1.000000
1.000000 0.233327 1.000000
1.000000 0.233380 1.000000
0.023926 0.503866 1.000000
0.023539 0.501095 1.000000
0.148579 0.486606 1.000000
0.370715 0.468340 1.000000
0.599046 0.448835 1.000000
0.826970 0.430624 1.000000
1.000000 0.413460 1.000000
1.000000 0.403216 1.000000
1.000000 0.403274 1.000000
0.043707 0.672699 1.000000
0.043477 0.670342 1.000000
0.116179 0.659642 1.000000
0.331726 0.646461 1.000000
0.553998 0.630964 1.000000
0.783722 0.613446 1.000000
1.000000 0.596242 0.998656
1.000000 0.583081 0.977419
1.000000 0.583143 0.977474
0.059204 0.848869 1.000000
0.059042 0.847065 1.000000
0.080668 0.838478 0.995014
0.290555 0.828806 0.980558
0.507551 0.816295 0.963482
0.732731 0.800895 0.943986
0.965982 0.782779 0.921697
1.000000 0.767301 0.902621
1.000000 0.767364 0.902677
0.069637 0.975149 0.943738
0.069616 0.975140 0.941488
0.069521 0.975098 0.931307
0.261162 0.977206 0.913396
0.471188 0.979172 0.893192
0.690357 0.980576 0.871466
0.917134 0.963801 0.848944
1.000000 0.946018 0.833140
1.000000 0.946016 0.833224
0.069638 0.975150 0.943825
0.069617 0.975141 0.941627
0.069523 0.975099 0.931548
0.261393 0.977209 0.913636
0.471433 0.979175 0.893438
0.690616 0.980578 0.871718
0.917403 0.963770 0.849204
1.000000 0.946010 0.833422
1.000000 0.946007 0.833506
0.000000 0.032093 1.000000
0.000189 0.030713 1.000000
0.225316 0.023874 1.000000
0.440939 0.016629 1.000000
0.652080 0.009153 1.000000
0.860204 0.001673 1.000000
0.990912 0.000000 1.000000
0.990912 0.000000 1.000000
0.990912 0.000000 1.000000
0.000000 0.032093 1.000000
0.000000 0.030743 1.000000
0.224384 0.023905 1.000000
0.440177 0.016655 1.000000
0.651532 0.009172 1.000000
0.859913 0.001684 1.000000
0.990912 0.000000 1.000000
0.990912 0.000000 1.000000
0.990912 0.000000 1.000000
0.000000 0.181254 1.000000
0.000000 0.177942 1.000000
0.200805 0.156351 1.000000
0.422103 0.136501 1.000000
0.638482 0.117199 1.000000
0.851535 0.098430 1.000000
1.000000 0.081999 1.000000
1.000000 0.071431 1.000000
1.000000 0.071481 1.000000
0.000000 0.338883 1.000000
0.000000 0.336065 1.000000
0.177694 0.317588 1.000000
0.400396 0.296457 1.000000
0.622452 0.276948 1.000000
0.840823 0.258456 1.000000
1.000000 0.241442 1.000000
1.000000 0.229068 1.000000
1.000000 0.229122 1.000000
0.023032 0.497477 1.000000
0.022680 0.494980 1.000000
0.153947 0.481294 1.000000
0.370109 0.463969 1.000000
0.592848 0.445495 1.000000
0.815672 0.428596 1.000000
1.000000 0.412669 1.000000
1.000000 0.398259 1.000000
1.000000 0.398319 1.000000
0.042939 0.664051 1.000000
0.042731 0.661992 1.000000
0.126292 0.652301 1.000000
0.335966 0.640049 1.000000
0.552575 0.625462 1.000000
0.776990 0.609022 1.000000
1.000000 0.593197 1.000000
1.000000 0.577830 1.000000
1.000000 0.577894 1.000000
0.058757 0.838318 1.000000
0.058630 0.836820 1.000000
0.095625 0.829474 1.000000
0.299734 0.820789 1.000000
0.511165 0.809245 1.000000
0.730949 0.794795 1.000000
0.959161 0.777761 1.000000
1.000000 0.761849 1.000000
1.000000 0.761914 1.000000
0.070550 0.975546 1.000000
0.070550 0.975546 1.000000
0.070550 0.975546 1.000000
0.262464 0.977659 1.000000
0.470985 0.979549 1.000000
0.688110 0.975084 1.000000
0.913387 0.957499 1.000000
1.000000 0.939598 1.000000
1.000000 0.939598 1.000000
0.070550 0.975546 1.000000
0.070550 0.975546 1.000000
0.070550 0.975546 1.000000
0.262697 0.977661 1.000000
0.471233 0.979551 1.000000
0.688370 0.975065 1.000000
0.913661 0.957476 1.000000
1.000000 0.939598 1.000000
1.000000 0.939598 1.000000
0.000000 0.032093 1.000000
0.000214 0.030713 1.000000
0.225340 0.023874 1.000000
0.440963 0.016628 1.000000
0.652104 0.009152 1.000000
0.860229 0.001673 1.000000
0.990912 0.000000 1.000000
0.990912 0.000000 1.000000
0.990912 0.000000 1.000000
0.000000 0.032093 1.000000
0.000000 0.030742 1.000000
0.224404 0.023904 1.000000
0.440198 0.016654 1.000000
0.651554 0.009171 1.000000
0.859936 0.001683 1.000000
0.990912 0.000000 1.000000
0.990912 0.000000 1.000000
0.990912 0.000000 1.000000
0.000000 0.181272 1.000000
0.000000 0.177958 1.000000
0.200828 0.156367 1.000000
0.422126 0.136516 1.000000
0.638506 0.117214 1.000000
0.851559 0.098446 1.000000
1.000000 0.082015 1.000000
1.000000 0.071448 1.000000
1.000000 0.071498 1.000000
0.000000 0.338901 1.000000
0.000000 0.336082 1.000000
0.177715 0.317604 1.000000
0.400419 0.296473 1.000000
0.622475 0.276965 1.000000
0.840847 0.258473 1.000000
1.000000 0.241459 1.000000
1.000000 0.229086 1.000000
1.000000 0.229141 1.000000
0.023034 0.497494 1.000000
0.022683 0.494998 1.000000
0.153967 0.481312 1.000000
0.370130 0.463986 1.000000
0.592870 0.445513 1.000000
0.815694 0.428615 1.000000
1.000000 0.412687 1.000000
1.000000 0.398279 1.000000
1.000000 0.398340 1.000000
0.042941 0.664070 1.000000
0.042733 0.662012 1.000000
0.126312 0.652320 1.000000
0.335986 0.640069 1.000000
0.552595 0.625481 1.000000
0.777011 0.609042 1.000000
1.000000 0.593216 1.000000
1.000000 0.577852 1.000000
1.000000 0.577916 1.000000
0.058759 0.838339 1.000000
0.058632 0.836841 1.000000
0.095643 0.829495 1.000000
0.299753 0.820810 1.000000
0.511185 0.809266 1.000000
0.730970 0.794816 1.000000
0.959183 0.777781 1.000000
1.000000 0.761871 1.000000
1.000000 0.761936 1.000000
0.070550 0.975546 1.000000
0.070550 0.975546 1.000000
0.070550 0.975546 1.000000
0.262487 0.977659 1.000000
0.471010 0.979549 1.000000
0.688136 0.975082 1.000000
0.913414 0.957497 1.000000
1.000000 0.939598 1.000000
1.000000 0.939598 1.000000
0.070550 0.975546 1.000000
0.070550 0.975546 1.000000
0.070550 0.975546 1.000000
0.262721 0.977662 1.000000
0.471258 0.979551 1.000000
0.688397 0.975064 1.000000
0.913689 0.957474 1.000000
1.000000 0.939598 1.000000
1.000000 0.939598 1.000000
