resources/luts/deep-forest.cube
# Generated by FotoReady. Released under the project GPL-3.0-or-later license.
TITLE "deep-forest"
LUT_3D_SIZE 17
DOMAIN_MIN 0 0 0
DOMAIN_MAX 1 1 1
0.000000 0.117307 0.042593
0.000000 0.117307 0.042593
0.000000 0.117307 0.042593
0.000000 0.116246 0.041682
0.060858 0.112220 0.038451
0.145091 0.108662 0.035383
0.229167 0.105619 0.032473
0.312795 0.103104 0.029748
0.395795 0.101118 0.027225
0.478049 0.099660 0.024923
0.559473 0.098721 0.022857
0.640002 0.098294 0.021042
0.719589 0.098367 0.019491
0.798196 0.098929 0.018219
0.875795 0.099965 0.017239
0.934967 0.101081 0.016690
0.934967 0.101081 0.016690
0.000000 0.117307 0.042593
0.000000 0.117307 0.042593
0.000000 0.117307 0.042593
0.000000 0.116246 0.041682
0.060858 0.112220 0.038451
0.145091 0.108662 0.035383
0.229167 0.105619 0.032473
0.312795 0.103104 0.029748
0.395795 0.101118 0.027225
0.478049 0.099660 0.024923
0.559473 0.098721 0.022857
0.640002 0.098294 0.021042
0.719589 0.098367 0.019491
0.798196 0.098929 0.018219
0.875795 0.099965 0.017239
0.934967 0.101081 0.016690
0.934967 0.101081 0.016690
0.000000 0.117307 0.042593
0.000000 0.117307 0.042593
0.000000 0.117307 0.042593
0.000000 0.116246 0.041682
0.060858 0.112220 0.038451
0.145091 0.108662 0.035383
0.229167 0.105619 0.032473
0.312795 0.103104 0.029748
0.395795 0.101118 0.027225
0.478049 0.099660 0.024923
0.559473 0.098721 0.022857
0.640002 0.098294 0.021042
0.719589 0.098367 0.019491
0.798196 0.098929 0.018219
0.875795 0.099965 0.017239
0.934967 0.101081 0.016690
0.934967 0.101081 0.016690
0.000000 0.184671 0.031938
0.000000 0.184671 0.031938
0.000000 0.184671 0.031938
0.000000 0.183978 0.031005
0.056872 0.180786 0.027384
0.141181 0.177796 0.024338
0.225375 0.175262 0.021628
0.309154 0.173209 0.019131
0.392342 0.171638 0.016865
0.474820 0.170544 0.014849
0.556502 0.169920 0.013097
0.637327 0.169755 0.011626
0.717246 0.170038 0.010449
0.796223 0.170756 0.009581
0.874228 0.171894 0.009034
0.933740 0.173051 0.008841
0.933740 0.173051 0.008841
0.000000 0.258647 0.020514
0.000000 0.258647 0.020514
0.000000 0.258647 0.020514
0.000000 0.258183 0.019598
0.052082 0.255789 0.015877
0.135962 0.253514 0.012026
0.220395 0.251377 0.010033
0.304449 0.249647 0.007989
0.387948 0.248347 0.005897
0.470776 0.247469 0.003767
0.552848 0.247006 0.002349
0.634102 0.246946 0.001335
0.714490 0.247278 0.000647
0.793975 0.247986 0.000300
0.872529 0.249056 0.000306
0.932491 0.250120 0.000562
0.932491 0.250120 0.000562
0.000000 0.335849 0.009317
0.000000 0.335849 0.009317
0.000000 0.335849 0.009317
0.000000 0.335514 0.009294
0.047332 0.333761 0.007308
0.130480 0.332090 0.005252
0.214683 0.330500 0.003146
0.299145 0.328951 0.001023
0.383082 0.327745 0.000000
0.466387 0.326905 0.000000
0.548978 0.326421 0.000000
0.630790 0.326280 0.000000
0.711777 0.326471 0.000000
0.791903 0.326983 0.000000
0.871139 0.327798 0.000000
0.931656 0.328623 0.000000
0.931656 0.328623 0.000000
0.000000 0.415224 0.002223
0.000000 0.415224 0.002223
0.000000 0.415224 0.002223
0.000000 0.414975 0.002245
0.043057 0.413689 0.000246
0.125581 0.412447 0.000000
0.209188 0.411236 0.000000
0.293632 0.410045 0.000000
0.378157 0.408781 0.000000
0.462071 0.407788 0.000000
0.545311 0.407092 0.000000
0.627814 0.406681 0.000000
0.709533 0.406541 0.000000
0.790431 0.406658 0.000000
0.870485 0.407021 0.000000
0.931662 0.407454 0.000000
0.931662 0.407454 0.000000
0.000000 0.495891 0.000000
0.000000 0.495891 0.000000
0.000000 0.495891 0.000000
0.000000 0.495734 0.000000
0.039706 0.494717 0.000000
0.121724 0.493720 0.000000
0.204855 0.492701 0.000000
0.288856 0.491646 0.000000
0.373584 0.490539 0.000000
0.458267 0.489241 0.000000
0.542291 0.488137 0.000000
0.625618 0.487258 0.000000
0.708203 0.486591 0.000000
0.790008 0.486120 0.000000
0.871010 0.485830 0.000000
0.932954 0.485715 0.000000
0.932954 0.485715 0.000000
0.000000 0.577030 0.000000
0.000000 0.577030 0.000000
0.000000 0.577030 0.000000
0.000000 0.576966 0.000000
0.037742 0.576047 0.000000
0.119375 0.575106 0.000000
0.202153 0.574087 0.000000
0.285835 0.572974 0.000000
0.370280 0.571751 0.000000
0.455397 0.570398 0.000000
0.540372 0.568735 0.000000
0.624660 0.567189 0.000000
0.708245 0.565795 0.000000
0.791075 0.564562 0.000000
0.873099 0.563509 0.000000
0.935829 0.562820 0.000000
0.935829 0.562820 0.000000
0.000000 0.657857 0.000000
0.000000 0.657857 0.000000
0.000000 0.657857 0.000000
0.000000 0.657887 0.000000
0.037634 0.656905 0.000000
0.119005 0.655827 0.000000
0.201555 0.654613 0.000000
0.285045 0.653246 0.000000
0.369335 0.651708 0.000000
0.454330 0.649985 0.000000
0.539950 0.648088 0.000000
0.625300 0.645839 0.000000
0.709877 0.643735 0.000000
0.793664 0.641848 0.000000
0.876609 0.640198 0.000000
0.940015 0.639093 0.000000
0.940015 0.639093 0.000000
0.000000 0.737615 0.000000
0.000000 0.737615 0.000000
0.000000 0.737615 0.000000
0.000000 0.737737 0.000000
0.039856 0.736526 0.000000
0.121091 0.735118 0.000000
0.203529 0.733529 0.000000
0.286912 0.731774 0.000000
0.371078 0.729870 0.000000
0.455912 0.727833 0.000000
0.541331 0.725680 0.000000
0.627267 0.723430 0.000000
0.712760 0.720864 0.000000
0.797378 0.718520 0.000000
0.881116 0.716471 0.000000
0.945097 0.715105 0.000000
0.945097 0.715105 0.000000
0.000000 0.815614 0.000000
0.000000 0.815614 0.000000
0.000000 0.815614 0.000000
0.000000 0.815824 0.000000
0.044798 0.814290 0.000000
0.125897 0.812546 0.000000
0.208162 0.810674 0.000000
0.291332 0.808689 0.000000
0.375244 0.806612 0.000000
0.459784 0.804460 0.000000
0.544868 0.802251 0.000000
0.630428 0.800004 0.000000
0.716407 0.797738 0.000000
0.801783 0.795191 0.000000
0.886186 0.792940 0.000000
0.950655 0.791458 0.000000
0.950655 0.791458 0.000000
0.000000 0.891900 0.000000
0.000000 0.891900 0.000000
0.000000 0.891900 0.000000
0.000000 0.892195 0.000000
0.052268 0.890466 0.000000
0.133103 0.888580 0.000000
0.215063 0.886618 0.000000
0.297888 0.884602 0.000000
0.381413 0.882550 0.000000
0.465526 0.880482 0.000000
0.550140 0.878418 0.000000
0.635189 0.876377 0.000000
0.720615 0.874377 0.000000
0.806371 0.872440 0.000000
0.891372 0.870248 0.000000
0.956229 0.868803 0.000000
0.956229 0.868803 0.000000
0.000000 0.967086 0.000000
0.000000 0.967086 0.000000
0.000000 0.967086 0.000000
0.000000 0.967467 0.000000
0.061839 0.965688 0.000000
0.142280 0.963853 0.000000
0.223805 0.961999 0.000000
0.306151 0.960149 0.000000
0.389157 0.958322 0.000000
0.472708 0.956540 0.000000
0.556718 0.954822 0.000000
0.641119 0.953188 0.000000
0.725856 0.951659 0.000000
0.810880 0.950255 0.000000
0.896149 0.948995 0.000000
0.961362 0.947809 0.000000
0.961362 0.947809 0.000000
0.000000 1.000000 0.000000
0.000000 1.000000 0.000000
0.000000 1.000000 0.000000
0.000000 1.000000 0.000000
0.073081 1.000000 0.000000
0.152995 1.000000 0.000000
0.233948 1.000000 0.000000
0.315685 1.000000 0.000000
0.398037 1.000000 0.000000
0.480891 1.000000 0.000000
0.564162 1.000000 0.000000
0.647781 1.000000 0.000000
0.731692 1.000000 0.000000
0.815847 1.000000 0.000000
0.900205 1.000000 0.000000
0.965412 1.000000 0.000000
0.965412 1.000000 0.000000
0.000000 1.000000 0.000000
0.000000 1.000000 0.000000
0.000000 1.000000 0.000000
0.000000 1.000000 0.000000
0.075860 1.000000 0.000000
0.155644 1.000000 0.000000
0.236457 1.000000 0.000000
0.318040 1.000000 0.000000
0.400228 1.000000 0.000000
0.482907 1.000000 0.000000
0.565992 1.000000 0.000000
0.649414 1.000000 0.000000
0.733117 1.000000 0.000000
0.817051 1.000000 0.000000
0.901174 1.000000 0.000000
0.966189 1.000000 0.000000
0.966189 1.000000 0.000000
0.000000 1.000000 0.000000
0.000000 1.000000 0.000000
0.000000 1.000000 0.000000
0.000000 1.000000 0.000000
0.075860 1.000000 0.000000
0.155644 1.000000 0.000000
0.236457 1.000000 0.000000
0.318040 1.000000 0.000000
0.400228 1.000000 0.000000
0.482907 1.000000 0.000000
0.565992 1.000000 0.000000
0.649414 1.000000 0.000000
0.733117 1.000000 0.000000
0.817051 1.000000 0.000000
0.901174 1.000000 0.000000
0.966189 1.000000 0.000000
0.966189 1.000000 0.000000
0.000000 0.117307 0.042593
0.000000 0.117307 0.042593
0.000000 0.117307 0.042593
0.000000 0.116246 0.041682
0.060858 0.112220 0.038451
0.145091 0.108662 0.035383
0.229167 0.105619 0.032473
0.312795 0.103104 0.029748
0.395795 0.101118 0.027225
0.478049 0.099660 0.024923
0.559473 0.098721 0.022857
0.640002 0.098294 0.021042
0.719589 0.098367 0.019491
0.798196 0.098929 0.018219
0.875795 0.099965 0.017239
0.934967 0.101081 0.016690
0.934967 0.101081 0.016690
0.000000 0.117307 0.042593
0.000000 0.117307 0.042593
0.000000 0.117307 0.042593
0.000000 0.116246 0.041682
0.060858 0.112220 0.038451
0.145091 0.108662 0.035383
0.229167 0.105619 0.032473
0.312795 0.103104 0.029748
0.395795 0.101118 0.027225
0.478049 0.099660 0.024923
0.559473 0.098721 0.022857
0.640002 0.098294 0.021042
0.719589 0.098367 0.019491
0.798196 0.098929 0.018219
0.875795 0.099965 0.017239
0.934967 0.101081 0.016690
0.934967 0.101081 0.016690
0.000000 0.117307 0.042593
0.000000 0.117307 0.042593
0.000000 0.117307 0.042593
0.000000 0.116246 0.041682
0.060858 0.112220 0.038451
0.145091 0.108662 0.035383
0.229167 0.105619 0.032473
0.312795 0.103104 0.029748
0.395795 0.101118 0.027225
0.478049 0.099660 0.024923
0.559473 0.098721 0.022857
0.640002 0.098294 0.021042
0.719589 0.098367 0.019491
0.798196 0.098929 0.018219
0.875795 0.099965 0.017239
0.934967 0.101081 0.016690
0.934967 0.101081 0.016690
0.000000 0.184671 0.031938
0.000000 0.184671 0.031938
0.000000 0.184671 0.031938
0.000000 0.183978 0.031005
0.056872 0.180786 0.027384
0.141181 0.177796 0.024338
0.225375 0.175262 0.021628
0.309154 0.173209 0.019131
0.392342 0.171638 0.016865
0.474820 0.170544 0.014849
0.556502 0.169920 0.013097
0.637327 0.169755 0.011626
0.717246 0.170038 0.010449
0.796223 0.170756 0.009581
0.874228 0.171894 0.009034
0.933740 0.173051 0.008841
0.933740 0.173051 0.008841
0.000000 0.258647 0.020514
0.000000 0.258647 0.020514
0.000000 0.258647 0.020514
0.000000 0.258183 0.019598
0.052082 0.255789 0.015877
0.135962 0.253514 0.012026
0.220395 0.251377 0.010033
0.304449 0.249647 0.007989
0.387948 0.248347 0.005897
0.470776 0.247469 0.003767
0.552848 0.247006 0.002349
0.634102 0.246946 0.001335
0.714490 0.247278 0.000647
0.793975 0.247986 0.000300
0.872529 0.249056 0.000306
0.932491 0.250120 0.000562
0.932491 0.250120 0.000562
0.000000 0.335849 0.009317
0.000000 0.335849 0.009317
0.000000 0.335849 0.009317
0.000000 0.335514 0.009294
0.047332 0.333761 0.007308
0.130480 0.332090 0.005252
0.214683 0.330500 0.003146
0.299145 0.328951 0.001023
0.383082 0.327745 0.000000
0.466387 0.326905 0.000000
0.548978 0.326421 0.000000
0.630790 0.326280 0.000000
0.711777 0.326471 0.000000
0.791903 0.326983 0.000000
0.871139 0.327798 0.000000
0.931656 0.328623 0.000000
0.931656 0.328623 0.000000
0.000000 0.415224 0.002223
0.000000 0.415224 0.002223
0.000000 0.415224 0.002223
0.000000 0.414975 0.002245
0.043057 0.413689 0.000246
0.125581 0.412447 0.000000
0.209188 0.411236 0.000000
0.293632 0.410045 0.000000
0.378157 0.408781 0.000000
0.462071 0.407788 0.000000
0.545311 0.407092 0.000000
0.627814 0.406681 0.000000
0.709533 0.406541 0.000000
0.790431 0.406658 0.000000
0.870485 0.407021 0.000000
0.931662 0.407454 0.000000
0.931662 0.407454 0.000000
0.000000 0.495891 0.000000
0.000000 0.495891 0.000000
0.000000 0.495891 0.000000
0.000000 0.495734 0.000000
0.039706 0.494717 0.000000
0.121724 0.493720 0.000000
0.204855 0.492701 0.000000
0.288856 0.491646 0.000000
0.373584 0.490539 0.000000
0.458267 0.489241 0.000000
0.542291 0.488137 0.000000
0.625618 0.487258 0.000000
0.708203 0.486591 0.000000
0.790008 0.486120 0.000000
0.871010 0.485830 0.000000
0.932954 0.485715 0.000000
0.932954 0.485715 0.000000
0.000000 0.577030 0.000000
0.000000 0.577030 0.000000
0.000000 0.577030 0.000000
0.000000 0.576966 0.000000
0.037742 0.576047 0.000000
0.119375 0.575106 0.000000
0.202153 0.574087 0.000000
0.285835 0.572974 0.000000
0.370280 0.571751 0.000000
0.455397 0.570398 0.000000
0.540372 0.568735 0.000000
0.624660 0.567189 0.000000
0.708245 0.565795 0.000000
0.791075 0.564562 0.000000
0.873099 0.563509 0.000000
0.935829 0.562820 0.000000
0.935829 0.562820 0.000000
0.000000 0.657857 0.000000
0.000000 0.657857 0.000000
0.000000 0.657857 0.000000
0.000000 0.657887 0.000000
0.037634 0.656905 0.000000
0.119005 0.655827 0.000000
0.201555 0.654613 0.000000
0.285045 0.653246 0.000000
0.369335 0.651708 0.000000
0.454330 0.649985 0.000000
0.539950 0.648088 0.000000
0.625300 0.645839 0.000000
0.709877 0.643735 0.000000
0.793664 0.641848 0.000000
0.876609 0.640198 0.000000
0.940015 0.639093 0.000000
0.940015 0.639093 0.000000
0.000000 0.737615 0.000000
0.000000 0.737615 0.000000
0.000000 0.737615 0.000000
0.000000 0.737737 0.000000
0.039856 0.736526 0.000000
0.121091 0.735118 0.000000
0.203529 0.733529 0.000000
0.286912 0.731774 0.000000
0.371078 0.729870 0.000000
0.455912 0.727833 0.000000
0.541331 0.725680 0.000000
0.627267 0.723430 0.000000
0.712760 0.720864 0.000000
0.797378 0.718520 0.000000
0.881116 0.716471 0.000000
0.945097 0.715105 0.000000
0.945097 0.715105 0.000000
0.000000 0.815614 0.000000
0.000000 0.815614 0.000000
0.000000 0.815614 0.000000
0.000000 0.815824 0.000000
0.044798 0.814290 0.000000
0.125897 0.812546 0.000000
0.208162 0.810674 0.000000
0.291332 0.808689 0.000000
0.375244 0.806612 0.000000
0.459784 0.804460 0.000000
0.544868 0.802251 0.000000
0.630428 0.800004 0.000000
0.716407 0.797738 0.000000
0.801783 0.795191 0.000000
0.886186 0.792940 0.000000
0.950655 0.791458 0.000000
0.950655 0.791458 0.000000
0.000000 0.891900 0.000000
0.000000 0.891900 0.000000
0.000000 0.891900 0.000000
0.000000 0.892195 0.000000
0.052268 0.890466 0.000000
0.133103 0.888580 0.000000
0.215063 0.886618 0.000000
0.297888 0.884602 0.000000
0.381413 0.882550 0.000000
0.465526 0.880482 0.000000
0.550140 0.878418 0.000000
0.635189 0.876377 0.000000
0.720615 0.874377 0.000000
0.806371 0.872440 0.000000
0.891372 0.870248 0.000000
0.956229 0.868803 0.000000
0.956229 0.868803 0.000000
0.000000 0.967086 0.000000
0.000000 0.967086 0.000000
0.000000 0.967086 0.000000
0.000000 0.967467 0.000000
0.061839 0.965688 0.000000
0.142280 0.963853 0.000000
0.223805 0.961999 0.000000
0.306151 0.960149 0.000000
0.389157 0.958322 0.000000
0.472708 0.956540 0.000000
0.556718 0.954822 0.000000
0.641119 0.953188 0.000000
0.725856 0.951659 0.000000
0.810880 0.950255 0.000000
0.896149 0.948995 0.000000
0.961362 0.947809 0.000000
0.961362 0.947809 0.000000
0.000000 1.000000 0.000000
0.000000 1.000000 0.000000
0.000000 1.000000 0.000000
0.000000 1.000000 0.000000
0.073081 1.000000 0.000000
0.152995 1.000000 0.000000
0.233948 1.000000 0.000000
0.315685 1.000000 0.000000
0.398037 1.000000 0.000000
0.480891 1.000000 0.000000
0.564162 1.000000 0.000000
0.647781 1.000000 0.000000
0.731692 1.000000 0.000000
0.815847 1.000000 0.000000
0.900205 1.000000 0.000000
0.965412 1.000000 0.000000
0.965412 1.000000 0.000000
0.000000 1.000000 0.000000
0.000000 1.000000 0.000000
0.000000 1.000000 0.000000
0.000000 1.000000 0.000000
0.075860 1.000000 0.000000
0.155644 1.000000 0.000000
0.236457 1.000000 0.000000
0.318040 1.000000 0.000000
0.400228 1.000000 0.000000
0.482907 1.000000 0.000000
0.565992 1.000000 0.000000
0.649414 1.000000 0.000000
0.733117 1.000000 0.000000
0.817051 1.000000 0.000000
0.901174 1.000000 0.000000
0.966189 1.000000 0.000000
0.966189 1.000000 0.000000
0.000000 1.000000 0.000000
0.000000 1.000000 0.000000
0.000000 1.000000 0.000000
0.000000 1.000000 0.000000
0.075860 1.000000 0.000000
0.155644 1.000000 0.000000
0.236457 1.000000 0.000000
0.318040 1.000000 0.000000
0.400228 1.000000 0.000000
0.482907 1.000000 0.000000
0.565992 1.000000 0.000000
0.649414 1.000000 0.000000
0.733117 1.000000 0.000000
0.817051 1.000000 0.000000
0.901174 1.000000 0.000000
0.966189 1.000000 0.000000
0.966189 1.000000 0.000000
0.000000 0.117307 0.042593
0.000000 0.117307 0.042593
0.000000 0.117307 0.042593
0.000000 0.116246 0.041682
0.060858 0.112220 0.038451
0.145091 0.108662 0.035383
0.229167 0.105619 0.032473
0.312795 0.103104 0.029748
0.395795 0.101118 0.027225
0.478049 0.099660 0.024923
0.559473 0.098721 0.022857
0.640002 0.098294 0.021042
0.719589 0.098367 0.019491
0.798196 0.098929 0.018219
0.875795 0.099965 0.017239
0.934967 0.101081 0.016690
0.934967 0.101081 0.016690
0.000000 0.117307 0.042593
0.000000 0.117307 0.042593
0.000000 0.117307 0.042593
0.000000 0.116246 0.041682
0.060858 0.112220 0.038451
0.145091 0.108662 0.035383
0.229167 0.105619 0.032473
0.312795 0.103104 0.029748
0.395795 0.101118 0.027225
0.478049 0.099660 0.024923
0.559473 0.098721 0.022857
0.640002 0.098294 0.021042
0.719589 0.098367 0.019491
0.798196 0.098929 0.018219
0.875795 0.099965 0.017239
0.934967 0.101081 0.016690
0.934967 0.101081 0.016690
0.000000 0.117307 0.042593
0.000000 0.117307 0.042593
0.000000 0.117307 0.042593
0.000000 0.116246 0.041682
0.060858 0.112220 0.038451
0.145091 0.108662 0.035383
0.229167 0.105619 0.032473
0.312795 0.103104 0.029748
0.395795 0.101118 0.027225
0.478049 0.099660 0.024923
0.559473 0.098721 0.022857
0.640002 0.098294 0.021042
0.719589 0.098367 0.019491
0.798196 0.098929 0.018219
0.875795 0.099965 0.017239
0.934967 0.101081 0.016690
0.934967 0.101081 0.016690
0.000000 0.184671 0.031938
0.000000 0.184671 0.031938
0.000000 0.184671 0.031938
0.000000 0.183978 0.031005
0.056872 0.180786 0.027384
0.141181 0.177796 0.024338
0.225375 0.175262 0.021628
0.309154 0.173209 0.019131
0.392342 0.171638 0.016865
0.474820 0.170544 0.014849
0.556502 0.169920 0.013097
0.637327 0.169755 0.011626
0.717246 0.170038 0.010449
0.796223 0.170756 0.009581
0.874228 0.171894 0.009034
0.933740 0.173051 0.008841
0.933740 0.173051 0.008841
0.000000 0.258647 0.020514
0.000000 0.258647 0.020514
0.000000 0.258647 0.020514
0.000000 0.258183 0.019598
0.052082 0.255789 0.015877
0.135962 0.253514 0.012026
0.220395 0.251377 0.010033
0.304449 0.249647 0.007989
0.387948 0.248347 0.005897
0.470776 0.247469 0.003767
0.552848 0.247006 0.002349
0.634102 0.246946 0.001335
0.714490 0.247278 0.000647
0.793975 0.247986 0.000300
0.872529 0.249056 0.000306
0.932491 0.250120 0.000562
0.932491 0.250120 0.000562
0.000000 0.335849 0.009317
0.000000 0.335849 0.009317
0.000000 0.335849 0.009317
0.000000 0.335514 0.009294
0.047332 0.333761 0.007308
0.130480 0.332090 0.005252
0.214683 0.330500 0.003146
0.299145 0.328951 0.001023
0.383082 0.327745 0.000000
0.466387 0.326905 0.000000
0.548978 0.326421 0.000000
0.630790 0.326280 0.000000
0.711777 0.326471 0.000000
0.791903 0.326983 0.000000
0.871139 0.327798 0.000000
0.931656 0.328623 0.000000
0.931656 0.328623 0.000000
0.000000 0.415224 0.002223
0.000000 0.415224 0.002223
0.000000 0.415224 0.002223
0.000000 0.414975 0.002245
0.043057 0.413689 0.000246
0.125581 0.412447 0.000000
0.209188 0.411236 0.000000
0.293632 0.410045 0.000000
0.378157 0.408781 0.000000
0.462071 0.407788 0.000000
0.545311 0.407092 0.000000
0.627814 0.406681 0.000000
0.709533 0.406541 0.000000
0.790431 0.406658 0.000000
0.870485 0.407021 0.000000
0.931662 0.407454 0.000000
0.931662 0.407454 0.000000
0.000000 0.495891 0.000000
0.000000 0.495891 0.000000
0.000000 0.495891 0.000000
0.000000 0.495734 0.000000
0.039706 0.494717 0.000000
0.121724 0.493720 0.000000
0.204855 0.492701 0.000000
0.288856 0.491646 0.000000
0.373584 0.490539 0.000000
0.458267 0.489241 0.000000
0.542291 0.488137 0.000000
0.625618 0.487258 0.000000
0.708203 0.486591 0.000000
0.790008 0.486120 0.000000
0.871010 0.485830 0.000000
0.932954 0.485715 0.000000
0.932954 0.485715 0.000000
0.000000 0.577030 0.000000
0.000000 0.577030 0.000000
0.000000 0.577030 0.000000
0.000000 0.576966 0.000000
0.037742 0.576047 0.000000
0.119375 0.575106 0.000000
0.202153 0.574087 0.000000
0.285835 0.572974 0.000000
0.370280 0.571751 0.000000
0.455397 0.570398 0.000000
0.540372 0.568735 0.000000
0.624660 0.567189 0.000000
0.708245 0.565795 0.000000
0.791075 0.564562 0.000000
0.873099 0.563509 0.000000
0.935829 0.562820 0.000000
0.935829 0.562820 0.000000
0.000000 0.657857 0.000000
0.000000 0.657857 0.000000
0.000000 0.657857 0.000000
0.000000 0.657887 0.000000
0.037634 0.656905 0.000000
0.119005 0.655827 0.000000
0.201555 0.654613 0.000000
0.285045 0.653246 0.000000
0.369335 0.651708 0.000000
0.454330 0.649985 0.000000
0.539950 0.648088 0.000000
0.625300 0.645839 0.000000
0.709877 0.643735 0.000000
0.793664 0.641848 0.000000
0.876609 0.640198 0.000000
0.940015 0.639093 0.000000
0.940015 0.639093 0.000000
0.000000 0.737615 0.000000
0.000000 0.737615 0.000000
0.000000 0.737615 0.000000
0.000000 0.737737 0.000000
0.039856 0.736526 0.000000
0.121091 0.735118 0.000000
0.203529 0.733529 0.000000
0.286912 0.731774 0.000000
0.371078 0.729870 0.000000
0.455912 0.727833 0.000000
0.541331 0.725680 0.000000
0.627267 0.723430 0.000000
0.712760 0.720864 0.000000
0.797378 0.718520 0.000000
0.881116 0.716471 0.000000
0.945097 0.715105 0.000000
0.945097 0.715105 0.000000
0.000000 0.815614 0.000000
0.000000 0.815614 0.000000
0.000000 0.815614 0.000000
0.000000 0.815824 0.000000
0.044798 0.814290 0.000000
0.125897 0.812546 0.000000
0.208162 0.810674 0.000000
0.291332 0.808689 0.000000
0.375244 0.806612 0.000000
0.459784 0.804460 0.000000
0.544868 0.802251 0.000000
0.630428 0.800004 0.000000
0.716407 0.797738 0.000000
0.801783 0.795191 0.000000
0.886186 0.792940 0.000000
0.950655 0.791458 0.000000
0.950655 0.791458 0.000000
0.000000 0.891900 0.000000
0.000000 0.891900 0.000000
0.000000 0.891900 0.000000
0.000000 0.892195 0.000000
0.052268 0.890466 0.000000
0.133103 0.888580 0.000000
0.215063 0.886618 0.000000
0.297888 0.884602 0.000000
0.381413 0.882550 0.000000
0.465526 0.880482 0.000000
0.550140 0.878418 0.000000
0.635189 0.876377 0.000000
0.720615 0.874377 0.000000
0.806371 0.872440 0.000000
0.891372 0.870248 0.000000
0.956229 0.868803 0.000000
0.956229 0.868803 0.000000
0.000000 0.967086 0.000000
0.000000 0.967086 0.000000
0.000000 0.967086 0.000000
0.000000 0.967467 0.000000
0.061839 0.965688 0.000000
0.142280 0.963853 0.000000
0.223805 0.961999 0.000000
0.306151 0.960149 0.000000
0.389157 0.958322 0.000000
0.472708 0.956540 0.000000
0.556718 0.954822 0.000000
0.641119 0.953188 0.000000
0.725856 0.951659 0.000000
0.810880 0.950255 0.000000
0.896149 0.948995 0.000000
0.961362 0.947809 0.000000
0.961362 0.947809 0.000000
0.000000 1.000000 0.000000
0.000000 1.000000 0.000000
0.000000 1.000000 0.000000
0.000000 1.000000 0.000000
0.073081 1.000000 0.000000
0.152995 1.000000 0.000000
0.233948 1.000000 0.000000
0.315685 1.000000 0.000000
0.398037 1.000000 0.000000
0.480891 1.000000 0.000000
0.564162 1.000000 0.000000
0.647781 1.000000 0.000000
0.731692 1.000000 0.000000
0.815847 1.000000 0.000000
0.900205 1.000000 0.000000
0.965412 1.000000 0.000000
0.965412 1.000000 0.000000
0.000000 1.000000 0.000000
0.000000 1.000000 0.000000
0.000000 1.000000 0.000000
0.000000 1.000000 0.000000
0.075860 1.000000 0.000000
0.155644 1.000000 0.000000
0.236457 1.000000 0.000000
0.318040 1.000000 0.000000
0.400228 1.000000 0.000000
0.482907 1.000000 0.000000
0.565992 1.000000 0.000000
0.649414 1.000000 0.000000
0.733117 1.000000 0.000000
0.817051 1.000000 0.000000
0.901174 1.000000 0.000000
0.966189 1.000000 0.000000
0.966189 1.000000 0.000000
0.000000 1.000000 0.000000
0.000000 1.000000 0.000000
0.000000 1.000000 0.000000
0.000000 1.000000 0.000000
0.075860 1.000000 0.000000
0.155644 1.000000 0.000000
0.236457 1.000000 0.000000
0.318040 1.000000 0.000000
0.400228 1.000000 0.000000
0.482907 1.000000 0.000000
0.565992 1.000000 0.000000
0.649414 1.000000 0.000000
0.733117 1.000000 0.000000
0.817051 1.000000 0.000000
0.901174 1.000000 0.000000
0.966189 1.000000 0.000000
0.966189 1.000000 0.000000
0.000000 0.115921 0.121078
0.000000 0.115921 0.121078
0.000000 0.115921 0.121078
0.000000 0.114907 0.120352
0.060619 0.110962 0.117006
0.145017 0.107488 0.113263
0.229264 0.104526 0.109673
0.313066 0.102086 0.106262
0.396247 0.100172 0.103052
0.478686 0.098780 0.100061
0.560299 0.097903 0.097305
0.641022 0.097532 0.094798
0.720808 0.097656 0.092557
0.799618 0.098264 0.090594
0.877424 0.099341 0.088923
0.936758 0.100484 0.087842
