resources/luts/deep-forest.cube
# Generated by FotoReady. Released under the project GPL-3.0-or-later license.
TITLE "deep-forest"
LUT_3D_SIZE 9
DOMAIN_MIN 0 0 0
DOMAIN_MAX 1 1 1
0.000000 0.117307 0.042593
0.000000 0.117307 0.042593
0.060858 0.112220 0.038451
0.229167 0.105619 0.032473
0.395795 0.101118 0.027225
0.559473 0.098721 0.022857
0.719589 0.098367 0.019491
0.875795 0.099965 0.017239
0.934967 0.101081 0.016690
0.000000 0.117307 0.042593
0.000000 0.117307 0.042593
0.060858 0.112220 0.038451
0.229167 0.105619 0.032473
0.395795 0.101118 0.027225
0.559473 0.098721 0.022857
0.719589 0.098367 0.019491
0.875795 0.099965 0.017239
0.934967 0.101081 0.016690
0.000000 0.258647 0.020514
0.000000 0.258647 0.020514
0.052082 0.255789 0.015877
0.220395 0.251377 0.010033
0.387948 0.248347 0.005897
0.552848 0.247006 0.002349
0.714490 0.247278 0.000647
0.872529 0.249056 0.000306
0.932491 0.250120 0.000562
0.000000 0.415224 0.002223
0.000000 0.415224 0.002223
0.043057 0.413689 0.000246
0.209188 0.411236 0.000000
0.378157 0.408781 0.000000
0.545311 0.407092 0.000000
0.709533 0.406541 0.000000
0.870485 0.407021 0.000000
0.931662 0.407454 0.000000
0.000000 0.577030 0.000000
0.000000 0.577030 0.000000
0.037742 0.576047 0.000000
0.202153 0.574087 0.000000
0.370280 0.571751 0.000000
0.540372 0.568735 0.000000
0.708245 0.565795 0.000000
0.873099 0.563509 0.000000
0.935829 0.562820 0.000000
0.000000 0.737615 0.000000
0.000000 0.737615 0.000000
0.039856 0.736526 0.000000
0.203529 0.733529 0.000000
0.371078 0.729870 0.000000
0.541331 0.725680 0.000000
0.712760 0.720864 0.000000
0.881116 0.716471 0.000000
0.945097 0.715105 0.000000
0.000000 0.891900 0.000000
0.000000 0.891900 0.000000
0.052268 0.890466 0.000000
0.215063 0.886618 0.000000
0.381413 0.882550 0.000000
0.550140 0.878418 0.000000
0.720615 0.874377 0.000000
0.891372 0.870248 0.000000
0.956229 0.868803 0.000000
0.000000 1.000000 0.000000
0.000000 1.000000 0.000000
0.073081 1.000000 0.000000
0.233948 1.000000 0.000000
0.398037 1.000000 0.000000
0.564162 1.000000 0.000000
0.731692 1.000000 0.000000
0.900205 1.000000 0.000000
0.965412 1.000000 0.000000
0.000000 1.000000 0.000000
0.000000 1.000000 0.000000
0.075860 1.000000 0.000000
0.236457 1.000000 0.000000
0.400228 1.000000 0.000000
0.565992 1.000000 0.000000
0.733117 1.000000 0.000000
0.901174 1.000000 0.000000
0.966189 1.000000 0.000000
0.000000 0.117307 0.042593
0.000000 0.117307 0.042593
0.060858 0.112220 0.038451
0.229167 0.105619 0.032473
0.395795 0.101118 0.027225
0.559473 0.098721 0.022857
0.719589 0.098367 0.019491
0.875795 0.099965 0.017239
0.934967 0.101081 0.016690
0.000000 0.117307 0.042593
0.000000 0.117307 0.042593
0.060858 0.112220 0.038451
0.229167 0.105619 0.032473
0.395795 0.101118 0.027225
0.559473 0.098721 0.022857
0.719589 0.098367 0.019491
0.875795 0.099965 0.017239
0.934967 0.101081 0.016690
0.000000 0.258647 0.020514
0.000000 0.258647 0.020514
0.052082 0.255789 0.015877
0.220395 0.251377 0.010033
0.387948 0.248347 0.005897
0.552848 0.247006 0.002349
0.714490 0.247278 0.000647
0.872529 0.249056 0.000306
0.932491 0.250120 0.000562
0.000000 0.415224 0.002223
0.000000 0.415224 0.002223
0.043057 0.413689 0.000246
0.209188 0.411236 0.000000
0.378157 0.408781 0.000000
0.545311 0.407092 0.000000
0.709533 0.406541 0.000000
0.870485 0.407021 0.000000
0.931662 0.407454 0.000000
0.000000 0.577030 0.000000
0.000000 0.577030 0.000000
0.037742 0.576047 0.000000
0.202153 0.574087 0.000000
0.370280 0.571751 0.000000
0.540372 0.568735 0.000000
0.708245 0.565795 0.000000
0.873099 0.563509 0.000000
0.935829 0.562820 0.000000
0.000000 0.737615 0.000000
0.000000 0.737615 0.000000
0.039856 0.736526 0.000000
0.203529 0.733529 0.000000
0.371078 0.729870 0.000000
0.541331 0.725680 0.000000
0.712760 0.720864 0.000000
0.881116 0.716471 0.000000
0.945097 0.715105 0.000000
0.000000 0.891900 0.000000
0.000000 0.891900 0.000000
0.052268 0.890466 0.000000
0.215063 0.886618 0.000000
0.381413 0.882550 0.000000
0.550140 0.878418 0.000000
0.720615 0.874377 0.000000
0.891372 0.870248 0.000000
0.956229 0.868803 0.000000
0.000000 1.000000 0.000000
0.000000 1.000000 0.000000
0.073081 1.000000 0.000000
0.233948 1.000000 0.000000
0.398037 1.000000 0.000000
0.564162 1.000000 0.000000
0.731692 1.000000 0.000000
0.900205 1.000000 0.000000
0.965412 1.000000 0.000000
0.000000 1.000000 0.000000
0.000000 1.000000 0.000000
0.075860 1.000000 0.000000
0.236457 1.000000 0.000000
0.400228 1.000000 0.000000
0.565992 1.000000 0.000000
0.733117 1.000000 0.000000
0.901174 1.000000 0.000000
0.966189 1.000000 0.000000
0.000000 0.114547 0.203436
0.000000 0.114547 0.203436
0.059939 0.109848 0.199877
0.228880 0.103509 0.192025
0.395893 0.099403 0.184041
0.559989 0.097362 0.176923
0.720557 0.097324 0.170803
0.877248 0.099195 0.165798
0.936616 0.100404 0.164189
0.000000 0.114547 0.203436
0.000000 0.114547 0.203436
0.059939 0.109848 0.199877
0.228880 0.103509 0.192025
0.395893 0.099403 0.184041
0.559989 0.097362 0.176923
0.720557 0.097324 0.170803
0.877248 0.099195 0.165798
0.936616 0.100404 0.164189
0.000000 0.257058 0.180420
0.000000 0.257058 0.180420
0.050381 0.254494 0.176053
0.220241 0.249953 0.167868
0.390089 0.246692 0.160640
0.557344 0.245075 0.154513
0.721392 0.245022 0.149624
0.881888 0.246428 0.146094
0.942810 0.247336 0.145120
0.000000 0.414395 0.155402
0.000000 0.414395 0.155402
0.040355 0.413467 0.150167
0.207151 0.411012 0.141204
0.378392 0.408070 0.134490
0.547993 0.405969 0.130699
0.714720 0.404960 0.128414
0.878228 0.404925 0.127756
0.940403 0.405145 0.127962
0.000000 0.576464 0.133950
0.000000 0.576464 0.133950
0.034325 0.576442 0.128088
0.198572 0.574712 0.119377
0.368964 0.571674 0.112658
0.541474 0.567998 0.108930
0.711954 0.564459 0.110107
0.879442 0.561575 0.113095
0.943172 0.560672 0.114722
0.000000 0.736847 0.119195
0.000000 0.736847 0.119195
0.036013 0.737096 0.112926
0.198661 0.734605 0.105249
0.368486 0.730225 0.100621
0.541017 0.725349 0.096283
0.714849 0.719942 0.096183
0.885783 0.715061 0.102380
0.950763 0.713515 0.105182
0.000000 0.890776 0.113521
0.000000 0.890776 0.113521
0.048048 0.891162 0.106835
0.208803 0.888322 0.099966
0.377346 0.883664 0.096869
0.548268 0.878973 0.093830
0.720933 0.874408 0.090788
0.894021 0.869851 0.093028
0.959847 0.868284 0.096676
0.000000 1.000000 0.115520
0.000000 1.000000 0.115520
0.068219 1.000000 0.108052
0.226030 1.000000 0.101154
0.392225 1.000000 0.098738
0.560458 1.000000 0.096134
0.730089 1.000000 0.093269
0.900694 1.000000 0.090065
0.966704 1.000000 0.088720
0.000000 1.000000 0.116340
0.000000 1.000000 0.116340
0.070687 1.000000 0.108785
0.227961 1.000000 0.101844
0.393898 1.000000 0.099448
0.561827 1.000000 0.096832
0.731104 1.000000 0.093914
0.901292 1.000000 0.090606
0.967123 1.000000 0.089206
0.000000 0.112136 0.368548
0.000000 0.112136 0.368548
0.058730 0.107982 0.365979
0.226880 0.102022 0.359321
0.395132 0.097892 0.350265
0.559327 0.096310 0.340340
0.720025 0.096687 0.331410
0.876879 0.098929 0.323597
0.936319 0.100269 0.320906
0.000000 0.112136 0.368548
0.000000 0.112136 0.368548
0.058730 0.107982 0.365979
0.226880 0.102022 0.359321
0.395132 0.097892 0.350265
0.559327 0.096310 0.340340
0.720025 0.096687 0.331410
0.876879 0.098929 0.323597
0.936319 0.100269 0.320906
0.000000 0.254998 0.347152
0.000000 0.254998 0.347152
0.050393 0.252737 0.344683
0.218684 0.248657 0.338141
0.389353 0.245476 0.328982
0.557135 0.244084 0.320033
0.721747 0.244211 0.312317
0.882842 0.245750 0.305963
0.944005 0.246696 0.303901
0.000000 0.413556 0.321850
0.000000 0.413556 0.321850
0.039161 0.412529 0.318288
0.205171 0.410240 0.310485
0.378267 0.406938 0.302039
0.550469 0.404378 0.294972
0.719854 0.402857 0.289401
0.886074 0.402258 0.285456
0.949308 0.402247 0.284395
0.000000 0.575863 0.297847
0.000000 0.575863 0.297847
0.033524 0.575676 0.293684
0.195923 0.574425 0.285051
0.367273 0.571148 0.276916
0.542365 0.566737 0.271530
0.715587 0.562560 0.269488
0.885809 0.559077 0.269205
0.950591 0.557954 0.269559
0.000000 0.735955 0.280782
0.000000 0.735955 0.280782
0.035955 0.735983 0.276235
0.195639 0.734347 0.267507
0.365501 0.730092 0.260541
0.540466 0.724477 0.255680
0.716819 0.718465 0.253817
0.890384 0.713142 0.256661
0.956375 0.711436 0.258156
0.000000 0.889526 0.272801
0.000000 0.889526 0.272801
0.048702 0.889755 0.267799
0.205207 0.888393 0.258611
0.372755 0.884383 0.252163
0.546008 0.879110 0.248518
0.720997 0.874002 0.244837
0.896492 0.869039 0.245178
0.963290 0.867375 0.247487
0.000000 1.000000 0.272190
0.000000 1.000000 0.272190
0.069239 1.000000 0.266366
0.221504 1.000000 0.255871
0.385663 1.000000 0.249081
0.556125 1.000000 0.245786
0.727977 1.000000 0.242199
0.900789 1.000000 0.238240
0.967647 1.000000 0.236595
0.000000 1.000000 0.272628
0.000000 1.000000 0.272628
0.071763 1.000000 0.266709
0.223139 1.000000 0.256047
0.386818 1.000000 0.249173
0.557030 1.000000 0.245851
0.728574 1.000000 0.242190
0.901007 1.000000 0.238098
0.967697 1.000000 0.236385
0.000000 0.110237 0.531555
0.000000 0.110237 0.531555
0.057856 0.106620 0.529995
0.223565 0.101594 0.523828
0.392231 0.097323 0.517214
0.558619 0.095308 0.507065
0.719461 0.096094 0.495275
0.876492 0.098699 0.484605
0.936008 0.100166 0.480814
0.000000 0.110237 0.531555
0.000000 0.110237 0.531555
0.057856 0.106620 0.529995
0.223565 0.101594 0.523828
0.392231 0.097323 0.517214
0.558619 0.095308 0.507065
0.719461 0.096094 0.495275
0.876492 0.098699 0.484605
0.936008 0.100166 0.480814
0.000000 0.253284 0.511802
0.000000 0.253284 0.511802
0.050987 0.251380 0.511308
0.216808 0.247971 0.506901
0.386872 0.244949 0.499146
0.556101 0.243313 0.489205
0.720953 0.243701 0.478707
0.882322 0.245455 0.469574
0.943601 0.246470 0.466442
0.000000 0.411693 0.488631
0.000000 0.411693 0.488631
0.041200 0.410911 0.486988
0.205075 0.408970 0.482426
0.376697 0.405932 0.475766
0.549892 0.403238 0.466806
0.719958 0.401730 0.458442
0.886896 0.401096 0.451708
0.950418 0.401057 0.449572
0.000000 0.575223 0.465114
0.000000 0.575223 0.465114
0.032745 0.574862 0.462688
0.195065 0.573278 0.456847
0.365744 0.569957 0.450008
0.542921 0.564951 0.442925
0.718931 0.560135 0.437590
0.891933 0.556057 0.433964
0.957783 0.554716 0.433014
0.000000 0.734964 0.445719
0.000000 0.734964 0.445719
0.035960 0.734773 0.442926
0.195607 0.732741 0.437021
0.363563 0.728955 0.430119
0.539516 0.723137 0.423780
0.718432 0.716522 0.420110
0.894671 0.710764 0.419524
0.961690 0.708903 0.419682
0.000000 0.888222 0.435358
0.000000 0.888222 0.435358
0.049399 0.888298 0.432069
0.205765 0.886692 0.425623
0.370073 0.883798 0.417923
0.543280 0.878851 0.411784
0.720630 0.873204 0.407445
0.898571 0.867844 0.405838
0.966356 0.866086 0.406777
0.000000 1.000000 0.432054
0.000000 1.000000 0.432054
0.070275 1.000000 0.427904
0.222299 1.000000 0.420067
0.381876 1.000000 0.410701
0.551247 1.000000 0.403887
0.725355 1.000000 0.399553
0.900410 1.000000 0.394815
0.968129 1.000000 0.392862
0.000000 1.000000 0.432099
0.000000 1.000000 0.432099
0.072854 1.000000 0.427847
0.224001 1.000000 0.419832
0.382780 1.000000 0.410249
0.551716 1.000000 0.403298
0.725560 1.000000 0.398865
0.900266 1.000000 0.393959
0.967825 1.000000 0.391918
0.000000 0.108883 0.691109
0.000000 0.108883 0.691109
0.057345 0.105793 0.690566
0.220591 0.101697 0.684906
0.386774 0.098330 0.678833
0.554868 0.095616 0.672444
0.718871 0.095547 0.661319
0.876092 0.098503 0.647763
0.935691 0.100092 0.642860
0.000000 0.108883 0.691109
0.000000 0.108883 0.691109
0.057345 0.105793 0.690566
0.220591 0.101697 0.684906
0.386774 0.098330 0.678833
0.554868 0.095616 0.672444
0.718871 0.095547 0.661319
0.876092 0.098503 0.647763
0.935691 0.100092 0.642860
0.000000 0.252054 0.673052
0.000000 0.252054 0.673052
0.051997 0.250508 0.674549
0.215325 0.247763 0.672314
0.383002 0.245498 0.665176
0.552894 0.243469 0.657933
0.720163 0.243188 0.647335
0.881822 0.245142 0.635394
0.943221 0.246221 0.631180
0.000000 0.410053 0.651946
0.000000 0.410053 0.651946
0.044225 0.409577 0.652277
0.205619 0.408060 0.651095
0.374832 0.405501 0.646724
0.547587 0.402737 0.639337
0.719283 0.400757 0.630064
0.886615 0.400164 0.620605
0.950298 0.400127 0.617420
0.000000 0.572945 0.630994
0.000000 0.572945 0.630994
0.037332 0.572763 0.630510
0.197596 0.571362 0.628043
0.366209 0.568181 0.624671
0.542025 0.563229 0.619510
0.719139 0.558144 0.612299
0.892857 0.554042 0.605839
0.958975 0.552706 0.603783
0.000000 0.733881 0.612919
0.000000 0.733881 0.612919
0.036029 0.733476 0.611897
0.195627 0.731057 0.608846
0.363503 0.726923 0.604831
0.538712 0.721151 0.599758
0.719653 0.714111 0.594236
0.898591 0.707927 0.590164
0.966648 0.705914 0.588965
0.000000 0.886875 0.600115
0.000000 0.886875 0.600115
0.050134 0.886804 0.598558
0.206349 0.884967 0.594883
0.370473 0.881882 0.589985
0.541571 0.877644 0.583766
0.719810 0.872006 0.577806
0.900219 0.866260 0.574217
0.969000 0.864413 0.573764
0.000000 1.000000 0.594054
0.000000 1.000000 0.594054
0.071317 1.000000 0.591594
0.223087 1.000000 0.586444
0.382375 1.000000 0.579794
0.548262 1.000000 0.571544
0.722214 1.000000 0.564561
0.899531 1.000000 0.559025
0.968118 1.000000 0.556755
0.000000 1.000000 0.593697
0.000000 1.000000 0.593697
0.073948 1.000000 0.591129
0.224852 1.000000 0.585790
0.383352 1.000000 0.578910
0.548526 1.000000 0.570377
0.722053 1.000000 0.563170
0.899043 1.000000 0.557421
0.967473 1.000000 0.555043
0.000000 0.108089 0.846504
0.000000 0.108089 0.846504
0.057215 0.105517 0.846985
0.217984 0.102345 0.841844
0.381671 0.099874 0.836326
0.547266 0.098019 0.830524
0.714323 0.096666 0.824525
0.875684 0.098336 0.812548
0.935371 0.100043 0.806525
0.000000 0.108089 0.846504
0.000000 0.108089 0.846504
0.057215 0.105517 0.846985
0.217984 0.102345 0.841844
0.381671 0.099874 0.836326
0.547266 0.098019 0.830524
0.714323 0.096666 0.824525
0.875684 0.098336 0.812548
0.935371 0.100043 0.806525
0.000000 0.251323 0.830190
0.000000 0.251323 0.830190
0.053436 0.250135 0.833691
0.214257 0.248045 0.833658
0.379534 0.246529 0.827151
0.547026 0.245210 0.820573
0.716290 0.243955 0.814021
0.881346 0.244807 0.802896
0.942871 0.245945 0.797593
0.000000 0.408854 0.811197
0.000000 0.408854 0.811197
0.047735 0.408684 0.813513
0.206634 0.407580 0.815754
0.373425 0.405488 0.813703
0.543884 0.403276 0.807063
0.716452 0.400651 0.800692
0.886396 0.399149 0.791241
0.950246 0.399108 0.787000
0.000000 0.570764 0.792651
0.000000 0.570764 0.792651
0.043304 0.570808 0.794161
0.201176 0.569663 0.795198
0.367378 0.566697 0.795426
0.540859 0.562041 0.792686
0.717618 0.556772 0.787144
0.892996 0.552188 0.779747
0.959248 0.550898 0.776608
0.000000 0.730642 0.777522
0.000000 0.730642 0.777522
0.043636 0.730290 0.778504
0.201166 0.728040 0.778869
0.366901 0.724122 0.778314
0.539910 0.718619 0.776724
0.719333 0.711846 0.773030
0.899243 0.705617 0.766919
0.967523 0.703679 0.764566
0.000000 0.885496 0.766542
0.000000 0.885496 0.766542
0.050901 0.885282 0.766731
0.206953 0.883229 0.765844
0.370881 0.879968 0.763768
0.541748 0.875598 0.760383
0.719080 0.870236 0.755579
0.901410 0.864285 0.749967
0.971193 0.862354 0.748104
0.000000 1.000000 0.757666
0.000000 1.000000 0.757666
0.072357 1.000000 0.756910
0.223861 1.000000 0.754464
0.382847 1.000000 0.750548
0.548397 1.000000 0.745043
0.720043 1.000000 0.737836
0.898134 1.000000 0.730534
0.967595 1.000000 0.727941
0.000000 1.000000 0.756899
0.000000 1.000000 0.756899
0.075037 1.000000 0.756029
0.225685 1.000000 0.753383
0.383891 1.000000 0.749223
0.548729 1.000000 0.743415
0.719704 1.000000 0.735818
0.897316 1.000000 0.728147
0.966617 1.000000 0.725418
0.000000 0.107864 0.997294
0.000000 0.107864 0.997294
0.057481 0.105801 0.998800
0.215764 0.103545 0.994192
0.376945 0.101960 0.989240
0.540033 0.100955 0.984039
0.704591 0.100411 0.978673
0.870397 0.100192 0.973225
0.934673 0.100165 0.971120
0.000000 0.107864 0.997294
0.000000 0.107864 0.997294
0.057481 0.105801 0.998800
0.215764 0.103545 0.994192
0.376945 0.101960 0.989240
0.540033 0.100955 0.984039
0.704591 0.100411 0.978673
0.870397 0.100192 0.973225
0.934673 0.100165 0.971120
0.000000 0.251099 0.982767
0.000000 0.251099 0.982767
0.055318 0.250271 0.988277
0.213622 0.248824 0.990472
0.376492 0.248046 0.984611
0.541576 0.247426 0.978712
0.708440 0.246828 0.972871
0.876866 0.246106 0.967180
0.942238 0.245761 0.965043
0.000000 0.408104 0.965929
0.000000 0.408104 0.965929
0.051740 0.408240 0.970240
0.208135 0.407536 0.975940
0.372495 0.405898 0.976236
0.540651 0.404226 0.970358
0.710926 0.402096 0.964782
0.883103 0.399353 0.959606
0.950012 0.398100 0.957734
0.000000 0.568983 0.949827
0.000000 0.568983 0.949827
0.049828 0.569238 0.953350
0.205300 0.568335 0.957928
0.369082 0.565569 0.961792
0.540200 0.561227 0.961487
0.714667 0.556449 0.956740
0.890946 0.551226 0.952296
0.959371 0.549122 0.950648
0.000000 0.727416 0.937371
0.000000 0.727416 0.937371
0.052998 0.727143 0.940414
0.208106 0.725166 0.944301
0.371340 0.721574 0.947316
0.541782 0.716448 0.949317
0.718680 0.710205 0.947951
0.898096 0.704014 0.943419
0.967651 0.701666 0.941667
0.000000 0.881536 0.929320
0.000000 0.881536 0.929320
0.061359 0.881348 0.931531
0.215209 0.879638 0.933995
0.376859 0.876775 0.935312
0.545388 0.872855 0.935340
0.720325 0.867997 0.933957
0.900969 0.862547 0.930063
0.971252 0.860579 0.927867
0.000000 1.000000 0.922575
0.000000 1.000000 0.922575
0.073391 1.000000 0.923532
0.224616 1.000000 0.923803
0.383286 1.000000 0.922634
0.548485 1.000000 0.919887
0.719746 1.000000 0.915440
0.896767 1.000000 0.909175
0.966553 1.000000 0.906248
0.000580 1.000000 0.921392
0.000580 1.000000 0.921392
0.076115 1.000000 0.922228
0.226493 1.000000 0.922287
0.384390 1.000000 0.920858
0.548877 1.000000 0.917786
0.719453 1.000000 0.912915
0.895765 1.000000 0.906080
0.965257 1.000000 0.902880
0.000000 0.107986 1.000000
0.000000 0.107986 1.000000
0.057574 0.106054 1.000000
0.215195 0.104009 1.000000
0.375704 0.102635 1.000000
0.538114 0.101838 1.000000
0.701992 0.101498 1.000000
0.867117 0.101479 0.997216
0.931132 0.101526 0.995511
0.000000 0.107986 1.000000
0.000000 0.107986 1.000000
0.057574 0.106054 1.000000
0.215195 0.104009 1.000000
0.375704 0.102635 1.000000
0.538114 0.101838 1.000000
0.701992 0.101498 1.000000
0.867117 0.101479 0.997216
0.931132 0.101526 0.995511
0.000000 0.251124 1.000000
0.000000 0.251124 1.000000
0.055900 0.250379 1.000000
0.213518 0.249076 1.000000
0.375729 0.248486 0.997132
0.540149 0.248052 0.992832
0.706346 0.247637 0.988611
0.874105 0.247094 0.984555
0.939220 0.246817 0.983054
0.000000 0.407949 0.993822
0.000000 0.407949 0.993822
0.052912 0.408152 0.991500
0.208601 0.407537 0.987608
0.372269 0.406029 0.983782
0.539769 0.404532 0.980128
0.709387 0.402573 0.976803
0.880910 0.399992 0.973901
0.947566 0.398800 0.972912
0.000000 0.568557 0.980601
0.000000 0.568557 0.980601
0.051660 0.568870 0.978763
0.206422 0.568058 0.975795
0.369471 0.565400 0.973184
0.539884 0.561197 0.970968
0.713704 0.556581 0.969117
0.889334 0.551520 0.967594
0.957508 0.549479 0.967079
0.000000 0.726633 0.971106
0.000000 0.726633 0.971106
0.055565 0.726403 0.970088
0.209946 0.724546 0.968493
0.372434 0.721087 0.967142
0.542120 0.716098 0.965989
0.718311 0.710003 0.964967
0.897080 0.703982 0.964007
0.966384 0.701702 0.963640
0.000000 0.880446 0.966019
0.000000 0.880446 0.966019
0.064638 0.880291 0.965482
0.217751 0.878725 0.964555
0.378654 0.876007 0.963648
0.546432 0.872234 0.962696
0.720619 0.867524 0.961625
0.900551 0.862252 0.960353
0.970576 0.860369 0.959789
0.000000 1.000000 0.962699
0.000000 1.000000 0.962699
0.075463 1.000000 0.962184
0.226272 1.000000 0.961090
0.384524 1.000000 0.959764
0.549302 1.000000 0.958129
0.720138 1.000000 0.956101
0.896726 1.000000 0.953590
0.966343 1.000000 0.952472
0.000942 1.000000 0.962311
0.000942 1.000000 0.962311
0.076354 1.000000 0.961815
0.226644 1.000000 0.960709
0.384454 1.000000 0.959328
0.548853 1.000000 0.957572
0.719337 1.000000 0.955323
0.895544 1.000000 0.952439
0.964991 1.000000 0.951123
