resources/luts/deep-forest.cube
# Generated by FotoReady. Released under the project GPL-3.0-or-later license.
TITLE "deep-forest"
LUT_3D_SIZE 5
DOMAIN_MIN 0 0 0
DOMAIN_MAX 1 1 1
0.000000 0.117307 0.042593
0.060858 0.112220 0.038451
0.395795 0.101118 0.027225
0.719589 0.098367 0.019491
0.934967 0.101081 0.016690
0.000000 0.258647 0.020514
0.052082 0.255789 0.015877
0.387948 0.248347 0.005897
0.714490 0.247278 0.000647
0.932491 0.250120 0.000562
0.000000 0.577030 0.000000
0.037742 0.576047 0.000000
0.370280 0.571751 0.000000
0.708245 0.565795 0.000000
0.935829 0.562820 0.000000
0.000000 0.891900 0.000000
0.052268 0.890466 0.000000
0.381413 0.882550 0.000000
0.720615 0.874377 0.000000
0.956229 0.868803 0.000000
0.000000 1.000000 0.000000
0.075860 1.000000 0.000000
0.400228 1.000000 0.000000
0.733117 1.000000 0.000000
0.966189 1.000000 0.000000
0.000000 0.114547 0.203436
0.059939 0.109848 0.199877
0.395893 0.099403 0.184041
0.720557 0.097324 0.170803
0.936616 0.100404 0.164189
0.000000 0.257058 0.180420
0.050381 0.254494 0.176053
0.390089 0.246692 0.160640
0.721392 0.245022 0.149624
0.942810 0.247336 0.145120
0.000000 0.576464 0.133950
0.034325 0.576442 0.128088
0.368964 0.571674 0.112658
0.711954 0.564459 0.110107
0.943172 0.560672 0.114722
0.000000 0.890776 0.113521
0.048048 0.891162 0.106835
0.377346 0.883664 0.096869
0.720933 0.874408 0.090788
0.959847 0.868284 0.096676
0.000000 1.000000 0.116340
0.070687 1.000000 0.108785
0.393898 1.000000 0.099448
0.731104 1.000000 0.093914
0.967123 1.000000 0.089206
0.000000 0.110237 0.531555
0.057856 0.106620 0.529995
0.392231 0.097323 0.517214
0.719461 0.096094 0.495275
0.936008 0.100166 0.480814
0.000000 0.253284 0.511802
0.050987 0.251380 0.511308
0.386872 0.244949 0.499146
0.720953 0.243701 0.478707
0.943601 0.246470 0.466442
0.000000 0.575223 0.465114
0.032745 0.574862 0.462688
0.365744 0.569957 0.450008
0.718931 0.560135 0.437590
0.957783 0.554716 0.433014
0.000000 0.888222 0.435358
0.049399 0.888298 0.432069
0.370073 0.883798 0.417923
0.720630 0.873204 0.407445
0.966356 0.866086 0.406777
0.000000 1.000000 0.432099
0.072854 1.000000 0.427847
0.382780 1.000000 0.410249
0.725560 1.000000 0.398865
0.967825 1.000000 0.391918
0.000000 0.108089 0.846504
0.057215 0.105517 0.846985
0.381671 0.099874 0.836326
0.714323 0.096666 0.824525
0.935371 0.100043 0.806525
0.000000 0.251323 0.830190
0.053436 0.250135 0.833691
0.379534 0.246529 0.827151
0.716290 0.243955 0.814021
0.942871 0.245945 0.797593
0.000000 0.570764 0.792651
0.043304 0.570808 0.794161
0.367378 0.566697 0.795426
0.717618 0.556772 0.787144
0.959248 0.550898 0.776608
0.000000 0.885496 0.766542
0.050901 0.885282 0.766731
0.370881 0.879968 0.763768
0.719080 0.870236 0.755579
0.971193 0.862354 0.748104
0.000000 1.000000 0.756899
0.075037 1.000000 0.756029
0.383891 1.000000 0.749223
0.719704 1.000000 0.735818
0.966617 1.000000 0.725418
0.000000 0.107986 1.000000
0.057574 0.106054 1.000000
0.375704 0.102635 1.000000
0.701992 0.101498 1.000000
0.931132 0.101526 0.995511
0.000000 0.251124 1.000000
0.055900 0.250379 1.000000
0.375729 0.248486 0.997132
0.706346 0.247637 0.988611
0.939220 0.246817 0.983054
0.000000 0.568557 0.980601
0.051660 0.568870 0.978763
0.369471 0.565400 0.973184
0.713704 0.556581 0.969117
0.957508 0.549479 0.967079
0.000000 0.880446 0.966019
0.064638 0.880291 0.965482
0.378654 0.876007 0.963648
0.720619 0.867524 0.961625
0.970576 0.860369 0.959789
0.000942 1.000000 0.962311
0.076354 1.000000 0.961815
0.384454 1.000000 0.959328
0.719337 1.000000 0.955323
0.964991 1.000000 0.951123
