resources/luts/hard-mono.cube
# Generated by FotoReady. Released under the project GPL-3.0-or-later license.
TITLE "hard-mono"
LUT_3D_SIZE 9
DOMAIN_MIN 0 0 0
DOMAIN_MAX 1 1 1
0.000000 0.000000 0.000000
0.000000 0.000000 0.000000
0.013286 0.013286 0.013286
0.051139 0.051139 0.051139
0.090965 0.090965 0.090965
0.135508 0.135508 0.135508
0.183230 0.183230 0.183230
0.212600 0.212600 0.212600
0.212600 0.212600 0.212600
0.000000 0.000000 0.000000
0.000000 0.000000 0.000000
0.013286 0.013286 0.013286
0.051139 0.051139 0.051139
0.090965 0.090965 0.090965
0.135508 0.135508 0.135508
0.183230 0.183230 0.183230
0.212600 0.212600 0.212600
0.212600 0.212600 0.212600
0.050850 0.050850 0.050850
0.050850 0.050850 0.050850
0.063571 0.063571 0.063571
0.101933 0.101933 0.101933
0.143642 0.143642 0.143642
0.188547 0.188547 0.188547
0.236604 0.236604 0.236604
0.265583 0.265583 0.265583
0.265583 0.265583 0.265583
0.203446 0.203446 0.203446
0.203446 0.203446 0.203446
0.217522 0.217522 0.217522
0.256126 0.256126 0.256126
0.295781 0.295781 0.295781
0.338614 0.338614 0.338614
0.384587 0.384587 0.384587
0.411253 0.411253 0.411253
0.411253 0.411253 0.411253
0.353859 0.353859 0.353859
0.353859 0.353859 0.353859
0.369379 0.369379 0.369379
0.409384 0.409384 0.409384
0.449976 0.449976 0.449976
0.490708 0.490708 0.490708
0.534568 0.534568 0.534568
0.558988 0.558988 0.558988
0.558988 0.558988 0.558988
0.501064 0.501064 0.501064
0.501064 0.501064 0.501064
0.518110 0.518110 0.518110
0.559527 0.559527 0.559527
0.601550 0.601550 0.601550
0.643935 0.643935 0.643935
0.685665 0.685665 0.685665
0.707924 0.707924 0.707924
0.707924 0.707924 0.707924
0.644629 0.644629 0.644629
0.644629 0.644629 0.644629
0.663280 0.663280 0.663280
0.706116 0.706116 0.706116
0.749580 0.749580 0.749580
0.793416 0.793416 0.793416
0.837525 0.837525 0.837525
0.857714 0.857714 0.857714
0.857714 0.857714 0.857714
0.715200 0.715200 0.715200
0.715200 0.715200 0.715200
0.734315 0.734315 0.734315
0.776902 0.776902 0.776902
0.820092 0.820092 0.820092
0.863633 0.863633 0.863633
0.907424 0.907424 0.907424
0.927800 0.927800 0.927800
0.927800 0.927800 0.927800
0.715200 0.715200 0.715200
0.715200 0.715200 0.715200
0.734315 0.734315 0.734315
0.776902 0.776902 0.776902
0.820092 0.820092 0.820092
0.863633 0.863633 0.863633
0.907424 0.907424 0.907424
0.927800 0.927800 0.927800
0.927800 0.927800 0.927800
0.000000 0.000000 0.000000
0.000000 0.000000 0.000000
0.013286 0.013286 0.013286
0.051139 0.051139 0.051139
0.090965 0.090965 0.090965
0.135508 0.135508 0.135508
0.183230 0.183230 0.183230
0.212600 0.212600 0.212600
0.212600 0.212600 0.212600
0.000000 0.000000 0.000000
0.000000 0.000000 0.000000
0.013286 0.013286 0.013286
0.051139 0.051139 0.051139
0.090965 0.090965 0.090965
0.135508 0.135508 0.135508
0.183230 0.183230 0.183230
0.212600 0.212600 0.212600
0.212600 0.212600 0.212600
0.050850 0.050850 0.050850
0.050850 0.050850 0.050850
0.063571 0.063571 0.063571
0.101933 0.101933 0.101933
0.143642 0.143642 0.143642
0.188547 0.188547 0.188547
0.236604 0.236604 0.236604
0.265583 0.265583 0.265583
0.265583 0.265583 0.265583
0.203446 0.203446 0.203446
0.203446 0.203446 0.203446
0.217522 0.217522 0.217522
0.256126 0.256126 0.256126
0.295781 0.295781 0.295781
0.338614 0.338614 0.338614
0.384587 0.384587 0.384587
0.411253 0.411253 0.411253
0.411253 0.411253 0.411253
0.353859 0.353859 0.353859
0.353859 0.353859 0.353859
0.369379 0.369379 0.369379
0.409384 0.409384 0.409384
0.449976 0.449976 0.449976
0.490708 0.490708 0.490708
0.534568 0.534568 0.534568
0.558988 0.558988 0.558988
0.558988 0.558988 0.558988
0.501064 0.501064 0.501064
0.501064 0.501064 0.501064
0.518110 0.518110 0.518110
0.559527 0.559527 0.559527
0.601550 0.601550 0.601550
0.643935 0.643935 0.643935
0.685665 0.685665 0.685665
0.707924 0.707924 0.707924
0.707924 0.707924 0.707924
0.644629 0.644629 0.644629
0.644629 0.644629 0.644629
0.663280 0.663280 0.663280
0.706116 0.706116 0.706116
0.749580 0.749580 0.749580
0.793416 0.793416 0.793416
0.837525 0.837525 0.837525
0.857714 0.857714 0.857714
0.857714 0.857714 0.857714
0.715200 0.715200 0.715200
0.715200 0.715200 0.715200
0.734315 0.734315 0.734315
0.776902 0.776902 0.776902
0.820092 0.820092 0.820092
0.863633 0.863633 0.863633
0.907424 0.907424 0.907424
0.927800 0.927800 0.927800
0.927800 0.927800 0.927800
0.715200 0.715200 0.715200
0.715200 0.715200 0.715200
0.734315 0.734315 0.734315
0.776902 0.776902 0.776902
0.820092 0.820092 0.820092
0.863633 0.863633 0.863633
0.907424 0.907424 0.907424
0.927800 0.927800 0.927800
0.927800 0.927800 0.927800
0.005660 0.005660 0.005660
0.005660 0.005660 0.005660
0.015427 0.015427 0.015427
0.053683 0.053683 0.053683
0.095323 0.095323 0.095323
0.140200 0.140200 0.140200
0.188268 0.188268 0.188268
0.217786 0.217786 0.217786
0.217786 0.217786 0.217786
0.005660 0.005660 0.005660
0.005660 0.005660 0.005660
0.015427 0.015427 0.015427
0.053683 0.053683 0.053683
0.095323 0.095323 0.095323
0.140200 0.140200 0.140200
0.188268 0.188268 0.188268
0.217786 0.217786 0.217786
0.217786 0.217786 0.217786
0.054829 0.054829 0.054829
0.054829 0.054829 0.054829
0.067638 0.067638 0.067638
0.105839 0.105839 0.105839
0.147373 0.147373 0.147373
0.192092 0.192092 0.192092
0.239950 0.239950 0.239950
0.268753 0.268753 0.268753
0.268753 0.268753 0.268753
0.207934 0.207934 0.207934
0.207934 0.207934 0.207934
0.222842 0.222842 0.222842
0.261042 0.261042 0.261042
0.300520 0.300520 0.300520
0.343165 0.343165 0.343165
0.388937 0.388937 0.388937
0.415435 0.415435 0.415435
0.415435 0.415435 0.415435
0.358897 0.358897 0.358897
0.358897 0.358897 0.358897
0.376103 0.376103 0.376103
0.415690 0.415690 0.415690
0.455839 0.455839 0.455839
0.496380 0.496380 0.496380
0.540037 0.540037 0.540037
0.564299 0.564299 0.564299
0.564299 0.564299 0.564299
0.506691 0.506691 0.506691
0.506691 0.506691 0.506691
0.526385 0.526385 0.526385
0.567370 0.567370 0.567370
0.608936 0.608936 0.608936
0.650839 0.650839 0.650839
0.692363 0.692363 0.692363
0.714475 0.714475 0.714475
0.714475 0.714475 0.714475
0.650882 0.650882 0.650882
0.650882 0.650882 0.650882
0.673252 0.673252 0.673252
0.715643 0.715643 0.715643
0.758634 0.758634 0.758634
0.801975 0.801975 0.801975
0.845565 0.845565 0.845565
0.865618 0.865618 0.865618
0.865618 0.865618 0.865618
0.721656 0.721656 0.721656
0.721656 0.721656 0.721656
0.745085 0.745085 0.745085
0.787205 0.787205 0.787205
0.829901 0.829901 0.829901
0.872924 0.872924 0.872924
0.916173 0.916173 0.916173
0.936256 0.936256 0.936256
0.936256 0.936256 0.936256
0.721656 0.721656 0.721656
0.721656 0.721656 0.721656
0.745085 0.745085 0.745085
0.787205 0.787205 0.787205
0.829901 0.829901 0.829901
0.872924 0.872924 0.872924
0.916173 0.916173 0.916173
0.936256 0.936256 0.936256
0.936256 0.936256 0.936256
0.021841 0.021841 0.021841
0.021841 0.021841 0.021841
0.032122 0.032122 0.032122
0.065726 0.065726 0.065726
0.108051 0.108051 0.108051
0.153616 0.153616 0.153616
0.202378 0.202378 0.202378
0.232181 0.232181 0.232181
0.232181 0.232181 0.232181
0.021841 0.021841 0.021841
0.021841 0.021841 0.021841
0.032122 0.032122 0.032122
0.065726 0.065726 0.065726
0.108051 0.108051 0.108051
0.153616 0.153616 0.153616
0.202378 0.202378 0.202378
0.232181 0.232181 0.232181
0.232181 0.232181 0.232181
0.066680 0.066680 0.066680
0.066680 0.066680 0.066680
0.079817 0.079817 0.079817
0.118018 0.118018 0.118018
0.160223 0.160223 0.160223
0.205618 0.205618 0.205618
0.254157 0.254157 0.254157
0.283230 0.283230 0.283230
0.283230 0.283230 0.283230
0.220256 0.220256 0.220256
0.220256 0.220256 0.220256
0.235021 0.235021 0.235021
0.273222 0.273222 0.273222
0.311983 0.311983 0.311983
0.353907 0.353907 0.353907
0.398954 0.398954 0.398954
0.424942 0.424942 0.424942
0.424942 0.424942 0.424942
0.371898 0.371898 0.371898
0.371898 0.371898 0.371898
0.388953 0.388953 0.388953
0.430597 0.430597 0.430597
0.469359 0.469359 0.469359
0.509179 0.509179 0.509179
0.552110 0.552110 0.552110
0.575886 0.575886 0.575886
0.575886 0.575886 0.575886
0.520376 0.520376 0.520376
0.520376 0.520376 0.520376
0.539911 0.539911 0.539911
0.585027 0.585027 0.585027
0.625206 0.625206 0.625206
0.665712 0.665712 0.665712
0.706511 0.706511 0.706511
0.728158 0.728158 0.728158
0.728158 0.728158 0.728158
0.665255 0.665255 0.665255
0.665255 0.665255 0.665255
0.687458 0.687458 0.687458
0.736066 0.736066 0.736066
0.777671 0.777671 0.777671
0.819614 0.819614 0.819614
0.861798 0.861798 0.861798
0.881410 0.881410 0.881410
0.881410 0.881410 0.881410
0.736051 0.736051 0.736051
0.736051 0.736051 0.736051
0.759302 0.759302 0.759302
0.808645 0.808645 0.808645
0.849932 0.849932 0.849932
0.891534 0.891534 0.891534
0.932926 0.932926 0.932926
0.949646 0.949646 0.949646
0.949646 0.949646 0.949646
0.736051 0.736051 0.736051
0.736051 0.736051 0.736051
0.759302 0.759302 0.759302
0.808645 0.808645 0.808645
0.849932 0.849932 0.849932
0.891534 0.891534 0.891534
0.932926 0.932926 0.932926
0.949646 0.949646 0.949646
0.949646 0.949646 0.949646
0.036174 0.036174 0.036174
0.036174 0.036174 0.036174
0.047115 0.047115 0.047115
0.081379 0.081379 0.081379
0.120962 0.120962 0.120962
0.167227 0.167227 0.167227
0.216692 0.216692 0.216692
0.246780 0.246780 0.246780
0.246780 0.246780 0.246780
0.036174 0.036174 0.036174
0.036174 0.036174 0.036174
0.047115 0.047115 0.047115
0.081379 0.081379 0.081379
0.120962 0.120962 0.120962
0.167227 0.167227 0.167227
0.216692 0.216692 0.216692
0.246780 0.246780 0.246780
0.246780 0.246780 0.246780
0.080048 0.080048 0.080048
0.080048 0.080048 0.080048
0.093520 0.093520 0.093520
0.133107 0.133107 0.133107
0.173255 0.173255 0.173255
0.219336 0.219336 0.219336
0.268564 0.268564 0.268564
0.297909 0.297909 0.297909
0.297909 0.297909 0.297909
0.231544 0.231544 0.231544
0.231544 0.231544 0.231544
0.246667 0.246667 0.246667
0.285583 0.285583 0.285583
0.324345 0.324345 0.324345
0.366954 0.366954 0.366954
0.412690 0.412690 0.412690
0.438943 0.438943 0.438943
0.438943 0.438943 0.438943
0.385087 0.385087 0.385087
0.385087 0.385087 0.385087
0.401985 0.401985 0.401985
0.442959 0.442959 0.442959
0.481721 0.481721 0.481721
0.520809 0.520809 0.520809
0.563004 0.563004 0.563004
0.586289 0.586289 0.586289
0.586289 0.586289 0.586289
0.534258 0.534258 0.534258
0.534258 0.534258 0.534258
0.553629 0.553629 0.553629
0.598074 0.598074 0.598074
0.640357 0.640357 0.640357
0.679445 0.679445 0.679445
0.719508 0.719508 0.719508
0.740688 0.740688 0.740688
0.740688 0.740688 0.740688
0.679835 0.679835 0.679835
0.679835 0.679835 0.679835
0.701866 0.701866 0.701866
0.749803 0.749803 0.749803
0.795627 0.795627 0.795627
0.836152 0.836152 0.836152
0.876910 0.876910 0.876910
0.896078 0.896078 0.896078
0.896078 0.896078 0.896078
0.750650 0.750650 0.750650
0.750650 0.750650 0.750650
0.773716 0.773716 0.773716
0.822375 0.822375 0.822375
0.868882 0.868882 0.868882
0.909042 0.909042 0.909042
0.945722 0.945722 0.945722
0.961518 0.961518 0.961518
0.961518 0.961518 0.961518
0.750650 0.750650 0.750650
0.750650 0.750650 0.750650
0.773716 0.773716 0.773716
0.822375 0.822375 0.822375
0.868882 0.868882 0.868882
0.909042 0.909042 0.909042
0.945722 0.945722 0.945722
0.961518 0.961518 0.961518
0.961518 0.961518 0.961518
0.048506 0.048506 0.048506
0.048506 0.048506 0.048506
0.060121 0.060121 0.060121
0.098550 0.098550 0.098550
0.139574 0.139574 0.139574
0.180951 0.180951 0.180951
0.231125 0.231125 0.231125
0.261497 0.261497 0.261497
0.261497 0.261497 0.261497
0.048506 0.048506 0.048506
0.048506 0.048506 0.048506
0.060121 0.060121 0.060121
0.098550 0.098550 0.098550
0.139574 0.139574 0.139574
0.180951 0.180951 0.180951
0.231125 0.231125 0.231125
0.261497 0.261497 0.261497
0.261497 0.261497 0.261497
0.094897 0.094897 0.094897
0.094897 0.094897 0.094897
0.108711 0.108711 0.108711
0.149696 0.149696 0.149696
0.191262 0.191262 0.191262
0.233165 0.233165 0.233165
0.283089 0.283089 0.283089
0.312705 0.312705 0.312705
0.312705 0.312705 0.312705
0.244297 0.244297 0.244297
0.244297 0.244297 0.244297
0.259784 0.259784 0.259784
0.299422 0.299422 0.299422
0.339601 0.339601 0.339601
0.380107 0.380107 0.380107
0.426539 0.426539 0.426539
0.453055 0.453055 0.453055
0.453055 0.453055 0.453055
0.395713 0.395713 0.395713
0.395713 0.395713 0.395713
0.412999 0.412999 0.412999
0.454694 0.454694 0.454694
0.494188 0.494188 0.494188
0.533276 0.533276 0.533276
0.576167 0.576167 0.576167
0.599707 0.599707 0.599707
0.599707 0.599707 0.599707
0.548256 0.548256 0.548256
0.548256 0.548256 0.548256
0.567458 0.567458 0.567458
0.611227 0.611227 0.611227
0.652824 0.652824 0.652824
0.691912 0.691912 0.691912
0.731233 0.731233 0.731233
0.751946 0.751946 0.751946
0.751946 0.751946 0.751946
0.694536 0.694536 0.694536
0.694536 0.694536 0.694536
0.716391 0.716391 0.716391
0.763651 0.763651 0.763651
0.808789 0.808789 0.808789
0.851447 0.851447 0.851447
0.890768 0.890768 0.890768
0.909492 0.909492 0.909492
0.909492 0.909492 0.909492
0.765367 0.765367 0.765367
0.765367 0.765367 0.765367
0.788245 0.788245 0.788245
0.836214 0.836214 0.836214
0.882021 0.882021 0.882021
0.925303 0.925303 0.925303
0.960730 0.960730 0.960730
0.975605 0.975605 0.975605
0.975605 0.975605 0.975605
0.765367 0.765367 0.765367
0.765367 0.765367 0.765367
0.788245 0.788245 0.788245
0.836214 0.836214 0.836214
0.882021 0.882021 0.882021
0.925303 0.925303 0.925303
0.960730 0.960730 0.960730
0.975605 0.975605 0.975605
0.975605 0.975605 0.975605
0.061331 0.061331 0.061331
0.061331 0.061331 0.061331
0.075370 0.075370 0.075370
0.117229 0.117229 0.117229
0.159701 0.159701 0.159701
0.202540 0.202540 0.202540
0.245645 0.245645 0.245645
0.276299 0.276299 0.276299
0.276299 0.276299 0.276299
0.061331 0.061331 0.061331
0.061331 0.061331 0.061331
0.075370 0.075370 0.075370
0.117229 0.117229 0.117229
0.159701 0.159701 0.159701
0.202540 0.202540 0.202540
0.245645 0.245645 0.245645
0.276299 0.276299 0.276299
0.276299 0.276299 0.276299
0.111223 0.111223 0.111223
0.111223 0.111223 0.111223
0.125385 0.125385 0.125385
0.167775 0.167775 0.167775
0.210767 0.210767 0.210767
0.254107 0.254107 0.254107
0.297697 0.297697 0.297697
0.327581 0.327581 0.327581
0.327581 0.327581 0.327581
0.258514 0.258514 0.258514
0.258514 0.258514 0.258514
0.274371 0.274371 0.274371
0.314735 0.314735 0.314735
0.356340 0.356340 0.356340
0.398283 0.398283 0.398283
0.440467 0.440467 0.440467
0.467244 0.467244 0.467244
0.467244 0.467244 0.467244
0.407792 0.407792 0.407792
0.407792 0.407792 0.407792
0.425471 0.425471 0.425471
0.467892 0.467892 0.467892
0.508121 0.508121 0.508121
0.548647 0.548647 0.548647
0.589405 0.589405 0.589405
0.613199 0.613199 0.613199
0.613199 0.613199 0.613199
0.558179 0.558179 0.558179
0.558179 0.558179 0.558179
0.577797 0.577797 0.577797
0.622292 0.622292 0.622292
0.664625 0.664625 0.664625
0.704455 0.704455 0.704455
0.743776 0.743776 0.743776
0.764734 0.764734 0.764734
0.764734 0.764734 0.764734
0.709325 0.709325 0.709325
0.709325 0.709325 0.709325
0.730999 0.730999 0.730999
0.777579 0.777579 0.777579
0.822028 0.822028 0.822028
0.863990 0.863990 0.863990
0.903311 0.903311 0.903311
0.921592 0.921592 0.921592
0.921592 0.921592 0.921592
0.780169 0.780169 0.780169
0.780169 0.780169 0.780169
0.802853 0.802853 0.802853
0.850129 0.850129 0.850129
0.895233 0.895233 0.895233
0.937805 0.937805 0.937805
0.977688 0.977688 0.977688
0.991917 0.991917 0.991917
0.991917 0.991917 0.991917
0.780169 0.780169 0.780169
0.780169 0.780169 0.780169
0.802853 0.802853 0.802853
0.850129 0.850129 0.850129
0.895233 0.895233 0.895233
0.937805 0.937805 0.937805
0.977688 0.977688 0.977688
0.991917 0.991917 0.991917
0.991917 0.991917 0.991917
0.072200 0.072200 0.072200
0.072200 0.072200 0.072200
0.086530 0.086530 0.086530
0.129117 0.129117 0.129117
0.172307 0.172307 0.172307
0.215849 0.215849 0.215849
0.259640 0.259640 0.259640
0.284800 0.284800 0.284800
0.284800 0.284800 0.284800
0.072200 0.072200 0.072200
0.072200 0.072200 0.072200
0.086530 0.086530 0.086530
0.129117 0.129117 0.129117
0.172307 0.172307 0.172307
0.215849 0.215849 0.215849
0.259640 0.259640 0.259640
0.284800 0.284800 0.284800
0.284800 0.284800 0.284800
0.121668 0.121668 0.121668
0.121668 0.121668 0.121668
0.135977 0.135977 0.135977
0.179071 0.179071 0.179071
0.222755 0.222755 0.222755
0.266775 0.266775 0.266775
0.311026 0.311026 0.311026
0.335962 0.335962 0.335962
0.335962 0.335962 0.335962
0.267338 0.267338 0.267338
0.267338 0.267338 0.267338
0.283358 0.283358 0.283358
0.324023 0.324023 0.324023
0.366307 0.366307 0.366307
0.408915 0.408915 0.408915
0.451747 0.451747 0.451747
0.474916 0.474916 0.474916
0.474916 0.474916 0.474916
0.415074 0.415074 0.415074
0.415074 0.415074 0.415074
0.432930 0.432930 0.432930
0.475649 0.475649 0.475649
0.516172 0.516172 0.516172
0.557348 0.557348 0.557348
0.598740 0.598740 0.598740
0.620185 0.620185 0.620185
0.620185 0.620185 0.620185
0.564009 0.564009 0.564009
0.564009 0.564009 0.564009
0.583818 0.583818 0.583818
0.628610 0.628610 0.628610
0.671233 0.671233 0.671233
0.711346 0.711346 0.711346
0.751286 0.751286 0.751286
0.771063 0.771063 0.771063
0.771063 0.771063 0.771063
0.713800 0.713800 0.713800
0.713800 0.713800 0.713800
0.735677 0.735677 0.735677
0.782552 0.782552 0.782552
0.827288 0.827288 0.827288
0.869531 0.869531 0.869531
0.909123 0.909123 0.909123
0.927293 0.927293 0.927293
0.927293 0.927293 0.927293
0.787400 0.787400 0.787400
0.787400 0.787400 0.787400
0.809952 0.809952 0.809952
0.856794 0.856794 0.856794
0.901469 0.901469 0.901469
0.942894 0.942894 0.942894
0.981050 0.981050 0.981050
1.000000 1.000000 1.000000
1.000000 1.000000 1.000000
0.787400 0.787400 0.787400
0.787400 0.787400 0.787400
0.809952 0.809952 0.809952
0.856794 0.856794 0.856794
0.901469 0.901469 0.901469
0.942894 0.942894 0.942894
0.981050 0.981050 0.981050
1.000000 1.000000 1.000000
1.000000 1.000000 1.000000
0.072200 0.072200 0.072200
0.072200 0.072200 0.072200
0.086530 0.086530 0.086530
0.129117 0.129117 0.129117
0.172307 0.172307 0.172307
0.215849 0.215849 0.215849
0.259640 0.259640 0.259640
0.284800 0.284800 0.284800
0.284800 0.284800 0.284800
0.072200 0.072200 0.072200
0.072200 0.072200 0.072200
0.086530 0.086530 0.086530
0.129117 0.129117 0.129117
0.172307 0.172307 0.172307
0.215849 0.215849 0.215849
0.259640 0.259640 0.259640
0.284800 0.284800 0.284800
0.284800 0.284800 0.284800
0.121668 0.121668 0.121668
0.121668 0.121668 0.121668
0.135977 0.135977 0.135977
0.179071 0.179071 0.179071
0.222755 0.222755 0.222755
0.266775 0.266775 0.266775
0.311026 0.311026 0.311026
0.335962 0.335962 0.335962
0.335962 0.335962 0.335962
0.267338 0.267338 0.267338
0.267338 0.267338 0.267338
0.283358 0.283358 0.283358
0.324023 0.324023 0.324023
0.366307 0.366307 0.366307
0.408915 0.408915 0.408915
0.451747 0.451747 0.451747
0.474916 0.474916 0.474916
0.474916 0.474916 0.474916
0.415074 0.415074 0.415074
0.415074 0.415074 0.415074
0.432930 0.432930 0.432930
0.475649 0.475649 0.475649
0.516172 0.516172 0.516172
0.557348 0.557348 0.557348
0.598740 0.598740 0.598740
0.620185 0.620185 0.620185
0.620185 0.620185 0.620185
0.564009 0.564009 0.564009
0.564009 0.564009 0.564009
0.583818 0.583818 0.583818
0.628610 0.628610 0.628610
0.671233 0.671233 0.671233
0.711346 0.711346 0.711346
0.751286 0.751286 0.751286
0.771063 0.771063 0.771063
0.771063 0.771063 0.771063
0.713800 0.713800 0.713800
0.713800 0.713800 0.713800
0.735677 0.735677 0.735677
0.782552 0.782552 0.782552
0.827288 0.827288 0.827288
0.869531 0.869531 0.869531
0.909123 0.909123 0.909123
0.927293 0.927293 0.927293
0.927293 0.927293 0.927293
0.787400 0.787400 0.787400
0.787400 0.787400 0.787400
0.809952 0.809952 0.809952
0.856794 0.856794 0.856794
0.901469 0.901469 0.901469
0.942894 0.942894 0.942894
0.981050 0.981050 0.981050
1.000000 1.000000 1.000000
1.000000 1.000000 1.000000
0.787400 0.787400 0.787400
0.787400 0.787400 0.787400
0.809952 0.809952 0.809952
0.856794 0.856794 0.856794
0.901469 0.901469 0.901469
0.942894 0.942894 0.942894
0.981050 0.981050 0.981050
1.000000 1.000000 1.000000
1.000000 1.000000 1.000000
