resources/luts/hard-mono.cube
# Generated by FotoReady. Released under the project GPL-3.0-or-later license.
TITLE "hard-mono"
LUT_3D_SIZE 17
DOMAIN_MIN 0 0 0
DOMAIN_MAX 1 1 1
0.000000 0.000000 0.000000
0.000000 0.000000 0.000000
0.000000 0.000000 0.000000
0.000000 0.000000 0.000000
0.013286 0.013286 0.013286
0.032715 0.032715 0.032715
0.051139 0.051139 0.051139
0.069897 0.069897 0.069897
0.090965 0.090965 0.090965
0.112837 0.112837 0.112837
0.135508 0.135508 0.135508
0.158973 0.158973 0.158973
0.183230 0.183230 0.183230
0.208279 0.208279 0.208279
0.212600 0.212600 0.212600
0.212600 0.212600 0.212600
0.212600 0.212600 0.212600
0.000000 0.000000 0.000000
0.000000 0.000000 0.000000
0.000000 0.000000 0.000000
0.000000 0.000000 0.000000
0.013286 0.013286 0.013286
0.032715 0.032715 0.032715
0.051139 0.051139 0.051139
0.069897 0.069897 0.069897
0.090965 0.090965 0.090965
0.112837 0.112837 0.112837
0.135508 0.135508 0.135508
0.158973 0.158973 0.158973
0.183230 0.183230 0.183230
0.208279 0.208279 0.208279
0.212600 0.212600 0.212600
0.212600 0.212600 0.212600
0.212600 0.212600 0.212600
0.000000 0.000000 0.000000
0.000000 0.000000 0.000000
0.000000 0.000000 0.000000
0.000000 0.000000 0.000000
0.013286 0.013286 0.013286
0.032715 0.032715 0.032715
0.051139 0.051139 0.051139
0.069897 0.069897 0.069897
0.090965 0.090965 0.090965
0.112837 0.112837 0.112837
0.135508 0.135508 0.135508
0.158973 0.158973 0.158973
0.183230 0.183230 0.183230
0.208279 0.208279 0.208279
0.212600 0.212600 0.212600
0.212600 0.212600 0.212600
0.212600 0.212600 0.212600
0.000000 0.000000 0.000000
0.000000 0.000000 0.000000
0.000000 0.000000 0.000000
0.000000 0.000000 0.000000
0.013322 0.013322 0.013322
0.032749 0.032749 0.032749
0.051170 0.051170 0.051170
0.069934 0.069934 0.069934
0.091003 0.091003 0.091003
0.112876 0.112876 0.112876
0.135548 0.135548 0.135548
0.159014 0.159014 0.159014
0.183273 0.183273 0.183273
0.208323 0.208323 0.208323
0.212600 0.212600 0.212600
0.212600 0.212600 0.212600
0.212600 0.212600 0.212600
0.050850 0.050850 0.050850
0.050850 0.050850 0.050850
0.050850 0.050850 0.050850
0.050891 0.050891 0.050891
0.063571 0.063571 0.063571
0.082313 0.082313 0.082313
0.101933 0.101933 0.101933
0.122383 0.122383 0.122383
0.143642 0.143642 0.143642
0.165699 0.165699 0.165699
0.188547 0.188547 0.188547
0.212183 0.212183 0.212183
0.236604 0.236604 0.236604
0.261808 0.261808 0.261808
0.265583 0.265583 0.265583
0.265583 0.265583 0.265583
0.265583 0.265583 0.265583
0.127298 0.127298 0.127298
0.127298 0.127298 0.127298
0.127298 0.127298 0.127298
0.127338 0.127338 0.127338
0.140684 0.140684 0.140684
0.159542 0.159542 0.159542
0.178656 0.178656 0.178656
0.198596 0.198596 0.198596
0.219343 0.219343 0.219343
0.240885 0.240885 0.240885
0.263217 0.263217 0.263217
0.286335 0.286335 0.286335
0.310237 0.310237 0.310237
0.334921 0.334921 0.334921
0.338053 0.338053 0.338053
0.338053 0.338053 0.338053
0.338053 0.338053 0.338053
0.203446 0.203446 0.203446
0.203446 0.203446 0.203446
0.203446 0.203446 0.203446
0.203485 0.203485 0.203485
0.217522 0.217522 0.217522
0.236725 0.236725 0.236725
0.256126 0.256126 0.256126
0.275552 0.275552 0.275552
0.295781 0.295781 0.295781
0.316804 0.316804 0.316804
0.338614 0.338614 0.338614
0.361209 0.361209 0.361209
0.384587 0.384587 0.384587
0.408746 0.408746 0.408746
0.411253 0.411253 0.411253
0.411253 0.411253 0.411253
0.411253 0.411253 0.411253
0.279013 0.279013 0.279013
0.279013 0.279013 0.279013
0.279013 0.279013 0.279013
0.279052 0.279052 0.279052
0.293801 0.293801 0.293801
0.313352 0.313352 0.313352
0.333104 0.333104 0.333104
0.352992 0.352992 0.352992
0.372700 0.372700 0.372700
0.393200 0.393200 0.393200
0.414486 0.414486 0.414486
0.436555 0.436555 0.436555
0.459405 0.459405 0.459405
0.483035 0.483035 0.483035
0.484938 0.484938 0.484938
0.484938 0.484938 0.484938
0.484938 0.484938 0.484938
0.353859 0.353859 0.353859
0.353859 0.353859 0.353859
0.353859 0.353859 0.353859
0.353897 0.353897 0.353897
0.369379 0.369379 0.369379
0.389279 0.389279 0.389279
0.409384 0.409384 0.409384
0.429627 0.429627 0.429627
0.449976 0.449976 0.449976
0.469950 0.469950 0.469950
0.490708 0.490708 0.490708
0.512248 0.512248 0.512248
0.534568 0.534568 0.534568
0.557667 0.557667 0.557667
0.558988 0.558988 0.558988
0.558988 0.558988 0.558988
0.558988 0.558988 0.558988
0.427896 0.427896 0.427896
0.427896 0.427896 0.427896
0.427896 0.427896 0.427896
0.427934 0.427934 0.427934
0.444169 0.444169 0.444169
0.464419 0.464419 0.464419
0.484878 0.484878 0.484878
0.505478 0.505478 0.505478
0.526185 0.526185 0.526185
0.546979 0.546979 0.546979
0.567208 0.567208 0.567208
0.588217 0.588217 0.588217
0.610004 0.610004 0.610004
0.632570 0.632570 0.632570
0.633333 0.633333 0.633333
0.633333 0.633333 0.633333
0.633333 0.633333 0.633333
0.501064 0.501064 0.501064
0.501064 0.501064 0.501064
0.501064 0.501064 0.501064
0.501101 0.501101 0.501101
0.518110 0.518110 0.518110
0.538712 0.538712 0.538712
0.559527 0.559527 0.559527
0.580484 0.580484 0.580484
0.601550 0.601550 0.601550
0.622705 0.622705 0.622705
0.643935 0.643935 0.643935
0.664411 0.664411 0.664411
0.685665 0.685665 0.685665
0.707694 0.707694 0.707694
0.707924 0.707924 0.707924
0.707924 0.707924 0.707924
0.707924 0.707924 0.707924
0.573320 0.573320 0.573320
0.573320 0.573320 0.573320
0.573320 0.573320 0.573320
0.573356 0.573356 0.573356
0.591159 0.591159 0.591159
0.612113 0.612113 0.612113
0.633284 0.633284 0.633284
0.654600 0.654600 0.654600
0.676026 0.676026 0.676026
0.697543 0.697543 0.697543
0.719136 0.719136 0.719136
0.740796 0.740796 0.740796
0.761513 0.761513 0.761513
0.782599 0.782599 0.782599
0.782726 0.782726 0.782726
0.782726 0.782726 0.782726
0.782726 0.782726 0.782726
0.644629 0.644629 0.644629
0.644629 0.644629 0.644629
0.644629 0.644629 0.644629
0.644665 0.644665 0.644665
0.663280 0.663280 0.663280
0.684589 0.684589 0.684589
0.706116 0.706116 0.706116
0.727792 0.727792 0.727792
0.749580 0.749580 0.749580
0.771459 0.771459 0.771459
0.793416 0.793416 0.793416
0.815441 0.815441 0.815441
0.837525 0.837525 0.837525
0.857587 0.857587 0.857587
0.857714 0.857714 0.857714
0.857714 0.857714 0.857714
0.857714 0.857714 0.857714
0.714964 0.714964 0.714964
0.714964 0.714964 0.714964
0.714964 0.714964 0.714964
0.715000 0.715000 0.715000
0.734188 0.734188 0.734188
0.755375 0.755375 0.755375
0.776775 0.776775 0.776775
0.798317 0.798317 0.798317
0.819965 0.819965 0.819965
0.841700 0.841700 0.841700
0.863506 0.863506 0.863506
0.885375 0.885375 0.885375
0.907298 0.907298 0.907298
0.927800 0.927800 0.927800
0.927800 0.927800 0.927800
0.927800 0.927800 0.927800
0.927800 0.927800 0.927800
0.715200 0.715200 0.715200
0.715200 0.715200 0.715200
0.715200 0.715200 0.715200
0.715200 0.715200 0.715200
0.734315 0.734315 0.734315
0.755502 0.755502 0.755502
0.776902 0.776902 0.776902
0.798443 0.798443 0.798443
0.820092 0.820092 0.820092
0.841827 0.841827 0.841827
0.863633 0.863633 0.863633
0.885502 0.885502 0.885502
0.907424 0.907424 0.907424
0.927800 0.927800 0.927800
0.927800 0.927800 0.927800
0.927800 0.927800 0.927800
0.927800 0.927800 0.927800
0.715200 0.715200 0.715200
0.715200 0.715200 0.715200
0.715200 0.715200 0.715200
0.715200 0.715200 0.715200
0.734315 0.734315 0.734315
0.755502 0.755502 0.755502
0.776902 0.776902 0.776902
0.798443 0.798443 0.798443
0.820092 0.820092 0.820092
0.841827 0.841827 0.841827
0.863633 0.863633 0.863633
0.885502 0.885502 0.885502
0.907424 0.907424 0.907424
0.927800 0.927800 0.927800
0.927800 0.927800 0.927800
0.927800 0.927800 0.927800
0.927800 0.927800 0.927800
0.715200 0.715200 0.715200
0.715200 0.715200 0.715200
0.715200 0.715200 0.715200
0.715200 0.715200 0.715200
0.734315 0.734315 0.734315
0.755502 0.755502 0.755502
0.776902 0.776902 0.776902
0.798443 0.798443 0.798443
0.820092 0.820092 0.820092
0.841827 0.841827 0.841827
0.863633 0.863633 0.863633
0.885502 0.885502 0.885502
0.907424 0.907424 0.907424
0.927800 0.927800 0.927800
0.927800 0.927800 0.927800
0.927800 0.927800 0.927800
0.927800 0.927800 0.927800
0.000000 0.000000 0.000000
0.000000 0.000000 0.000000
0.000000 0.000000 0.000000
0.000000 0.000000 0.000000
0.013286 0.013286 0.013286
0.032715 0.032715 0.032715
0.051139 0.051139 0.051139
0.069897 0.069897 0.069897
0.090965 0.090965 0.090965
0.112837 0.112837 0.112837
0.135508 0.135508 0.135508
0.158973 0.158973 0.158973
0.183230 0.183230 0.183230
0.208279 0.208279 0.208279
0.212600 0.212600 0.212600
0.212600 0.212600 0.212600
0.212600 0.212600 0.212600
0.000000 0.000000 0.000000
0.000000 0.000000 0.000000
0.000000 0.000000 0.000000
0.000000 0.000000 0.000000
0.013286 0.013286 0.013286
0.032715 0.032715 0.032715
0.051139 0.051139 0.051139
0.069897 0.069897 0.069897
0.090965 0.090965 0.090965
0.112837 0.112837 0.112837
0.135508 0.135508 0.135508
0.158973 0.158973 0.158973
0.183230 0.183230 0.183230
0.208279 0.208279 0.208279
0.212600 0.212600 0.212600
0.212600 0.212600 0.212600
0.212600 0.212600 0.212600
0.000000 0.000000 0.000000
0.000000 0.000000 0.000000
0.000000 0.000000 0.000000
0.000000 0.000000 0.000000
0.013286 0.013286 0.013286
0.032715 0.032715 0.032715
0.051139 0.051139 0.051139
0.069897 0.069897 0.069897
0.090965 0.090965 0.090965
0.112837 0.112837 0.112837
0.135508 0.135508 0.135508
0.158973 0.158973 0.158973
0.183230 0.183230 0.183230
0.208279 0.208279 0.208279
0.212600 0.212600 0.212600
0.212600 0.212600 0.212600
0.212600 0.212600 0.212600
0.000000 0.000000 0.000000
0.000000 0.000000 0.000000
0.000000 0.000000 0.000000
0.000000 0.000000 0.000000
0.013322 0.013322 0.013322
0.032749 0.032749 0.032749
0.051170 0.051170 0.051170
0.069934 0.069934 0.069934
0.091003 0.091003 0.091003
0.112876 0.112876 0.112876
0.135548 0.135548 0.135548
0.159014 0.159014 0.159014
0.183273 0.183273 0.183273
0.208323 0.208323 0.208323
0.212600 0.212600 0.212600
0.212600 0.212600 0.212600
0.212600 0.212600 0.212600
0.050850 0.050850 0.050850
0.050850 0.050850 0.050850
0.050850 0.050850 0.050850
0.050891 0.050891 0.050891
0.063571 0.063571 0.063571
0.082313 0.082313 0.082313
0.101933 0.101933 0.101933
0.122383 0.122383 0.122383
0.143642 0.143642 0.143642
0.165699 0.165699 0.165699
0.188547 0.188547 0.188547
0.212183 0.212183 0.212183
0.236604 0.236604 0.236604
0.261808 0.261808 0.261808
0.265583 0.265583 0.265583
0.265583 0.265583 0.265583
0.265583 0.265583 0.265583
0.127298 0.127298 0.127298
0.127298 0.127298 0.127298
0.127298 0.127298 0.127298
0.127338 0.127338 0.127338
0.140684 0.140684 0.140684
0.159542 0.159542 0.159542
0.178656 0.178656 0.178656
0.198596 0.198596 0.198596
0.219343 0.219343 0.219343
0.240885 0.240885 0.240885
0.263217 0.263217 0.263217
0.286335 0.286335 0.286335
0.310237 0.310237 0.310237
0.334921 0.334921 0.334921
0.338053 0.338053 0.338053
0.338053 0.338053 0.338053
0.338053 0.338053 0.338053
0.203446 0.203446 0.203446
0.203446 0.203446 0.203446
0.203446 0.203446 0.203446
0.203485 0.203485 0.203485
0.217522 0.217522 0.217522
0.236725 0.236725 0.236725
0.256126 0.256126 0.256126
0.275552 0.275552 0.275552
0.295781 0.295781 0.295781
0.316804 0.316804 0.316804
0.338614 0.338614 0.338614
0.361209 0.361209 0.361209
0.384587 0.384587 0.384587
0.408746 0.408746 0.408746
0.411253 0.411253 0.411253
0.411253 0.411253 0.411253
0.411253 0.411253 0.411253
0.279013 0.279013 0.279013
0.279013 0.279013 0.279013
0.279013 0.279013 0.279013
0.279052 0.279052 0.279052
0.293801 0.293801 0.293801
0.313352 0.313352 0.313352
0.333104 0.333104 0.333104
0.352992 0.352992 0.352992
0.372700 0.372700 0.372700
0.393200 0.393200 0.393200
0.414486 0.414486 0.414486
0.436555 0.436555 0.436555
0.459405 0.459405 0.459405
0.483035 0.483035 0.483035
0.484938 0.484938 0.484938
0.484938 0.484938 0.484938
0.484938 0.484938 0.484938
0.353859 0.353859 0.353859
0.353859 0.353859 0.353859
0.353859 0.353859 0.353859
0.353897 0.353897 0.353897
0.369379 0.369379 0.369379
0.389279 0.389279 0.389279
0.409384 0.409384 0.409384
0.429627 0.429627 0.429627
0.449976 0.449976 0.449976
0.469950 0.469950 0.469950
0.490708 0.490708 0.490708
0.512248 0.512248 0.512248
0.534568 0.534568 0.534568
0.557667 0.557667 0.557667
0.558988 0.558988 0.558988
0.558988 0.558988 0.558988
0.558988 0.558988 0.558988
0.427896 0.427896 0.427896
0.427896 0.427896 0.427896
0.427896 0.427896 0.427896
0.427934 0.427934 0.427934
0.444169 0.444169 0.444169
0.464419 0.464419 0.464419
0.484878 0.484878 0.484878
0.505478 0.505478 0.505478
0.526185 0.526185 0.526185
0.546979 0.546979 0.546979
0.567208 0.567208 0.567208
0.588217 0.588217 0.588217
0.610004 0.610004 0.610004
0.632570 0.632570 0.632570
0.633333 0.633333 0.633333
0.633333 0.633333 0.633333
0.633333 0.633333 0.633333
0.501064 0.501064 0.501064
0.501064 0.501064 0.501064
0.501064 0.501064 0.501064
0.501101 0.501101 0.501101
0.518110 0.518110 0.518110
0.538712 0.538712 0.538712
0.559527 0.559527 0.559527
0.580484 0.580484 0.580484
0.601550 0.601550 0.601550
0.622705 0.622705 0.622705
0.643935 0.643935 0.643935
0.664411 0.664411 0.664411
0.685665 0.685665 0.685665
0.707694 0.707694 0.707694
0.707924 0.707924 0.707924
0.707924 0.707924 0.707924
0.707924 0.707924 0.707924
0.573320 0.573320 0.573320
0.573320 0.573320 0.573320
0.573320 0.573320 0.573320
0.573356 0.573356 0.573356
0.591159 0.591159 0.591159
0.612113 0.612113 0.612113
0.633284 0.633284 0.633284
0.654600 0.654600 0.654600
0.676026 0.676026 0.676026
0.697543 0.697543 0.697543
0.719136 0.719136 0.719136
0.740796 0.740796 0.740796
0.761513 0.761513 0.761513
0.782599 0.782599 0.782599
0.782726 0.782726 0.782726
0.782726 0.782726 0.782726
0.782726 0.782726 0.782726
0.644629 0.644629 0.644629
0.644629 0.644629 0.644629
0.644629 0.644629 0.644629
0.644665 0.644665 0.644665
0.663280 0.663280 0.663280
0.684589 0.684589 0.684589
0.706116 0.706116 0.706116
0.727792 0.727792 0.727792
0.749580 0.749580 0.749580
0.771459 0.771459 0.771459
0.793416 0.793416 0.793416
0.815441 0.815441 0.815441
0.837525 0.837525 0.837525
0.857587 0.857587 0.857587
0.857714 0.857714 0.857714
0.857714 0.857714 0.857714
0.857714 0.857714 0.857714
0.714964 0.714964 0.714964
0.714964 0.714964 0.714964
0.714964 0.714964 0.714964
0.715000 0.715000 0.715000
0.734188 0.734188 0.734188
0.755375 0.755375 0.755375
0.776775 0.776775 0.776775
0.798317 0.798317 0.798317
0.819965 0.819965 0.819965
0.841700 0.841700 0.841700
0.863506 0.863506 0.863506
0.885375 0.885375 0.885375
0.907298 0.907298 0.907298
0.927800 0.927800 0.927800
0.927800 0.927800 0.927800
0.927800 0.927800 0.927800
0.927800 0.927800 0.927800
0.715200 0.715200 0.715200
0.715200 0.715200 0.715200
0.715200 0.715200 0.715200
0.715200 0.715200 0.715200
0.734315 0.734315 0.734315
0.755502 0.755502 0.755502
0.776902 0.776902 0.776902
0.798443 0.798443 0.798443
0.820092 0.820092 0.820092
0.841827 0.841827 0.841827
0.863633 0.863633 0.863633
0.885502 0.885502 0.885502
0.907424 0.907424 0.907424
0.927800 0.927800 0.927800
0.927800 0.927800 0.927800
0.927800 0.927800 0.927800
0.927800 0.927800 0.927800
0.715200 0.715200 0.715200
0.715200 0.715200 0.715200
0.715200 0.715200 0.715200
0.715200 0.715200 0.715200
0.734315 0.734315 0.734315
0.755502 0.755502 0.755502
0.776902 0.776902 0.776902
0.798443 0.798443 0.798443
0.820092 0.820092 0.820092
0.841827 0.841827 0.841827
0.863633 0.863633 0.863633
0.885502 0.885502 0.885502
0.907424 0.907424 0.907424
0.927800 0.927800 0.927800
0.927800 0.927800 0.927800
0.927800 0.927800 0.927800
0.927800 0.927800 0.927800
0.715200 0.715200 0.715200
0.715200 0.715200 0.715200
0.715200 0.715200 0.715200
0.715200 0.715200 0.715200
0.734315 0.734315 0.734315
0.755502 0.755502 0.755502
0.776902 0.776902 0.776902
0.798443 0.798443 0.798443
0.820092 0.820092 0.820092
0.841827 0.841827 0.841827
0.863633 0.863633 0.863633
0.885502 0.885502 0.885502
0.907424 0.907424 0.907424
0.927800 0.927800 0.927800
0.927800 0.927800 0.927800
0.927800 0.927800 0.927800
0.927800 0.927800 0.927800
0.000000 0.000000 0.000000
0.000000 0.000000 0.000000
0.000000 0.000000 0.000000
0.000000 0.000000 0.000000
0.013286 0.013286 0.013286
0.032715 0.032715 0.032715
0.051139 0.051139 0.051139
0.069897 0.069897 0.069897
0.090965 0.090965 0.090965
0.112837 0.112837 0.112837
0.135508 0.135508 0.135508
0.158973 0.158973 0.158973
0.183230 0.183230 0.183230
0.208279 0.208279 0.208279
0.212600 0.212600 0.212600
0.212600 0.212600 0.212600
0.212600 0.212600 0.212600
0.000000 0.000000 0.000000
0.000000 0.000000 0.000000
0.000000 0.000000 0.000000
0.000000 0.000000 0.000000
0.013286 0.013286 0.013286
0.032715 0.032715 0.032715
0.051139 0.051139 0.051139
0.069897 0.069897 0.069897
0.090965 0.090965 0.090965
0.112837 0.112837 0.112837
0.135508 0.135508 0.135508
0.158973 0.158973 0.158973
0.183230 0.183230 0.183230
0.208279 0.208279 0.208279
0.212600 0.212600 0.212600
0.212600 0.212600 0.212600
0.212600 0.212600 0.212600
0.000000 0.000000 0.000000
0.000000 0.000000 0.000000
0.000000 0.000000 0.000000
0.000000 0.000000 0.000000
0.013286 0.013286 0.013286
0.032715 0.032715 0.032715
0.051139 0.051139 0.051139
0.069897 0.069897 0.069897
0.090965 0.090965 0.090965
0.112837 0.112837 0.112837
0.135508 0.135508 0.135508
0.158973 0.158973 0.158973
0.183230 0.183230 0.183230
0.208279 0.208279 0.208279
0.212600 0.212600 0.212600
0.212600 0.212600 0.212600
0.212600 0.212600 0.212600
0.000000 0.000000 0.000000
0.000000 0.000000 0.000000
0.000000 0.000000 0.000000
0.000000 0.000000 0.000000
0.013322 0.013322 0.013322
0.032749 0.032749 0.032749
0.051170 0.051170 0.051170
0.069934 0.069934 0.069934
0.091003 0.091003 0.091003
0.112876 0.112876 0.112876
0.135548 0.135548 0.135548
0.159014 0.159014 0.159014
0.183273 0.183273 0.183273
0.208323 0.208323 0.208323
0.212600 0.212600 0.212600
0.212600 0.212600 0.212600
0.212600 0.212600 0.212600
0.050850 0.050850 0.050850
0.050850 0.050850 0.050850
0.050850 0.050850 0.050850
0.050891 0.050891 0.050891
0.063571 0.063571 0.063571
0.082313 0.082313 0.082313
0.101933 0.101933 0.101933
0.122383 0.122383 0.122383
0.143642 0.143642 0.143642
0.165699 0.165699 0.165699
0.188547 0.188547 0.188547
0.212183 0.212183 0.212183
0.236604 0.236604 0.236604
0.261808 0.261808 0.261808
0.265583 0.265583 0.265583
0.265583 0.265583 0.265583
0.265583 0.265583 0.265583
0.127298 0.127298 0.127298
0.127298 0.127298 0.127298
0.127298 0.127298 0.127298
0.127338 0.127338 0.127338
0.140684 0.140684 0.140684
0.159542 0.159542 0.159542
0.178656 0.178656 0.178656
0.198596 0.198596 0.198596
0.219343 0.219343 0.219343
0.240885 0.240885 0.240885
0.263217 0.263217 0.263217
0.286335 0.286335 0.286335
0.310237 0.310237 0.310237
0.334921 0.334921 0.334921
0.338053 0.338053 0.338053
0.338053 0.338053 0.338053
0.338053 0.338053 0.338053
0.203446 0.203446 0.203446
0.203446 0.203446 0.203446
0.203446 0.203446 0.203446
0.203485 0.203485 0.203485
0.217522 0.217522 0.217522
0.236725 0.236725 0.236725
0.256126 0.256126 0.256126
0.275552 0.275552 0.275552
0.295781 0.295781 0.295781
0.316804 0.316804 0.316804
0.338614 0.338614 0.338614
0.361209 0.361209 0.361209
0.384587 0.384587 0.384587
0.408746 0.408746 0.408746
0.411253 0.411253 0.411253
0.411253 0.411253 0.411253
0.411253 0.411253 0.411253
0.279013 0.279013 0.279013
0.279013 0.279013 0.279013
0.279013 0.279013 0.279013
0.279052 0.279052 0.279052
0.293801 0.293801 0.293801
0.313352 0.313352 0.313352
0.333104 0.333104 0.333104
0.352992 0.352992 0.352992
0.372700 0.372700 0.372700
0.393200 0.393200 0.393200
0.414486 0.414486 0.414486
0.436555 0.436555 0.436555
0.459405 0.459405 0.459405
0.483035 0.483035 0.483035
0.484938 0.484938 0.484938
0.484938 0.484938 0.484938
0.484938 0.484938 0.484938
0.353859 0.353859 0.353859
0.353859 0.353859 0.353859
0.353859 0.353859 0.353859
0.353897 0.353897 0.353897
0.369379 0.369379 0.369379
0.389279 0.389279 0.389279
0.409384 0.409384 0.409384
0.429627 0.429627 0.429627
0.449976 0.449976 0.449976
0.469950 0.469950 0.469950
0.490708 0.490708 0.490708
0.512248 0.512248 0.512248
0.534568 0.534568 0.534568
0.557667 0.557667 0.557667
0.558988 0.558988 0.558988
0.558988 0.558988 0.558988
0.558988 0.558988 0.558988
0.427896 0.427896 0.427896
0.427896 0.427896 0.427896
0.427896 0.427896 0.427896
0.427934 0.427934 0.427934
0.444169 0.444169 0.444169
0.464419 0.464419 0.464419
0.484878 0.484878 0.484878
0.505478 0.505478 0.505478
0.526185 0.526185 0.526185
0.546979 0.546979 0.546979
0.567208 0.567208 0.567208
0.588217 0.588217 0.588217
0.610004 0.610004 0.610004
0.632570 0.632570 0.632570
0.633333 0.633333 0.633333
0.633333 0.633333 0.633333
0.633333 0.633333 0.633333
0.501064 0.501064 0.501064
0.501064 0.501064 0.501064
0.501064 0.501064 0.501064
0.501101 0.501101 0.501101
0.518110 0.518110 0.518110
0.538712 0.538712 0.538712
0.559527 0.559527 0.559527
0.580484 0.580484 0.580484
0.601550 0.601550 0.601550
0.622705 0.622705 0.622705
0.643935 0.643935 0.643935
0.664411 0.664411 0.664411
0.685665 0.685665 0.685665
0.707694 0.707694 0.707694
0.707924 0.707924 0.707924
0.707924 0.707924 0.707924
0.707924 0.707924 0.707924
0.573320 0.573320 0.573320
0.573320 0.573320 0.573320
0.573320 0.573320 0.573320
0.573356 0.573356 0.573356
0.591159 0.591159 0.591159
0.612113 0.612113 0.612113
0.633284 0.633284 0.633284
0.654600 0.654600 0.654600
0.676026 0.676026 0.676026
0.697543 0.697543 0.697543
0.719136 0.719136 0.719136
0.740796 0.740796 0.740796
0.761513 0.761513 0.761513
0.782599 0.782599 0.782599
0.782726 0.782726 0.782726
0.782726 0.782726 0.782726
0.782726 0.782726 0.782726
0.644629 0.644629 0.644629
0.644629 0.644629 0.644629
0.644629 0.644629 0.644629
0.644665 0.644665 0.644665
0.663280 0.663280 0.663280
0.684589 0.684589 0.684589
0.706116 0.706116 0.706116
0.727792 0.727792 0.727792
0.749580 0.749580 0.749580
0.771459 0.771459 0.771459
0.793416 0.793416 0.793416
0.815441 0.815441 0.815441
0.837525 0.837525 0.837525
0.857587 0.857587 0.857587
0.857714 0.857714 0.857714
0.857714 0.857714 0.857714
0.857714 0.857714 0.857714
0.714964 0.714964 0.714964
0.714964 0.714964 0.714964
0.714964 0.714964 0.714964
0.715000 0.715000 0.715000
0.734188 0.734188 0.734188
0.755375 0.755375 0.755375
0.776775 0.776775 0.776775
0.798317 0.798317 0.798317
0.819965 0.819965 0.819965
0.841700 0.841700 0.841700
0.863506 0.863506 0.863506
0.885375 0.885375 0.885375
0.907298 0.907298 0.907298
0.927800 0.927800 0.927800
0.927800 0.927800 0.927800
0.927800 0.927800 0.927800
0.927800 0.927800 0.927800
0.715200 0.715200 0.715200
0.715200 0.715200 0.715200
0.715200 0.715200 0.715200
0.715200 0.715200 0.715200
0.734315 0.734315 0.734315
0.755502 0.755502 0.755502
0.776902 0.776902 0.776902
0.798443 0.798443 0.798443
0.820092 0.820092 0.820092
0.841827 0.841827 0.841827
0.863633 0.863633 0.863633
0.885502 0.885502 0.885502
0.907424 0.907424 0.907424
0.927800 0.927800 0.927800
0.927800 0.927800 0.927800
0.927800 0.927800 0.927800
0.927800 0.927800 0.927800
0.715200 0.715200 0.715200
0.715200 0.715200 0.715200
0.715200 0.715200 0.715200
0.715200 0.715200 0.715200
0.734315 0.734315 0.734315
0.755502 0.755502 0.755502
0.776902 0.776902 0.776902
0.798443 0.798443 0.798443
0.820092 0.820092 0.820092
0.841827 0.841827 0.841827
0.863633 0.863633 0.863633
0.885502 0.885502 0.885502
0.907424 0.907424 0.907424
0.927800 0.927800 0.927800
0.927800 0.927800 0.927800
0.927800 0.927800 0.927800
0.927800 0.927800 0.927800
0.715200 0.715200 0.715200
0.715200 0.715200 0.715200
0.715200 0.715200 0.715200
0.715200 0.715200 0.715200
0.734315 0.734315 0.734315
0.755502 0.755502 0.755502
0.776902 0.776902 0.776902
0.798443 0.798443 0.798443
0.820092 0.820092 0.820092
0.841827 0.841827 0.841827
0.863633 0.863633 0.863633
0.885502 0.885502 0.885502
0.907424 0.907424 0.907424
0.927800 0.927800 0.927800
0.927800 0.927800 0.927800
0.927800 0.927800 0.927800
0.927800 0.927800 0.927800
0.000000 0.000000 0.000000
0.000000 0.000000 0.000000
0.000000 0.000000 0.000000
0.000000 0.000000 0.000000
0.013289 0.013289 0.013289
0.032719 0.032719 0.032719
0.051142 0.051142 0.051142
0.069901 0.069901 0.069901
0.090969 0.090969 0.090969
0.112841 0.112841 0.112841
0.135512 0.135512 0.135512
0.158977 0.158977 0.158977
0.183235 0.183235 0.183235
0.208283 0.208283 0.208283
0.212600 0.212600 0.212600
0.212600 0.212600 0.212600
