resources/luts/hard-mono.cube
# Generated by FotoReady. Released under the project GPL-3.0-or-later license.
TITLE "hard-mono"
LUT_3D_SIZE 5
DOMAIN_MIN 0 0 0
DOMAIN_MAX 1 1 1
0.000000 0.000000 0.000000
0.013286 0.013286 0.013286
0.090965 0.090965 0.090965
0.183230 0.183230 0.183230
0.212600 0.212600 0.212600
0.050850 0.050850 0.050850
0.063571 0.063571 0.063571
0.143642 0.143642 0.143642
0.236604 0.236604 0.236604
0.265583 0.265583 0.265583
0.353859 0.353859 0.353859
0.369379 0.369379 0.369379
0.449976 0.449976 0.449976
0.534568 0.534568 0.534568
0.558988 0.558988 0.558988
0.644629 0.644629 0.644629
0.663280 0.663280 0.663280
0.749580 0.749580 0.749580
0.837525 0.837525 0.837525
0.857714 0.857714 0.857714
0.715200 0.715200 0.715200
0.734315 0.734315 0.734315
0.820092 0.820092 0.820092
0.907424 0.907424 0.907424
0.927800 0.927800 0.927800
0.005660 0.005660 0.005660
0.015427 0.015427 0.015427
0.095323 0.095323 0.095323
0.188268 0.188268 0.188268
0.217786 0.217786 0.217786
0.054829 0.054829 0.054829
0.067638 0.067638 0.067638
0.147373 0.147373 0.147373
0.239950 0.239950 0.239950
0.268753 0.268753 0.268753
0.358897 0.358897 0.358897
0.376103 0.376103 0.376103
0.455839 0.455839 0.455839
0.540037 0.540037 0.540037
0.564299 0.564299 0.564299
0.650882 0.650882 0.650882
0.673252 0.673252 0.673252
0.758634 0.758634 0.758634
0.845565 0.845565 0.845565
0.865618 0.865618 0.865618
0.721656 0.721656 0.721656
0.745085 0.745085 0.745085
0.829901 0.829901 0.829901
0.916173 0.916173 0.916173
0.936256 0.936256 0.936256
0.036174 0.036174 0.036174
0.047115 0.047115 0.047115
0.120962 0.120962 0.120962
0.216692 0.216692 0.216692
0.246780 0.246780 0.246780
0.080048 0.080048 0.080048
0.093520 0.093520 0.093520
0.173255 0.173255 0.173255
0.268564 0.268564 0.268564
0.297909 0.297909 0.297909
0.385087 0.385087 0.385087
0.401985 0.401985 0.401985
0.481721 0.481721 0.481721
0.563004 0.563004 0.563004
0.586289 0.586289 0.586289
0.679835 0.679835 0.679835
0.701866 0.701866 0.701866
0.795627 0.795627 0.795627
0.876910 0.876910 0.876910
0.896078 0.896078 0.896078
0.750650 0.750650 0.750650
0.773716 0.773716 0.773716
0.868882 0.868882 0.868882
0.945722 0.945722 0.945722
0.961518 0.961518 0.961518
0.061331 0.061331 0.061331
0.075370 0.075370 0.075370
0.159701 0.159701 0.159701
0.245645 0.245645 0.245645
0.276299 0.276299 0.276299
0.111223 0.111223 0.111223
0.125385 0.125385 0.125385
0.210767 0.210767 0.210767
0.297697 0.297697 0.297697
0.327581 0.327581 0.327581
0.407792 0.407792 0.407792
0.425471 0.425471 0.425471
0.508121 0.508121 0.508121
0.589405 0.589405 0.589405
0.613199 0.613199 0.613199
0.709325 0.709325 0.709325
0.730999 0.730999 0.730999
0.822028 0.822028 0.822028
0.903311 0.903311 0.903311
0.921592 0.921592 0.921592
0.780169 0.780169 0.780169
0.802853 0.802853 0.802853
0.895233 0.895233 0.895233
0.977688 0.977688 0.977688
0.991917 0.991917 0.991917
0.072200 0.072200 0.072200
0.086530 0.086530 0.086530
0.172307 0.172307 0.172307
0.259640 0.259640 0.259640
0.284800 0.284800 0.284800
0.121668 0.121668 0.121668
0.135977 0.135977 0.135977
0.222755 0.222755 0.222755
0.311026 0.311026 0.311026
0.335962 0.335962 0.335962
0.415074 0.415074 0.415074
0.432930 0.432930 0.432930
0.516172 0.516172 0.516172
0.598740 0.598740 0.598740
0.620185 0.620185 0.620185
0.713800 0.713800 0.713800
0.735677 0.735677 0.735677
0.827288 0.827288 0.827288
0.909123 0.909123 0.909123
0.927293 0.927293 0.927293
0.787400 0.787400 0.787400
0.809952 0.809952 0.809952
0.901469 0.901469 0.901469
0.981050 0.981050 0.981050
1.000000 1.000000 1.000000
