resources/luts/muted-chrome.cube
TITLE "muted-chrome"
LUT_3D_SIZE 16
DOMAIN_MIN 0 0 0
DOMAIN_MAX 1 1 1
0.001800 0.005400 0.003600
0.006349 0.005652 0.003839
0.069199 0.009110 0.007125
0.134314 0.012658 0.010506
0.200435 0.016224 0.013916
0.267224 0.019794 0.017339
0.334517 0.023361 0.020768
0.402213 0.026922 0.024199
0.470249 0.030476 0.027631
0.538576 0.034023 0.031063
0.607159 0.037565 0.034496
0.675972 0.041104 0.037930
0.744992 0.044642 0.041367
0.814203 0.048181 0.044808
0.883590 0.051724 0.048254
0.889075 0.052003 0.048526
0.002315 0.010129 0.004079
0.006917 0.010413 0.004331
0.069812 0.014016 0.007647
0.134938 0.017629 0.011034
0.201064 0.021239 0.014447
0.267858 0.024842 0.017872
0.335153 0.028434 0.021301
0.402852 0.032016 0.024732
0.470889 0.035589 0.028165
0.539218 0.039153 0.031597
0.607803 0.042710 0.035030
0.676617 0.046262 0.038465
0.745639 0.049813 0.041903
0.814851 0.053364 0.045344
0.884239 0.056918 0.048791
0.889724 0.057199 0.049064
0.009409 0.075408 0.010643
0.014208 0.075710 0.010912
0.077564 0.079513 0.014328
0.142822 0.083288 0.017755
0.209023 0.087037 0.021188
0.275867 0.090763 0.024622
0.343200 0.094468 0.028057
0.410930 0.098155 0.031492
0.478993 0.101827 0.034927
0.547344 0.105487 0.038364
0.615950 0.109139 0.041803
0.684785 0.112786 0.045245
0.753826 0.116430 0.048693
0.823058 0.120076 0.052147
0.892467 0.123727 0.055610
0.897954 0.124016 0.055883
0.016716 0.142923 0.017359
0.021595 0.143226 0.017630
0.085299 0.147048 0.021066
0.150681 0.150843 0.024504
0.216956 0.154615 0.027941
0.283852 0.158366 0.031379
0.351225 0.162100 0.034816
0.418988 0.165820 0.038255
0.487080 0.169530 0.041695
0.555457 0.173232 0.045139
0.624088 0.176930 0.048587
0.692946 0.180627 0.052042
0.762011 0.184327 0.055505
0.831267 0.188034 0.058977
0.900701 0.191751 0.062462
0.906190 0.192046 0.062738
0.024101 0.211380 0.024105
0.029031 0.211682 0.024376
0.093022 0.215502 0.027818
0.158520 0.219300 0.031259
0.224869 0.223078 0.034699
0.291819 0.226841 0.038139
0.359235 0.230591 0.041582
0.427034 0.234334 0.045027
0.495158 0.238070 0.048476
0.563565 0.241805 0.051931
0.632224 0.245542 0.055395
0.701109 0.249284 0.058868
0.770202 0.253034 0.062352
0.839498 0.256803 0.065850
0.908986 0.260596 0.069364
0.914480 0.260897 0.069642
0.031529 0.280446 0.030857
0.036498 0.280749 0.031129
0.100736 0.284564 0.034574
0.166348 0.288362 0.038017
0.232771 0.292147 0.041462
0.299776 0.295921 0.044909
0.367237 0.299689 0.048360
0.435075 0.303454 0.051816
0.503235 0.307220 0.055280
0.571675 0.310990 0.058754
0.640366 0.314768 0.062238
0.709293 0.318562 0.065736
0.778443 0.322379 0.069249
0.847799 0.326223 0.072780
0.917346 0.330096 0.076330
0.922844 0.330403 0.076611
0.038991 0.349972 0.037614
0.043991 0.350274 0.037886
0.108447 0.354090 0.041335
0.174170 0.357893 0.044785
0.240667 0.361688 0.048238
0.307730 0.365479 0.051697
0.375240 0.369270 0.055162
0.443121 0.373064 0.058636
0.511319 0.376865 0.062121
0.579805 0.380681 0.065618
0.648556 0.384519 0.069131
0.717547 0.388382 0.072660
0.786759 0.392274 0.076210
0.856175 0.396197 0.079780
0.925780 0.400155 0.083375
0.931283 0.400469 0.083659
0.046483 0.419877 0.044379
0.051508 0.420179 0.044652
0.116163 0.424001 0.048110
0.181994 0.427816 0.051571
0.248567 0.431630 0.055038
0.315690 0.435446 0.058513
0.383252 0.439268 0.061999
0.451185 0.443103 0.065497
0.519449 0.446959 0.069010
0.588005 0.450840 0.072539
0.656822 0.454748 0.076087
0.725877 0.458687 0.079656
0.795151 0.462660 0.083249
0.864626 0.466670 0.086867
0.934289 0.470720 0.090514
0.939797 0.471042 0.090803
0.054004 0.490114 0.051163
0.059052 0.490417 0.051436
0.123891 0.494254 0.054908
0.189827 0.498091 0.058386
0.256478 0.501932 0.061873
0.323670 0.505785 0.065372
0.391308 0.509659 0.068885
0.459320 0.513555 0.072415
0.527657 0.517479 0.075962
0.596282 0.521432 0.079531
0.665165 0.525419 0.083122
0.734284 0.529441 0.086739
0.803618 0.533504 0.090383
0.873153 0.537609 0.094058
0.942873 0.541760 0.097764
0.948385 0.542090 0.098059
0.061558 0.560658 0.057975
0.066626 0.560963 0.058250
0.131637 0.564825 0.061741
0.197684 0.568696 0.065243
0.264435 0.572586 0.068757
0.331721 0.576498 0.072287
0.399443 0.580436 0.075835
0.467533 0.584403 0.079403
0.535943 0.588402 0.082994
0.604637 0.592437 0.086609
0.673585 0.596510 0.090252
0.742767 0.600626 0.093924
0.812161 0.604787 0.097628
0.881752 0.608990 0.101363
0.951514 0.613201 0.105105
0.957028 0.613533 0.105400
0.069154 0.631500 0.064829
0.074241 0.631808 0.065106
0.139434 0.635715 0.068624
0.205615 0.639643 0.072156
0.272474 0.643595 0.075704
0.339853 0.647575 0.079273
0.407659 0.651587 0.082863
0.475825 0.655633 0.086478
0.544307 0.659717 0.090119
0.613069 0.663842 0.093790
0.682082 0.668012 0.097492
0.751324 0.672225 0.101225
0.820763 0.676448 0.104967
0.890382 0.680673 0.108713
0.960165 0.684899 0.112463
0.965681 0.685233 0.112759
0.076840 0.702656 0.071738
0.081946 0.702968 0.072018
0.147321 0.706936 0.075570
0.213631 0.710930 0.079140
0.280595 0.714953 0.082730
0.348066 0.719010 0.086345
0.415954 0.723105 0.089986
0.484196 0.727240 0.093655
0.552749 0.731418 0.097356
0.621576 0.735641 0.101087
0.690640 0.739874 0.104829
0.759913 0.744110 0.108575
0.829378 0.748347 0.112325
0.899017 0.752585 0.116078
0.968817 0.756822 0.119836
0.974334 0.757157 0.120132
0.084625 0.774131 0.078719
0.089748 0.774448 0.079002
0.155296 0.778485 0.082595
0.221731 0.782554 0.086210
0.288798 0.786659 0.089851
0.356359 0.790803 0.093520
0.424328 0.794991 0.097219
0.492644 0.799222 0.100950
0.561254 0.803465 0.104692
0.630119 0.807711 0.108437
0.699212 0.811958 0.112187
0.768509 0.816206 0.115940
0.837994 0.820453 0.119697
0.907648 0.824700 0.123458
0.977459 0.828945 0.127222
0.982977 0.829280 0.127519
0.092507 0.845927 0.085786
0.097647 0.846250 0.086072
0.163358 0.850367 0.089714
0.229915 0.854521 0.093383
0.297082 0.858717 0.097082
0.364731 0.862956 0.100812
0.432767 0.867209 0.104554
0.501129 0.871464 0.108299
0.569774 0.875720 0.112049
0.638669 0.879977 0.115802
0.707785 0.884234 0.119559
0.777102 0.888490 0.123319
0.846601 0.892744 0.127083
0.916266 0.896997 0.130851
0.986083 0.901246 0.134621
0.991601 0.901582 0.134919
0.100485 0.918050 0.092955
0.105639 0.918380 0.093246
0.171507 0.922585 0.096945
0.238181 0.926833 0.100675
0.305435 0.931094 0.104416
0.373143 0.935358 0.108162
0.441224 0.939623 0.111911
0.509623 0.943888 0.115664
0.578298 0.948153 0.119421
0.647216 0.952418 0.123181
0.716351 0.956681 0.126945
0.785682 0.960942 0.130712
0.855190 0.965201 0.134482
0.924860 0.969455 0.138256
0.994678 0.973706 0.142033
1.000000 0.974042 0.142331
0.101118 0.923758 0.093526
0.106274 0.924089 0.093817
0.172154 0.928302 0.097521
0.238836 0.932555 0.101254
0.306096 0.936817 0.104996
0.373807 0.941081 0.108742
0.441892 0.945347 0.112492
0.510293 0.949613 0.116246
0.578970 0.953879 0.120003
0.647890 0.958144 0.123764
0.717027 0.962407 0.127529
0.786358 0.966669 0.131296
0.855867 0.970927 0.135067
0.925537 0.975182 0.138841
0.995355 0.979433 0.142618
1.000000 0.979768 0.142916
0.001895 0.005493 0.007661
0.006459 0.005751 0.007930
0.069318 0.009217 0.011350
0.134435 0.012765 0.014793
0.200557 0.016332 0.018245
0.267347 0.019902 0.021700
0.334640 0.023469 0.025154
0.402338 0.027030 0.028607
0.470373 0.030583 0.032058
0.538700 0.034131 0.035506
0.607284 0.037673 0.038954
0.676097 0.041212 0.042402
0.745118 0.044750 0.045851
0.814329 0.048289 0.049303
0.883716 0.051831 0.052759
0.889201 0.052111 0.053032
0.002419 0.010237 0.008188
0.007027 0.010521 0.008457
0.069931 0.014125 0.011883
0.135059 0.017738 0.015329
0.201187 0.021348 0.018782
0.267981 0.024951 0.022237
0.335277 0.028543 0.025691
0.402976 0.032125 0.029144
0.471014 0.035697 0.032594
0.539343 0.039261 0.036043
0.607928 0.042818 0.039491
0.676742 0.046370 0.042939
0.745765 0.049921 0.046388
0.814977 0.053472 0.049841
0.884365 0.057026 0.053298
0.889851 0.057307 0.053571
0.009520 0.075523 0.014932
0.014321 0.075825 0.015205
0.077683 0.079627 0.018661
0.142942 0.083402 0.022120
0.209145 0.087150 0.025577
0.275990 0.090875 0.029033
0.343324 0.094580 0.032486
0.411054 0.098266 0.035937
0.479117 0.101938 0.039387
0.547469 0.105598 0.042837
0.616075 0.109250 0.046288
0.684910 0.112897 0.049741
0.753952 0.116541 0.053199
0.823184 0.120187 0.056663
0.892593 0.123838 0.060135
0.898080 0.124127 0.060410
0.016829 0.143039 0.021720
0.021709 0.143342 0.021994
0.085418 0.147163 0.025455
0.150801 0.150958 0.028914
0.217077 0.154729 0.032370
0.283974 0.158479 0.035823
0.351348 0.162213 0.039275
0.419111 0.165933 0.042727
0.487204 0.169642 0.046180
0.555582 0.173344 0.049634
0.624213 0.177042 0.053093
0.693071 0.180739 0.056558
0.762137 0.184440 0.060030
0.831393 0.188147 0.063511
0.900827 0.191864 0.067005
0.906317 0.192159 0.067281
0.024214 0.211495 0.028512
0.029145 0.211798 0.028786
0.093140 0.215618 0.032246
0.158641 0.219414 0.035703
0.224991 0.223192 0.039157
0.291941 0.226955 0.042611
0.359358 0.230705 0.046066
0.427157 0.234447 0.049522
0.495282 0.238184 0.052982
0.563689 0.241919 0.056447
0.632349 0.245655 0.059919
0.701235 0.249397 0.063401
0.770328 0.253149 0.066894
0.839625 0.256918 0.070400
0.909114 0.260712 0.073922
0.914608 0.261012 0.074200
0.031644 0.280562 0.035299
0.036613 0.280864 0.035573
0.100854 0.284680 0.039032
0.166468 0.288477 0.042489
0.232892 0.292261 0.045946
0.299898 0.296035 0.049404
0.367360 0.299803 0.052865
0.435199 0.303568 0.056332
0.503359 0.307334 0.059805
0.571800 0.311104 0.063287
0.640491 0.314883 0.066780
0.709419 0.318677 0.070285
0.778570 0.322495 0.073806
0.847927 0.326340 0.077344
0.917475 0.330213 0.080901
0.922973 0.330520 0.081183
0.039106 0.350088 0.042084
0.044106 0.350390 0.042357
0.108566 0.354205 0.045818
0.174290 0.358008 0.049280
0.240789 0.361803 0.052743
0.307853 0.365594 0.056211
0.375363 0.369385 0.059686
0.443245 0.373179 0.063169
0.511444 0.376981 0.066662
0.579930 0.380797 0.070167
0.648682 0.384635 0.073688
0.717674 0.388499 0.077225
0.786887 0.392392 0.080781
0.856304 0.396316 0.084358
0.925910 0.400275 0.087959
0.931413 0.400589 0.088245
0.046598 0.419992 0.048873
0.051624 0.420295 0.049146
0.116282 0.424117 0.052614
0.182114 0.427932 0.056085
0.248689 0.431746 0.059562
0.315813 0.435562 0.063046
0.383375 0.439384 0.066540
0.451310 0.443219 0.070046
0.519575 0.447076 0.073566
0.588131 0.450957 0.077103
0.656950 0.454867 0.080658
0.726006 0.458806 0.084234
0.795280 0.462780 0.087834
0.864756 0.466791 0.091458
0.934420 0.470843 0.095111
0.939928 0.471165 0.095401
0.054120 0.490230 0.055676
0.059168 0.490533 0.055951
0.124010 0.494370 0.059431
0.189948 0.498207 0.062918
0.256600 0.502049 0.066414
0.323793 0.505902 0.069921
0.391432 0.509776 0.073441
0.459445 0.513674 0.076978
0.527784 0.517598 0.080533
0.596410 0.521552 0.084108
0.665294 0.525540 0.087706
0.734413 0.529563 0.091330
0.803748 0.533627 0.094980
0.873284 0.537733 0.098661
0.943005 0.541886 0.102374
0.948517 0.542216 0.102668
0.061675 0.560775 0.062506
0.066743 0.561080 0.062782
0.131756 0.564942 0.066281
0.197805 0.568814 0.069791
0.264557 0.572704 0.073313
0.331845 0.576617 0.076850
0.399569 0.580555 0.080405
0.467660 0.584523 0.083980
0.536071 0.588523 0.087578
0.604765 0.592559 0.091199
0.673715 0.596634 0.094848
0.742897 0.600750 0.098527
0.812293 0.604913 0.102237
0.881884 0.609116 0.105977
0.951646 0.613327 0.109724
0.957160 0.613660 0.110020
0.069271 0.631617 0.069376
0.074359 0.631925 0.069654
0.139555 0.635834 0.073179
0.205737 0.639762 0.076719
0.272598 0.643715 0.080275
0.339979 0.647696 0.083850
0.407785 0.651708 0.087447
0.475953 0.655755 0.091068
0.544436 0.659840 0.094716
0.613198 0.663967 0.098393
0.682213 0.668138 0.102101
0.751455 0.672352 0.105839
0.820895 0.676575 0.109586
0.890514 0.680800 0.113337
0.960297 0.685026 0.117092
0.965813 0.685360 0.117388
0.076958 0.702775 0.076301
0.082065 0.703088 0.076581
0.147443 0.707056 0.080140
0.213755 0.711051 0.083716
0.280720 0.715075 0.087314
0.348192 0.719133 0.090935
0.416081 0.723229 0.094582
0.484325 0.727365 0.098258
0.552879 0.731545 0.101964
0.621707 0.735768 0.105702
0.690771 0.740002 0.109448
0.760045 0.744237 0.113199
0.829510 0.748474 0.116953
0.899149 0.752712 0.120711
0.968949 0.756949 0.124473
0.974466 0.757284 0.124770
0.084745 0.774252 0.083295
0.089869 0.774570 0.083578
0.155419 0.778608 0.087178
0.221856 0.782678 0.090800
0.288924 0.786784 0.094447
0.356486 0.790929 0.098122
0.424456 0.795117 0.101827
0.492774 0.799349 0.105564
0.561384 0.803593 0.109310
0.630250 0.807839 0.113061
0.699343 0.812086 0.116815
0.768641 0.816333 0.120573
0.838126 0.820581 0.124334
0.907780 0.824828 0.128099
0.977592 0.829073 0.131867
0.983109 0.829408 0.132165
0.092629 0.846050 0.090375
0.097768 0.846374 0.090662
0.163482 0.850491 0.094310
0.230041 0.854646 0.097985
0.297210 0.858843 0.101690
0.364859 0.863084 0.105426
0.432896 0.867337 0.109172
0.501259 0.871592 0.112923
0.569905 0.875848 0.116677
0.638799 0.880105 0.120435
0.707916 0.884362 0.124196
0.777233 0.888618 0.127961
0.846733 0.892872 0.131729
0.916398 0.897124 0.135500
0.986215 0.901374 0.139274
0.991733 0.901709 0.139572
0.100607 0.918176 0.097556
0.105762 0.918506 0.097847
0.171632 0.922713 0.101553
0.238308 0.926961 0.105288
0.305563 0.931223 0.109035
0.373271 0.935486 0.112785
0.441353 0.939751 0.116539
0.509753 0.944016 0.120296
0.578428 0.948282 0.124058
0.647346 0.952546 0.127822
0.716482 0.956809 0.131590
0.785813 0.961070 0.135361
0.855321 0.965329 0.139135
0.924991 0.969583 0.142913
0.994810 0.973834 0.146693
1.000000 0.974169 0.146992
0.101241 0.923884 0.098128
0.106397 0.924215 0.098419
0.172279 0.928429 0.102130
0.238963 0.932683 0.105869
0.306224 0.936945 0.109616
0.373936 0.941209 0.113366
0.442021 0.945475 0.117121
0.510423 0.949741 0.120879
0.579101 0.954007 0.124641
0.648021 0.958272 0.128406
0.717157 0.962536 0.132174
0.786489 0.966797 0.135946
0.855998 0.971055 0.139721
0.925668 0.975310 0.143498
0.995487 0.979561 0.147279
1.000000 0.979896 0.147578
0.003209 0.006778 0.063781
0.007860 0.007051 0.064071
0.070825 0.010567 0.067733
0.135969 0.014127 0.071377
0.202106 0.017698 0.075003
0.268906 0.021269 0.078612
0.336206 0.024835 0.082207
0.403909 0.028394 0.085788
0.471950 0.031946 0.089357
0.540281 0.035492 0.092917
0.608869 0.039034 0.096469
0.677686 0.042573 0.100016
0.746710 0.046111 0.103559
0.815924 0.049652 0.107100
0.885315 0.053197 0.110642
0.890800 0.053477 0.110922
0.003758 0.011608 0.064350
0.008431 0.011893 0.064639
0.071438 0.015504 0.068299
0.136592 0.019118 0.071941
0.202735 0.022727 0.075564
0.269539 0.026328 0.079172
0.336842 0.029917 0.082764
0.404548 0.033496 0.086344
0.472590 0.037066 0.089912
0.540923 0.040628 0.093470
0.609513 0.044184 0.097022
0.678331 0.047736 0.100567
0.747357 0.051287 0.104110
0.816573 0.054839 0.107652
0.885965 0.058396 0.111194
0.891450 0.058677 0.111474
0.010931 0.076979 0.071523
0.015751 0.077280 0.071810
0.079187 0.081073 0.075438
0.144471 0.084839 0.079050
0.210689 0.088580 0.082646
0.277543 0.092298 0.086229
0.344885 0.095996 0.089800
0.412622 0.099678 0.093361
0.480690 0.103346 0.096914
0.549047 0.107003 0.100462
0.617658 0.110653 0.104006
0.686497 0.114299 0.107549
0.755543 0.117944 0.111092
0.824780 0.121591 0.114638
0.894193 0.125245 0.118190
0.899680 0.125534 0.118470
0.018260 0.144503 0.078633
0.023151 0.144805 0.078918
0.086920 0.148618 0.082519
0.152327 0.152404 0.086105
0.218617 0.156169 0.089679
0.285524 0.159914 0.093244
0.352907 0.163643 0.096799
0.420677 0.167359 0.100349
0.488775 0.171065 0.103895
0.557159 0.174766 0.107439
0.625795 0.178463 0.110983
0.694658 0.182162 0.114530
0.763729 0.185864 0.118081
0.832990 0.189575 0.121640
0.902433 0.193298 0.125207
0.907923 0.193593 0.125490
0.025656 0.212959 0.085690
0.030595 0.213261 0.085973
0.094641 0.217074 0.089552
0.160164 0.220864 0.093119
0.226528 0.224637 0.096678
0.293489 0.228395 0.100230
0.360915 0.232143 0.103778
0.428722 0.235883 0.107323
0.496853 0.239619 0.110869
0.565266 0.243355 0.114416
0.633932 0.247093 0.117968
0.702824 0.250838 0.121526
0.771925 0.254594 0.125094
0.841233 0.258372 0.128673
0.910733 0.262175 0.132265
0.916228 0.262476 0.132549
0.033093 0.282024 0.092703
0.038069 0.282326 0.092985
0.102354 0.286136 0.096549
0.167990 0.289929 0.100104
0.234428 0.293710 0.103655
0.301445 0.297482 0.107202
0.368917 0.301249 0.110749
0.436764 0.305015 0.114298
0.504931 0.308782 0.117850
0.573379 0.312555 0.121409
0.642078 0.316338 0.124977
0.711018 0.320140 0.128555
0.780181 0.323967 0.132147
0.849548 0.327821 0.135754
0.919107 0.331706 0.139379
0.924606 0.332014 0.139666
0.040562 0.351550 0.099688
0.045567 0.351852 0.099969
0.110067 0.355663 0.103524
0.175812 0.359464 0.107075
0.242325 0.363258 0.110624
0.309401 0.367049 0.114174
0.376921 0.370841 0.117728
0.444811 0.374638 0.121288
0.513019 0.378443 0.124856
0.581519 0.382267 0.128434
0.650283 0.386114 0.132025
0.719287 0.389988 0.135632
0.788511 0.393891 0.139256
0.857939 0.397827 0.142900
0.927556 0.401799 0.146566
0.933060 0.402114 0.146857
0.048060 0.421457 0.106658
0.053090 0.421759 0.106938
0.117785 0.425579 0.110492
0.183637 0.429395 0.114045
0.250227 0.433209 0.117601
0.317363 0.437027 0.121163
0.384936 0.440853 0.124731
0.452885 0.444696 0.128310
0.521164 0.448561 0.131901
0.589734 0.452452 0.135507
0.658564 0.456372 0.139130
0.727632 0.460323 0.142773
0.796918 0.464310 0.146438
0.866405 0.468334 0.150127
0.936080 0.472400 0.153844
0.941588 0.472723 0.154138
0.055588 0.491699 0.113627
0.060640 0.492002 0.113908
0.125515 0.495840 0.117468
0.191474 0.499679 0.121032
0.258142 0.503525 0.124602
0.325353 0.507385 0.128182
0.393007 0.511267 0.131774
0.461035 0.515174 0.135380
0.529387 0.519108 0.139002
0.598026 0.523074 0.142644
0.666922 0.527074 0.146308
0.736053 0.531111 0.149995
0.805400 0.535189 0.153710
0.874946 0.539311 0.157453
0.944678 0.543480 0.161229
0.950191 0.543811 0.161528
0.063149 0.562253 0.120611
0.068221 0.562558 0.120893
0.133266 0.566423 0.124467
0.199341 0.570302 0.128049
0.266114 0.574200 0.131643
0.333420 0.578122 0.135249
0.401159 0.582071 0.138872
0.469264 0.586049 0.142514
0.537688 0.590062 0.146176
0.606396 0.594111 0.149863
0.675357 0.598200 0.153575
0.744551 0.602332 0.157317
0.813958 0.606510 0.161089
0.883556 0.610719 0.164883
0.953322 0.614931 0.168679
0.958837 0.615264 0.168979
0.070759 0.633110 0.127627
0.075850 0.633419 0.127910
0.141081 0.637335 0.131506
0.207289 0.641272 0.135115
0.274169 0.645235 0.138739
0.341567 0.649227 0.142381
0.409389 0.653251 0.146043
0.477571 0.657311 0.149729
0.546067 0.661410 0.153440
0.614842 0.665552 0.157180
0.683869 0.669739 0.160950
0.753119 0.673960 0.164743
0.822564 0.678183 0.168539
0.892188 0.682409 0.172338
0.961975 0.686635 0.176140
0.967491 0.686969 0.176440
0.078464 0.704289 0.134689
0.083574 0.704602 0.134975
0.148985 0.708580 0.138602
0.215321 0.712586 0.142245
0.282306 0.716622 0.145908
0.349795 0.720693 0.149593
0.417700 0.724802 0.153304
0.485957 0.728953 0.157042
0.554524 0.733149 0.160811
0.623362 0.737380 0.164604
0.692432 0.741614 0.168400
0.761711 0.745851 0.172199
0.831180 0.750088 0.176000
0.900823 0.754326 0.179804
0.970625 0.758563 0.183610
0.976142 0.758897 0.183910
0.086268 0.775791 0.141816
0.091395 0.776109 0.142105
0.156977 0.780158 0.145770
0.223438 0.784241 0.149456
0.290525 0.788361 0.153167
0.358104 0.792521 0.156904
0.426089 0.796725 0.160672
0.494417 0.800965 0.164464
0.563035 0.805210 0.168260
0.631906 0.809456 0.172059
0.701004 0.813703 0.175860
0.770307 0.817951 0.179664
0.839795 0.822198 0.183470
0.909452 0.826444 0.187278
0.979265 0.830689 0.191089
0.984783 0.831024 0.191390
0.094170 0.847617 0.149024
0.099312 0.847941 0.149316
0.165056 0.852072 0.153028
0.231637 0.856242 0.156766
0.298825 0.860454 0.160533
0.366488 0.864703 0.164324
0.434535 0.868957 0.168120
0.502905 0.873213 0.171919
0.571557 0.877469 0.175720
0.640456 0.881726 0.179524
0.709577 0.885982 0.183330
0.778898 0.890238 0.187138
0.848399 0.894492 0.190949
0.918066 0.898743 0.194762
0.987884 0.902992 0.198577
0.993402 0.903327 0.198878
0.102165 0.919774 0.156330
0.107323 0.920105 0.156626
0.173221 0.924327 0.160393
0.239917 0.928584 0.164185
0.307184 0.932846 0.167981
0.374903 0.937110 0.171779
0.442993 0.941375 0.175580
0.511399 0.945641 0.179384
0.580079 0.949906 0.183190
0.649002 0.954170 0.186998
0.718141 0.958432 0.190809
0.787474 0.962693 0.194621
0.856983 0.966950 0.198437
0.926654 0.971203 0.202254
0.996473 0.975452 0.206073
1.000000 0.975787 0.206375
0.102800 0.925485 0.156911
0.107959 0.925817 0.157208
0.173870 0.930046 0.160980
0.240572 0.934306 0.164773
0.307845 0.938569 0.168569
0.375568 0.942834 0.172368
0.443661 0.947100 0.176170
0.512069 0.951366 0.179973
0.580752 0.955632 0.183780
0.649676 0.959896 0.187588
0.718816 0.964159 0.191399
0.788150 0.968419 0.195213
0.857660 0.972677 0.199028
0.927331 0.976930 0.202846
0.997149 0.981179 0.206666
1.000000 0.981514 0.206967
0.004568 0.008105 0.121931
0.009268 0.008382 0.122226
0.072332 0.011923 0.125953
0.137502 0.015491 0.129659
0.203653 0.019064 0.133345
0.270463 0.022634 0.137013
0.337771 0.026199 0.140665
0.405480 0.029756 0.144301
0.473525 0.033307 0.147925
0.541861 0.036852 0.151537
0.610453 0.040393 0.155142
0.679273 0.043932 0.158739
0.748301 0.047472 0.162333
0.817519 0.051014 0.165924
0.886914 0.054562 0.169515
0.892399 0.054842 0.169799
0.005127 0.012983 0.122510
0.009843 0.013268 0.122805
0.072944 0.016884 0.126529
0.138125 0.020498 0.130233
0.204282 0.024105 0.133916
0.271096 0.027703 0.137582
0.338407 0.031289 0.141231
0.406118 0.034866 0.144865
0.474165 0.038434 0.148487
0.542503 0.041994 0.152099
0.611096 0.045549 0.155702
0.679918 0.049101 0.159299
0.748948 0.052652 0.162892
0.818168 0.056206 0.166483
0.887563 0.059765 0.170075
0.893049 0.060047 0.170358
0.012348 0.078430 0.129808
0.017184 0.078731 0.130100
0.080691 0.082515 0.133789
0.145999 0.086272 0.137458
0.212231 0.090005 0.141111
0.279096 0.093717 0.144749
0.346446 0.097409 0.148374
0.414188 0.101086 0.151988
0.482263 0.104750 0.155593
0.550624 0.108405 0.159192
0.619240 0.112054 0.162786
0.688084 0.115699 0.166378
0.757134 0.119345 0.169971
0.826376 0.122995 0.173565
0.895793 0.126652 0.177165
0.901281 0.126941 0.177449
0.019694 0.145962 0.137035
0.024595 0.146264 0.137325
0.088422 0.150068 0.140982
0.153851 0.153847 0.144624
0.220156 0.157605 0.148252
0.287074 0.161345 0.151869
0.354464 0.165069 0.155477
0.422241 0.168782 0.159077
0.490346 0.172487 0.162673
0.558735 0.176186 0.166267
0.627377 0.179884 0.169860
0.696245 0.183584 0.173455
0.765321 0.187289 0.177054
0.834588 0.191003 0.180660
0.904040 0.194734 0.184276
0.909531 0.195029 0.184562
0.027099 0.214419 0.144202
0.032046 0.214720 0.144489
0.096141 0.218526 0.148122
0.161686 0.222311 0.151743
0.228065 0.226079 0.155353
0.295037 0.229834 0.158956
0.362471 0.233579 0.162554
0.430285 0.237317 0.166149
0.498423 0.241053 0.169743
0.566843 0.244790 0.173339
0.635515 0.248530 0.176939
0.704412 0.252278 0.180545
0.773524 0.256042 0.184160
0.842843 0.259828 0.187786
0.912354 0.263640 0.191425
0.917850 0.263942 0.191713
0.034543 0.283483 0.151321
0.039525 0.283784 0.151607
0.103854 0.287590 0.155222
0.169511 0.291379 0.158829
0.235964 0.295157 0.162429
0.302992 0.298928 0.166026
0.370473 0.302694 0.169622
0.438328 0.306460 0.173219
0.506503 0.310229 0.176820
0.574957 0.314005 0.180426
0.643668 0.317794 0.184041
0.712619 0.321605 0.187666
0.781793 0.325441 0.191305
0.851172 0.329306 0.194959
0.920742 0.333201 0.198631
0.926242 0.333510 0.198922
0.042018 0.353009 0.158407
0.047028 0.353311 0.158692
0.111567 0.357120 0.162297
0.177333 0.360918 0.165897
0.243862 0.364712 0.169495
0.310949 0.368503 0.173094
0.378479 0.372297 0.176696
0.446377 0.376097 0.180303
0.514597 0.379908 0.183918
0.583110 0.383740 0.187543
0.651886 0.387596 0.191181
0.720902 0.391479 0.194835
0.790138 0.395394 0.198505
0.859577 0.399342 0.202196
0.929205 0.403326 0.205909
0.934709 0.403643 0.206203
0.049522 0.422919 0.165474
0.054557 0.423221 0.165759
0.119287 0.427040 0.169362
0.185161 0.430856 0.172963
0.251765 0.434672 0.176567
0.318913 0.438493 0.180176
