resources/luts/muted-chrome.cube
TITLE "muted-chrome"
LUT_3D_SIZE 6
DOMAIN_MIN 0 0 0
DOMAIN_MAX 1 1 1
0.001800 0.005400 0.003600
0.134314 0.012658 0.010506
0.334517 0.023361 0.020768
0.538576 0.034023 0.031063
0.744992 0.044642 0.041367
0.889075 0.052003 0.048526
0.016716 0.142923 0.017359
0.150681 0.150843 0.024504
0.351225 0.162100 0.034816
0.555457 0.173232 0.045139
0.762011 0.184327 0.055505
0.906190 0.192046 0.062738
0.038991 0.349972 0.037614
0.174170 0.357893 0.044785
0.375240 0.369270 0.055162
0.579805 0.380681 0.065618
0.786759 0.392274 0.076210
0.931283 0.400469 0.083659
0.061558 0.560658 0.057975
0.197684 0.568696 0.065243
0.399443 0.580436 0.075835
0.604637 0.592437 0.086609
0.812161 0.604787 0.097628
0.957028 0.613533 0.105400
0.084625 0.774131 0.078719
0.221731 0.782554 0.086210
0.424328 0.794991 0.097219
0.630119 0.807711 0.108437
0.837994 0.820453 0.119697
0.982977 0.829280 0.127519
0.101118 0.923758 0.093526
0.238836 0.932555 0.101254
0.441892 0.945347 0.112492
0.647890 0.958144 0.123764
0.855867 0.970927 0.135067
1.000000 0.979768 0.142916
0.004568 0.008105 0.121931
0.137502 0.015491 0.129659
0.337771 0.026199 0.140665
0.541861 0.036852 0.151537
0.748301 0.047472 0.162333
0.892399 0.054842 0.169799
0.019694 0.145962 0.137035
0.153851 0.153847 0.144624
0.354464 0.165069 0.155477
0.558735 0.176186 0.166267
0.765321 0.187289 0.177054
0.909531 0.195029 0.184562
0.042018 0.353009 0.158407
0.177333 0.360918 0.165897
0.378479 0.372297 0.176696
0.583110 0.383740 0.187543
0.790138 0.395394 0.198505
0.934709 0.403643 0.206203
0.064624 0.563730 0.179617
0.200880 0.571792 0.187153
0.402751 0.583589 0.198116
0.608029 0.595667 0.209246
0.815625 0.608113 0.220611
0.960514 0.616868 0.228575
0.087795 0.777332 0.201098
0.225022 0.785809 0.208834
0.427724 0.798338 0.220189
0.633564 0.811073 0.231682
0.841464 0.823815 0.243193
0.986456 0.832640 0.251179
0.104363 0.927090 0.216382
0.242182 0.935930 0.224330
0.445301 0.948725 0.235829
0.651331 0.961520 0.247346
0.859321 0.974297 0.258879
1.000000 0.983131 0.266880
0.008739 0.012155 0.300758
0.142094 0.019586 0.308649
0.342459 0.030285 0.319889
0.546596 0.040927 0.331000
0.753073 0.051553 0.342040
0.897196 0.058942 0.349682
0.024005 0.150319 0.316183
0.158421 0.158159 0.323935
0.359134 0.169338 0.335027
0.563463 0.180442 0.346065
0.770098 0.191565 0.357109
0.914371 0.199353 0.364802
0.046392 0.357376 0.338024
0.181898 0.365275 0.345686
0.383153 0.376666 0.356740
0.587897 0.388172 0.367854
0.795033 0.399925 0.379095
0.939673 0.408259 0.386995
0.069061 0.568168 0.359733
0.205512 0.576276 0.367453
0.407544 0.588167 0.378692
0.612944 0.600366 0.390113
0.820632 0.612923 0.401758
0.965549 0.621683 0.409864
0.092395 0.781982 0.381753
0.229793 0.790542 0.389690
0.432637 0.803188 0.401328
0.638537 0.815927 0.413026
0.846470 0.828667 0.424734
0.991472 0.837486 0.432854
0.109069 0.931942 0.397440
0.247017 0.940804 0.405544
0.450222 0.953600 0.417246
0.656294 0.966391 0.428957
0.864299 0.979157 0.440679
1.000000 0.987978 0.448807
0.012978 0.016242 0.483077
0.146678 0.023680 0.491035
0.347139 0.034364 0.502381
0.551326 0.044999 0.513615
0.757843 0.055639 0.524795
0.901994 0.063053 0.532545
0.028332 0.154647 0.498640
0.162985 0.162447 0.506471
0.363800 0.173594 0.517691
0.568190 0.184698 0.528874
0.774890 0.195858 0.540082
0.919233 0.203705 0.547898
0.050775 0.361731 0.520726
0.186465 0.369628 0.528489
0.387838 0.381046 0.539704
0.592708 0.392633 0.550998
0.799953 0.404496 0.562438
0.944661 0.412923 0.570488
0.073526 0.572625 0.542744
0.210169 0.580788 0.550589
0.412362 0.592783 0.562025
0.617883 0.605116 0.573662
0.825644 0.617737 0.585479
0.970585 0.626499 0.593676
0.097024 0.786674 0.565143
0.234590 0.795325 0.573230
0.437556 0.808040 0.585044
0.643511 0.820781 0.596874
0.851472 0.833517 0.608710
0.996481 0.842329 0.616917
0.113793 0.936815 0.581112
0.251857 0.945679 0.589307
0.455142 0.958475 0.601140
0.661252 0.971259 0.612979
0.869266 0.984012 0.624825
1.000000 0.992819 0.633038
0.017253 0.020336 0.667525
0.151254 0.027768 0.675518
0.351812 0.038436 0.686929
0.556053 0.049070 0.698246
0.762613 0.059734 0.709531
0.906796 0.067182 0.717364
0.032670 0.158950 0.683166
0.167547 0.166718 0.691049
0.368465 0.177844 0.702358
0.572920 0.188959 0.713649
0.779706 0.200178 0.724987
0.924120 0.208091 0.732906
0.055168 0.366081 0.705420
0.191036 0.373984 0.713260
0.392547 0.385451 0.724602
0.597543 0.397129 0.736043
0.804896 0.409112 0.747653
0.949674 0.417640 0.755833
0.078023 0.577108 0.727680
0.214853 0.585334 0.735628
0.417204 0.597444 0.747230
0.622846 0.609916 0.759053
0.830659 0.622553 0.770975
0.975621 0.631315 0.779239
0.101683 0.791412 0.750399
0.239412 0.800160 0.758614
0.442478 0.812894 0.770536
0.648484 0.825635 0.782463
0.856468 0.838364 0.794396
1.000000 0.847168 0.802668
0.118525 0.941690 0.766571
0.256701 0.950556 0.774835
0.460060 0.963349 0.786764
0.666201 0.976124 0.798698
0.874220 0.988861 0.810638
1.000000 0.997654 0.818915
0.020230 0.023172 0.796273
0.154421 0.030596 0.804283
0.355048 0.041256 0.815727
0.559327 0.051894 0.827091
0.765920 0.062579 0.838437
0.910136 0.070059 0.846322
0.035683 0.161919 0.811952
0.170707 0.169670 0.819862
0.371697 0.180788 0.831223
0.576199 0.191917 0.842580
0.783057 0.203190 0.853998
0.927520 0.211153 0.861982
0.058218 0.369095 0.834302
0.194206 0.377007 0.842187
0.395825 0.388519 0.853608
0.600908 0.400268 0.865143
0.808336 0.412341 0.876862
0.953159 0.420936 0.885122
0.081157 0.580232 0.856710
0.218115 0.588506 0.864723
0.420575 0.600702 0.876433
0.626290 0.613251 0.888358
0.834135 0.625891 0.900336
0.979109 0.634653 0.908639
0.104929 0.794726 0.879634
0.242761 0.803521 0.887918
0.445891 0.816259 0.899895
0.651929 0.828998 0.911878
0.859926 0.841721 0.923865
1.000000 0.850516 0.932174
0.121809 0.945069 0.895912
0.260058 0.953935 0.904214
0.463466 0.966725 0.916198
0.669626 0.979492 0.928187
0.877645 0.992217 0.940180
1.000000 1.000000 0.948494
