resources/luts/neon-magenta.cube
# Generated by FotoReady. Released under the project GPL-3.0-or-later license.
TITLE "neon-magenta"
LUT_3D_SIZE 5
DOMAIN_MIN 0 0 0
DOMAIN_MAX 1 1 1
0.000000 0.000000 0.276685
0.046150 0.000000 0.263453
0.504653 0.000000 0.212253
0.953244 0.000000 0.181788
0.988595 0.000000 0.172673
0.000000 0.015023 0.263276
0.041567 0.007670 0.252187
0.500358 0.000000 0.204412
0.951815 0.000000 0.174501
0.988469 0.000000 0.165899
0.008241 0.370069 0.134228
0.007071 0.365537 0.123887
0.467016 0.326424 0.126680
0.937738 0.293029 0.129537
1.000000 0.282533 0.129866
0.067329 0.740862 0.127091
0.067132 0.738613 0.127186
0.423929 0.717647 0.123178
0.889693 0.698170 0.117182
1.000000 0.687376 0.115223
0.081596 0.956772 0.116366
0.081596 0.956772 0.116366
0.403589 0.948678 0.113427
0.858838 0.931018 0.113418
1.000000 0.919247 0.115966
0.000000 0.000000 0.400556
0.043605 0.000000 0.388818
0.504032 0.000000 0.337738
0.953351 0.000000 0.303341
0.990816 0.000000 0.291345
0.000000 0.012065 0.390459
0.039020 0.004874 0.381115
0.499646 0.000000 0.332496
0.951868 0.000000 0.298605
0.990737 0.000000 0.287112
0.010280 0.366307 0.267869
0.009118 0.361622 0.259295
0.466570 0.323031 0.230171
0.943724 0.288744 0.220402
1.000000 0.277735 0.218921
0.067747 0.738684 0.196252
0.067428 0.736240 0.184128
0.416838 0.717512 0.146194
0.888913 0.696243 0.118377
1.000000 0.684820 0.126016
0.081868 0.957083 0.161610
0.081780 0.956983 0.147046
0.393184 0.949928 0.113468
0.854936 0.930523 0.113375
1.000000 0.917861 0.115881
0.000000 0.000000 0.836647
0.036451 0.000000 0.827573
0.494967 0.000000 0.789635
0.953733 0.000000 0.742080
0.998860 0.000000 0.715607
0.000000 0.002895 0.829636
0.032179 0.000000 0.824034
0.490776 0.000000 0.786354
0.952075 0.000000 0.739059
0.998816 0.000000 0.713279
0.016785 0.351172 0.727749
0.015768 0.346515 0.725099
0.462788 0.309531 0.708897
0.952790 0.274812 0.673966
1.000000 0.263552 0.656363
0.070819 0.732231 0.636055
0.070545 0.729287 0.629641
0.398826 0.714719 0.592276
0.886428 0.690397 0.552955
1.000000 0.676759 0.544037
0.084452 0.960019 0.587394
0.084336 0.958858 0.578756
0.368841 0.950907 0.536614
0.843544 0.928148 0.502780
1.000000 0.912060 0.494389
0.000000 0.000000 1.000000
0.031293 0.000000 1.000000
0.469458 0.000000 1.000000
0.939561 0.000000 1.000000
1.000000 0.000000 1.000000
0.000000 0.000000 1.000000
0.027709 0.000000 1.000000
0.466581 0.000000 1.000000
0.938208 0.000000 1.000000
1.000000 0.000000 1.000000
0.021910 0.336050 1.000000
0.021111 0.332120 1.000000
0.456395 0.299537 1.000000
0.940888 0.266538 1.000000
1.000000 0.253875 1.000000
0.073329 0.720672 1.000000
0.073136 0.717842 1.000000
0.399035 0.704474 1.000000
0.878306 0.681465 1.000000
1.000000 0.666547 1.000000
0.086876 0.955426 1.000000
0.086734 0.953301 1.000000
0.362013 0.942989 1.000000
0.830770 0.920601 0.998451
1.000000 0.901514 0.984785
0.000000 0.000000 1.000000
0.029080 0.000000 1.000000
0.459352 0.000000 1.000000
0.921180 0.000000 1.000000
1.000000 0.000000 1.000000
0.000000 0.000000 1.000000
0.025877 0.000000 1.000000
0.457046 0.000000 1.000000
0.920546 0.000000 1.000000
1.000000 0.000000 1.000000
0.021298 0.333042 1.000000
0.020554 0.329388 1.000000
0.453048 0.298096 1.000000
0.930175 0.267029 1.000000
1.000000 0.251728 1.000000
0.073115 0.714669 1.000000
0.072943 0.712181 1.000000
0.402744 0.700246 1.000000
0.874311 0.678736 1.000000
1.000000 0.663758 1.000000
0.086998 0.950233 1.000000
0.086878 0.948247 1.000000
0.365515 0.938537 1.000000
0.829937 0.916539 1.000000
1.000000 0.897532 1.000000
