resources/luts/neon-magenta.cube
# Generated by FotoReady. Released under the project GPL-3.0-or-later license.
TITLE "neon-magenta"
LUT_3D_SIZE 9
DOMAIN_MIN 0 0 0
DOMAIN_MAX 1 1 1
0.000000 0.000000 0.276685
0.000000 0.000000 0.276685
0.046150 0.000000 0.263453
0.274308 0.000000 0.235340
0.504653 0.000000 0.212253
0.731944 0.000000 0.194509
0.953244 0.000000 0.181788
0.988614 0.000000 0.173679
0.988595 0.000000 0.172673
0.000000 0.000000 0.276685
0.000000 0.000000 0.276685
0.046150 0.000000 0.263453
0.274308 0.000000 0.235340
0.504653 0.000000 0.212253
0.731944 0.000000 0.194509
0.953244 0.000000 0.181788
0.988614 0.000000 0.173679
0.988595 0.000000 0.172673
0.000000 0.015023 0.263276
0.000000 0.015023 0.263276
0.041567 0.007670 0.252187
0.269222 0.000000 0.226928
0.500358 0.000000 0.204412
0.729010 0.000000 0.186905
0.951815 0.000000 0.174501
0.988485 0.000000 0.166793
0.988469 0.000000 0.165899
0.000000 0.194267 0.185996
0.000000 0.194267 0.185996
0.011899 0.187573 0.176955
0.245731 0.167639 0.159301
0.483691 0.148095 0.146887
0.718294 0.130626 0.138087
0.946804 0.115810 0.132939
1.000000 0.108017 0.130063
1.000000 0.107434 0.129840
0.008241 0.370069 0.134228
0.008241 0.370069 0.134228
0.007071 0.365537 0.123887
0.226202 0.346538 0.125079
0.467016 0.326424 0.126680
0.705777 0.307979 0.128278
0.937738 0.293029 0.129537
1.000000 0.283327 0.129875
1.000000 0.282533 0.129866
0.042992 0.549002 0.129348
0.042992 0.549002 0.129348
0.042394 0.545495 0.129273
0.213136 0.530550 0.129864
0.446904 0.514929 0.130028
0.685563 0.500029 0.129067
0.918808 0.487434 0.127104
1.000000 0.477948 0.125532
1.000000 0.476944 0.125580
0.067329 0.740862 0.127091
0.067329 0.740862 0.127091
0.067132 0.738613 0.127186
0.198987 0.727713 0.125958
0.423929 0.717647 0.123178
0.654985 0.707993 0.120122
0.889693 0.698170 0.117182
1.000000 0.688497 0.115180
1.000000 0.687376 0.115223
0.080929 0.944784 0.116901
0.080929 0.944784 0.116901
0.080896 0.944191 0.116928
0.186098 0.935178 0.115967
0.404638 0.927888 0.113942
0.629896 0.920209 0.112817
0.860480 0.911916 0.113021
1.000000 0.902170 0.114951
1.000000 0.901093 0.114947
0.081596 0.956772 0.116366
0.081596 0.956772 0.116366
0.081596 0.956772 0.116366
0.185497 0.956647 0.115132
0.403589 0.948678 0.113427
0.628500 0.940206 0.112716
0.858838 0.931018 0.113418
1.000000 0.920436 0.115923
1.000000 0.919247 0.115966
0.000000 0.000000 0.276685
0.000000 0.000000 0.276685
0.046150 0.000000 0.263453
0.274308 0.000000 0.235340
0.504653 0.000000 0.212253
0.731944 0.000000 0.194509
0.953244 0.000000 0.181788
0.988614 0.000000 0.173679
0.988595 0.000000 0.172673
0.000000 0.000000 0.276685
0.000000 0.000000 0.276685
0.046150 0.000000 0.263453
0.274308 0.000000 0.235340
0.504653 0.000000 0.212253
0.731944 0.000000 0.194509
0.953244 0.000000 0.181788
0.988614 0.000000 0.173679
0.988595 0.000000 0.172673
0.000000 0.015023 0.263276
0.000000 0.015023 0.263276
0.041567 0.007670 0.252187
0.269222 0.000000 0.226928
0.500358 0.000000 0.204412
0.729010 0.000000 0.186905
0.951815 0.000000 0.174501
0.988485 0.000000 0.166793
0.988469 0.000000 0.165899
0.000000 0.194267 0.185996
0.000000 0.194267 0.185996
0.011899 0.187573 0.176955
0.245731 0.167639 0.159301
0.483691 0.148095 0.146887
0.718294 0.130626 0.138087
0.946804 0.115810 0.132939
1.000000 0.108017 0.130063
1.000000 0.107434 0.129840
0.008241 0.370069 0.134228
0.008241 0.370069 0.134228
0.007071 0.365537 0.123887
0.226202 0.346538 0.125079
0.467016 0.326424 0.126680
0.705777 0.307979 0.128278
0.937738 0.293029 0.129537
1.000000 0.283327 0.129875
1.000000 0.282533 0.129866
0.042992 0.549002 0.129348
0.042992 0.549002 0.129348
0.042394 0.545495 0.129273
0.213136 0.530550 0.129864
0.446904 0.514929 0.130028
0.685563 0.500029 0.129067
0.918808 0.487434 0.127104
1.000000 0.477948 0.125532
1.000000 0.476944 0.125580
0.067329 0.740862 0.127091
0.067329 0.740862 0.127091
0.067132 0.738613 0.127186
0.198987 0.727713 0.125958
0.423929 0.717647 0.123178
0.654985 0.707993 0.120122
0.889693 0.698170 0.117182
1.000000 0.688497 0.115180
1.000000 0.687376 0.115223
0.080929 0.944784 0.116901
0.080929 0.944784 0.116901
0.080896 0.944191 0.116928
0.186098 0.935178 0.115967
0.404638 0.927888 0.113942
0.629896 0.920209 0.112817
0.860480 0.911916 0.113021
1.000000 0.902170 0.114951
1.000000 0.901093 0.114947
0.081596 0.956772 0.116366
0.081596 0.956772 0.116366
0.081596 0.956772 0.116366
0.185497 0.956647 0.115132
0.403589 0.948678 0.113427
0.628500 0.940206 0.112716
0.858838 0.931018 0.113418
1.000000 0.920436 0.115923
1.000000 0.919247 0.115966
0.000000 0.000000 0.400556
0.000000 0.000000 0.400556
0.043605 0.000000 0.388818
0.273222 0.000000 0.362436
0.504032 0.000000 0.337738
0.731720 0.000000 0.318141
0.953351 0.000000 0.303341
0.990842 0.000000 0.292740
0.990816 0.000000 0.291345
0.000000 0.000000 0.400556
0.000000 0.000000 0.400556
0.043605 0.000000 0.388818
0.273222 0.000000 0.362436
0.504032 0.000000 0.337738
0.731720 0.000000 0.318141
0.953351 0.000000 0.303341
0.990842 0.000000 0.292740
0.990816 0.000000 0.291345
0.000000 0.012065 0.390459
0.000000 0.012065 0.390459
0.039020 0.004874 0.381115
0.267647 0.000000 0.357027
0.499646 0.000000 0.332496
0.728714 0.000000 0.313113
0.951868 0.000000 0.298605
0.990760 0.000000 0.288370
0.990737 0.000000 0.287112
0.000000 0.190523 0.318862
0.000000 0.190523 0.318862
0.010502 0.183743 0.312004
0.245304 0.163544 0.294366
0.486419 0.143404 0.279060
0.724281 0.125357 0.267163
0.956128 0.109990 0.258722
1.000000 0.101910 0.252245
1.000000 0.101255 0.251557
0.010280 0.366307 0.267869
0.010280 0.366307 0.267869
0.009118 0.361622 0.259295
0.223092 0.343689 0.242703
0.466570 0.323031 0.230171
0.708472 0.304146 0.224047
0.943724 0.288744 0.220402
1.000000 0.278600 0.218887
1.000000 0.277735 0.218921
0.044222 0.546038 0.231310
0.044222 0.546038 0.231310
0.043445 0.542439 0.220931
0.206499 0.529611 0.202126
0.442924 0.513312 0.187574
0.684549 0.497718 0.175231
0.921263 0.484594 0.173403
1.000000 0.474496 0.175178
1.000000 0.473428 0.175865
0.067747 0.738684 0.196252
0.067747 0.738684 0.196252
0.067428 0.736240 0.184128
0.189019 0.728442 0.162111
0.416838 0.717512 0.146194
0.650927 0.706923 0.129618
0.888913 0.696243 0.118377
1.000000 0.685991 0.124871
1.000000 0.684820 0.126016
0.081088 0.942893 0.163765
0.081088 0.942893 0.163765
0.080961 0.942065 0.149454
0.173010 0.937340 0.126125
0.394532 0.929157 0.113991
0.622961 0.920625 0.112832
0.856824 0.911455 0.112995
1.000000 0.900897 0.114887
1.000000 0.899775 0.114881
0.081868 0.957083 0.161610
0.081868 0.957083 0.161610
0.081780 0.956983 0.147046
0.172066 0.958626 0.123466
0.393184 0.949928 0.113468
0.621291 0.940596 0.112719
0.854936 0.930523 0.113375
1.000000 0.919091 0.115836
1.000000 0.917861 0.115881
0.000000 0.000000 0.618836
0.000000 0.000000 0.618836
0.039630 0.000000 0.608479
0.267382 0.000000 0.586001
0.502951 0.000000 0.562443
0.731324 0.000000 0.537716
0.953516 0.000000 0.517440
0.994770 0.000000 0.500751
0.994725 0.000000 0.498371
0.000000 0.000000 0.618836
0.000000 0.000000 0.618836
0.039630 0.000000 0.608479
0.267382 0.000000 0.586001
0.502951 0.000000 0.562443
0.731324 0.000000 0.537716
0.953516 0.000000 0.517440
0.994770 0.000000 0.500751
0.994725 0.000000 0.498371
0.000000 0.007223 0.610411
0.000000 0.007223 0.610411
0.035170 0.000382 0.602929
0.262050 0.000000 0.581719
0.498444 0.000000 0.557950
0.728215 0.000000 0.533478
0.951948 0.000000 0.513532
0.994703 0.000000 0.497244
0.994662 0.000000 0.495059
0.000000 0.182997 0.545501
0.000000 0.182997 0.545501
0.011449 0.176530 0.541754
0.242296 0.156928 0.529243
0.484907 0.136574 0.511442
0.723591 0.118886 0.493800
0.956208 0.103965 0.479383
1.000000 0.096228 0.466715
1.000000 0.095636 0.465159
0.013739 0.359860 0.495987
0.013739 0.359860 0.495987
0.012590 0.354942 0.490009
0.219772 0.337322 0.477038
0.465964 0.316259 0.461750
0.713145 0.296721 0.448283
0.953719 0.280729 0.437029
1.000000 0.269944 0.427851
1.000000 0.268973 0.426929
0.047029 0.540861 0.453272
0.047029 0.540861 0.453272
0.046287 0.537003 0.445606
0.201271 0.525229 0.428516
0.437186 0.509792 0.409646
0.683596 0.493398 0.393962
0.925605 0.479718 0.384478
1.000000 0.468755 0.378753
1.000000 0.467582 0.378588
0.069291 0.735478 0.410982
0.069291 0.735478 0.410982
0.068995 0.732790 0.401638
0.181455 0.726530 0.379781
0.405987 0.717454 0.356842
0.644966 0.705675 0.338920
0.888147 0.693830 0.324756
1.000000 0.682583 0.323920
1.000000 0.681325 0.324301
0.082146 0.940800 0.372285
0.082146 0.940800 0.372285
0.082023 0.939747 0.360815
0.163829 0.937095 0.336039
0.379299 0.931686 0.312645
0.612773 0.921624 0.298425
0.851835 0.910838 0.285279
1.000000 0.898756 0.279442
1.000000 0.897581 0.280217
0.083122 0.958518 0.369400
0.083122 0.958518 0.369400
0.083051 0.958437 0.357701
0.162795 0.958398 0.332702
0.377587 0.952388 0.309612
0.610779 0.941498 0.296077
0.849657 0.929788 0.283686
1.000000 0.916764 0.276939
1.000000 0.915479 0.277838
0.000000 0.000000 0.836647
0.000000 0.000000 0.836647
0.036451 0.000000 0.827573
0.259626 0.000000 0.807567
0.494967 0.000000 0.789635
0.730993 0.000000 0.768167
0.953733 0.000000 0.742080
0.998925 0.000000 0.719005
0.998860 0.000000 0.715607
0.000000 0.000000 0.836647
0.000000 0.000000 0.836647
0.036451 0.000000 0.827573
0.259626 0.000000 0.807567
0.494967 0.000000 0.789635
0.730993 0.000000 0.768167
0.953733 0.000000 0.742080
0.998925 0.000000 0.719005
0.998860 0.000000 0.715607
0.000000 0.002895 0.829636
0.000000 0.002895 0.829636
0.032179 0.000000 0.824034
0.254861 0.000000 0.804699
0.490776 0.000000 0.786354
0.727778 0.000000 0.764776
0.952075 0.000000 0.739059
0.998876 0.000000 0.716420
0.998816 0.000000 0.713279
0.000000 0.175886 0.771473
0.000000 0.175886 0.771473
0.013641 0.169756 0.771037
0.239445 0.151027 0.764243
0.479476 0.131118 0.749564
0.722075 0.112325 0.731735
0.955120 0.097993 0.711114
1.000000 0.090685 0.692059
1.000000 0.090168 0.689624
0.016785 0.351172 0.727749
0.016785 0.351172 0.727749
0.015768 0.346515 0.725099
0.221016 0.329645 0.719117
0.462788 0.309531 0.708897
0.711437 0.290105 0.691943
0.952790 0.274812 0.673966
1.000000 0.264476 0.658097
1.000000 0.263552 0.656363
0.049857 0.535574 0.685894
0.049857 0.535574 0.685894
0.049153 0.531440 0.681093
0.198589 0.519524 0.669541
0.432371 0.504684 0.654004
0.681578 0.488081 0.634961
0.929163 0.473790 0.617485
1.000000 0.461896 0.603911
1.000000 0.460615 0.602872
0.070819 0.732231 0.636055
0.070819 0.732231 0.636055
0.070545 0.729287 0.629641
0.178160 0.722655 0.613518
0.398826 0.714719 0.592276
0.637777 0.703491 0.570149
0.886428 0.690397 0.552955
1.000000 0.678107 0.544440
1.000000 0.676759 0.544037
0.083260 0.938614 0.590983
0.083260 0.938614 0.590983
0.083140 0.937326 0.582507
0.160744 0.934151 0.563587
0.370621 0.930395 0.540275
0.601332 0.921794 0.519228
0.845986 0.909340 0.505155
1.000000 0.895611 0.496755
1.000000 0.894381 0.496881
0.084452 0.960019 0.587394
0.084452 0.960019 0.587394
0.084336 0.958858 0.578756
0.159799 0.955220 0.559757
0.368841 0.950907 0.536614
0.599030 0.941558 0.516035
0.843544 0.928148 0.502780
1.000000 0.913405 0.494089
1.000000 0.912060 0.494389
0.000000 0.000000 1.000000
0.000000 0.000000 1.000000
0.034196 0.000000 1.000000
0.252579 0.000000 1.000000
0.482729 0.000000 1.000000
0.720599 0.000000 0.993979
0.953987 0.000000 0.973548
1.000000 0.000000 0.943893
1.000000 0.000000 0.939464
0.000000 0.000000 1.000000
0.000000 0.000000 1.000000
0.034196 0.000000 1.000000
0.252579 0.000000 1.000000
0.482729 0.000000 1.000000
0.720599 0.000000 0.993979
0.953987 0.000000 0.973548
1.000000 0.000000 0.943893
1.000000 0.000000 0.939464
0.000000 0.000000 1.000000
0.000000 0.000000 1.000000
0.030210 0.000000 1.000000
0.248417 0.000000 1.000000
0.479178 0.000000 1.000000
0.717735 0.000000 0.991910
0.952237 0.000000 0.971460
1.000000 0.000000 0.942277
1.000000 0.000000 0.938168
0.000000 0.169508 0.991749
0.000000 0.169508 0.991749
0.016933 0.163703 0.994744
0.237522 0.145897 0.993804
0.472354 0.127370 0.980839
0.714200 0.108338 0.968156
0.953960 0.091896 0.949761
1.000000 0.085042 0.924123
1.000000 0.084600 0.920801
0.019777 0.342956 0.953578
0.019777 0.342956 0.953578
0.018912 0.338634 0.954458
0.223634 0.322661 0.955810
0.459632 0.303846 0.951360
0.705310 0.285240 0.937211
0.950344 0.269224 0.918297
1.000000 0.259526 0.895677
1.000000 0.258667 0.893147
0.052024 0.526911 0.916642
0.052024 0.526911 0.916642
0.051445 0.523064 0.915393
0.203984 0.512036 0.910723
0.432355 0.498402 0.902227
0.676847 0.482968 0.888217
0.926055 0.468821 0.866824
1.000000 0.457420 0.846316
1.000000 0.456182 0.844537
0.072306 0.728997 0.867761
0.072306 0.728997 0.867761
0.072051 0.725791 0.864378
0.174699 0.718751 0.854184
0.394733 0.710530 0.839103
0.631680 0.699616 0.820819
0.883686 0.685888 0.800590
1.000000 0.672522 0.784178
1.000000 0.671087 0.782987
0.084421 0.936360 0.816270
0.084421 0.936360 0.816270
0.084302 0.934830 0.810895
0.157587 0.931109 0.798006
0.367083 0.926789 0.781221
0.593930 0.919058 0.762275
0.839080 0.906727 0.744344
1.000000 0.891272 0.733341
1.000000 0.889989 0.732857
0.085648 0.957996 0.812127
0.085648 0.957996 0.812127
0.085505 0.956122 0.806637
0.156739 0.951927 0.793695
0.365434 0.947019 0.777136
0.591598 0.938588 0.758517
0.836382 0.925376 0.741200
1.000000 0.908837 0.730526
1.000000 0.907429 0.730275
0.000000 0.000000 1.000000
0.000000 0.000000 1.000000
0.031293 0.000000 1.000000
0.244643 0.000000 1.000000
0.469458 0.000000 1.000000
0.701778 0.000000 1.000000
0.939561 0.000000 1.000000
1.000000 0.000000 1.000000
1.000000 0.000000 1.000000
0.000000 0.000000 1.000000
0.000000 0.000000 1.000000
0.031293 0.000000 1.000000
0.244643 0.000000 1.000000
0.469458 0.000000 1.000000
0.701778 0.000000 1.000000
0.939561 0.000000 1.000000
1.000000 0.000000 1.000000
1.000000 0.000000 1.000000
0.000000 0.000000 1.000000
0.000000 0.000000 1.000000
0.027709 0.000000 1.000000
0.241118 0.000000 1.000000
0.466581 0.000000 1.000000
0.699627 0.000000 1.000000
0.938208 0.000000 1.000000
1.000000 0.000000 1.000000
1.000000 0.000000 1.000000
0.000000 0.164740 1.000000
0.000000 0.164740 1.000000
0.019753 0.159304 1.000000
0.234853 0.142554 1.000000
0.464568 0.125349 1.000000
0.701102 0.107732 1.000000
0.942488 0.090106 1.000000
1.000000 0.079627 1.000000
1.000000 0.079228 1.000000
0.021910 0.336050 1.000000
0.021910 0.336050 1.000000
0.021111 0.332120 1.000000
0.226254 0.317078 1.000000
0.456395 0.299537 1.000000
0.696564 0.282596 1.000000
0.940888 0.266538 1.000000
1.000000 0.254672 1.000000
1.000000 0.253875 1.000000
0.053899 0.518608 1.000000
0.053899 0.518608 1.000000
0.053420 0.515164 1.000000
0.211465 0.505243 1.000000
0.433623 0.492987 1.000000
0.671981 0.479056 1.000000
0.918253 0.465751 1.000000
1.000000 0.453427 1.000000
1.000000 0.452257 1.000000
0.073329 0.720672 1.000000
0.073329 0.720672 1.000000
0.073136 0.717842 1.000000
0.184163 0.711787 1.000000
0.399035 0.704474 1.000000
0.630740 0.694412 1.000000
0.878306 0.681465 1.000000
1.000000 0.667931 1.000000
1.000000 0.666547 1.000000
0.085631 0.934045 1.000000
0.085631 0.934045 1.000000
0.085514 0.932266 1.000000
0.154389 0.927981 1.000000
0.363523 0.923057 1.000000
0.590071 0.914621 1.000000
0.833459 0.902226 1.000000
1.000000 0.885679 0.988465
1.000000 0.884335 0.987434
0.086876 0.955426 1.000000
0.086876 0.955426 1.000000
0.086734 0.953301 1.000000
0.153648 0.948532 1.000000
0.362013 0.942989 1.000000
0.587910 0.933825 1.000000
0.830770 0.920601 0.998451
1.000000 0.902999 0.985515
1.000000 0.901514 0.984785
0.000000 0.000000 1.000000
0.000000 0.000000 1.000000
0.029018 0.000000 1.000000
0.238510 0.000000 1.000000
0.459290 0.000000 1.000000
0.687489 0.000000 1.000000
0.921118 0.000000 1.000000
1.000000 0.000000 1.000000
1.000000 0.000000 1.000000
0.000000 0.000000 1.000000
0.000000 0.000000 1.000000
0.029018 0.000000 1.000000
0.238510 0.000000 1.000000
0.459290 0.000000 1.000000
0.687489 0.000000 1.000000
0.921118 0.000000 1.000000
1.000000 0.000000 1.000000
1.000000 0.000000 1.000000
0.000000 0.000000 1.000000
0.000000 0.000000 1.000000
0.025819 0.000000 1.000000
0.235490 0.000000 1.000000
0.456991 0.000000 1.000000
0.685988 0.000000 1.000000
0.920488 0.000000 1.000000
1.000000 0.000000 1.000000
1.000000 0.000000 1.000000
0.000000 0.162879 1.000000
0.000000 0.162879 1.000000
0.020922 0.157672 1.000000
0.232154 0.141706 1.000000
0.458157 0.125517 1.000000
0.690922 0.108925 1.000000
0.928511 0.092323 1.000000
1.000000 0.079042 1.000000
1.000000 0.077605 1.000000
0.021289 0.332994 1.000000
0.021289 0.332994 1.000000
0.020545 0.329343 1.000000
0.226765 0.314839 1.000000
0.452988 0.298052 1.000000
0.689483 0.282079 1.000000
0.930114 0.266982 1.000000
1.000000 0.253236 1.000000
1.000000 0.251677 1.000000
0.053269 0.514092 1.000000
0.053269 0.514092 1.000000
0.052827 0.510961 1.000000
0.215395 0.501574 1.000000
0.433638 0.489910 1.000000
0.668125 0.476669 1.000000
0.910812 0.464356 1.000000
1.000000 0.451233 1.000000
1.000000 0.449595 1.000000
0.073111 0.714615 1.000000
0.073111 0.714615 1.000000
0.072939 0.712128 1.000000
0.191675 0.706851 1.000000
0.402694 0.700191 1.000000
0.630498 0.690812 1.000000
0.874257 0.678683 1.000000
1.000000 0.665279 1.000000
1.000000 0.663701 1.000000
0.085692 0.928309 1.000000
0.085692 0.928309 1.000000
0.085602 0.926772 1.000000
0.161820 0.923079 1.000000
0.368153 0.918550 1.000000
0.591921 0.910495 1.000000
0.832601 0.898439 1.000000
1.000000 0.882093 1.000000
1.000000 0.880740 1.000000
0.086998 0.950233 1.000000
0.086998 0.950233 1.000000
0.086878 0.948248 1.000000
0.159279 0.943854 1.000000
0.365456 0.938539 1.000000
0.589160 0.929590 1.000000
0.829871 0.916544 1.000000
1.000000 0.899034 1.000000
1.000000 0.897532 1.000000
0.000000 0.000000 1.000000
0.000000 0.000000 1.000000
0.029080 0.000000 1.000000
0.238572 0.000000 1.000000
0.459352 0.000000 1.000000
0.687551 0.000000 1.000000
0.921180 0.000000 1.000000
1.000000 0.000000 1.000000
1.000000 0.000000 1.000000
0.000000 0.000000 1.000000
0.000000 0.000000 1.000000
0.029080 0.000000 1.000000
0.238572 0.000000 1.000000
0.459352 0.000000 1.000000
0.687551 0.000000 1.000000
0.921180 0.000000 1.000000
1.000000 0.000000 1.000000
1.000000 0.000000 1.000000
0.000000 0.000000 1.000000
0.000000 0.000000 1.000000
0.025877 0.000000 1.000000
0.235543 0.000000 1.000000
0.457046 0.000000 1.000000
0.686045 0.000000 1.000000
0.920546 0.000000 1.000000
1.000000 0.000000 1.000000
1.000000 0.000000 1.000000
0.000000 0.162926 1.000000
0.000000 0.162926 1.000000
0.020981 0.157715 1.000000
0.232215 0.141749 1.000000
0.458220 0.125560 1.000000
0.690986 0.108967 1.000000
0.928576 0.092366 1.000000
1.000000 0.079085 1.000000
1.000000 0.077652 1.000000
0.021298 0.333042 1.000000
0.021298 0.333042 1.000000
0.020554 0.329388 1.000000
0.226825 0.314883 1.000000
0.453048 0.298096 1.000000
0.689543 0.282125 1.000000
0.930175 0.267029 1.000000
1.000000 0.253283 1.000000
1.000000 0.251728 1.000000
0.053276 0.514142 1.000000
0.053276 0.514142 1.000000
0.052834 0.511010 1.000000
0.215449 0.501623 1.000000
0.433693 0.489960 1.000000
0.668180 0.476720 1.000000
0.910867 0.464408 1.000000
1.000000 0.451284 1.000000
1.000000 0.449650 1.000000
0.073115 0.714669 1.000000
0.073115 0.714669 1.000000
0.072943 0.712181 1.000000
0.191725 0.706905 1.000000
0.402744 0.700246 1.000000
0.630550 0.690867 1.000000
0.874311 0.678736 1.000000
1.000000 0.665331 1.000000
1.000000 0.663758 1.000000
0.085696 0.928365 1.000000
0.085696 0.928365 1.000000
0.085606 0.926826 1.000000
0.161868 0.923134 1.000000
0.368203 0.918605 1.000000
0.591973 0.910548 1.000000
0.832656 0.898491 1.000000
1.000000 0.882143 1.000000
1.000000 0.880795 1.000000
0.086998 0.950233 1.000000
0.086998 0.950233 1.000000
0.086878 0.948247 1.000000
0.159335 0.943853 1.000000
0.365515 0.938537 1.000000
0.589223 0.929587 1.000000
0.829937 0.916539 1.000000
1.000000 0.899029 1.000000
1.000000 0.897532 1.000000
