resources/luts/neon-magenta.cube
# Generated by FotoReady. Released under the project GPL-3.0-or-later license.
TITLE "neon-magenta"
LUT_3D_SIZE 17
DOMAIN_MIN 0 0 0
DOMAIN_MAX 1 1 1
0.000000 0.000000 0.276685
0.000000 0.000000 0.276685
0.000000 0.000000 0.276685
0.000000 0.000000 0.276685
0.046150 0.000000 0.263453
0.159468 0.000000 0.248885
0.274308 0.000000 0.235340
0.389617 0.000000 0.223119
0.504653 0.000000 0.212253
0.618895 0.000000 0.202728
0.731944 0.000000 0.194509
0.843483 0.000000 0.187547
0.953244 0.000000 0.181788
0.988681 0.000000 0.177293
0.988614 0.000000 0.173679
0.988595 0.000000 0.172673
0.988595 0.000000 0.172673
0.000000 0.000000 0.276685
0.000000 0.000000 0.276685
0.000000 0.000000 0.276685
0.000000 0.000000 0.276685
0.046150 0.000000 0.263453
0.159468 0.000000 0.248885
0.274308 0.000000 0.235340
0.389617 0.000000 0.223119
0.504653 0.000000 0.212253
0.618895 0.000000 0.202728
0.731944 0.000000 0.194509
0.843483 0.000000 0.187547
0.953244 0.000000 0.181788
0.988681 0.000000 0.177293
0.988614 0.000000 0.173679
0.988595 0.000000 0.172673
0.988595 0.000000 0.172673
0.000000 0.000000 0.276685
0.000000 0.000000 0.276685
0.000000 0.000000 0.276685
0.000000 0.000000 0.276685
0.046150 0.000000 0.263453
0.159468 0.000000 0.248885
0.274308 0.000000 0.235340
0.389617 0.000000 0.223119
0.504653 0.000000 0.212253
0.618895 0.000000 0.202728
0.731944 0.000000 0.194509
0.843483 0.000000 0.187547
0.953244 0.000000 0.181788
0.988681 0.000000 0.177293
0.988614 0.000000 0.173679
0.988595 0.000000 0.172673
0.988595 0.000000 0.172673
0.000000 0.000000 0.276685
0.000000 0.000000 0.276685
0.000000 0.000000 0.276685
0.000000 0.000000 0.276685
0.046911 0.000000 0.263357
0.160211 0.000000 0.248793
0.275038 0.000000 0.235258
0.390333 0.000000 0.223047
0.505354 0.000000 0.212191
0.619581 0.000000 0.202675
0.732615 0.000000 0.194464
0.844136 0.000000 0.187509
0.953880 0.000000 0.181758
0.988681 0.000000 0.177270
0.988613 0.000000 0.173660
0.988595 0.000000 0.172673
0.988595 0.000000 0.172673
0.000000 0.015023 0.263276
0.000000 0.015023 0.263276
0.000000 0.015023 0.263276
0.000000 0.015203 0.263187
0.041567 0.007670 0.252187
0.154649 0.000000 0.239229
0.269222 0.000000 0.226928
0.384699 0.000000 0.215192
0.500358 0.000000 0.204412
0.615261 0.000000 0.194995
0.729010 0.000000 0.186905
0.841283 0.000000 0.180092
0.951815 0.000000 0.174501
0.988549 0.000000 0.170198
0.988485 0.000000 0.166793
0.988469 0.000000 0.165899
0.988469 0.000000 0.165899
0.000000 0.105264 0.221295
0.000000 0.105264 0.221295
0.000000 0.105264 0.221295
0.000000 0.105435 0.221220
0.025113 0.097726 0.212020
0.140540 0.088333 0.201291
0.257763 0.078986 0.191427
0.375375 0.069899 0.182453
0.492667 0.061172 0.174441
0.609149 0.052885 0.167431
0.724456 0.045107 0.161441
0.838300 0.037902 0.156477
0.950441 0.031331 0.152532
0.998972 0.027132 0.149382
0.998465 0.024956 0.146905
0.998352 0.024475 0.146322
0.998352 0.024475 0.146322
0.000000 0.194267 0.185996
0.000000 0.194267 0.185996
0.000000 0.194267 0.185996
0.000000 0.194423 0.185925
0.011899 0.187573 0.176955
0.127053 0.177845 0.167447
0.245731 0.167639 0.159301
0.364898 0.157650 0.152653
0.483691 0.148095 0.146887
0.601614 0.139062 0.142028
0.718294 0.130626 0.138087
0.833439 0.122854 0.135061
0.946804 0.115810 0.132939
1.000000 0.110649 0.131362
1.000000 0.108017 0.130063
1.000000 0.107434 0.129840
1.000000 0.107434 0.129840
0.000000 0.282281 0.157402
0.000000 0.282281 0.157402
0.000000 0.282281 0.157402
0.000000 0.282351 0.157201
0.002384 0.276788 0.147710
0.116587 0.267089 0.139433
0.234805 0.256932 0.131360
0.355184 0.246489 0.125351
0.475293 0.236370 0.124113
0.594484 0.226850 0.124786
0.712347 0.218030 0.125561
0.828579 0.209981 0.126394
0.942934 0.202770 0.127243
1.000000 0.196926 0.127882
1.000000 0.193780 0.127783
1.000000 0.193093 0.127761
1.000000 0.193093 0.127761
0.008241 0.370069 0.134228
0.008241 0.370069 0.134228
0.008241 0.370069 0.134228
0.008235 0.370077 0.133861
0.007071 0.365537 0.123887
0.109089 0.356380 0.124389
0.226202 0.346538 0.125079
0.345939 0.336552 0.125859
0.467016 0.326424 0.126680
0.587101 0.316801 0.127498
0.705777 0.307979 0.128278
0.822740 0.300032 0.128973
0.937738 0.293029 0.129537
1.000000 0.287058 0.129918
1.000000 0.283327 0.129875
1.000000 0.282533 0.129866
1.000000 0.282533 0.129866
0.026235 0.458552 0.126715
0.026235 0.458552 0.126715
0.026235 0.458552 0.126715
0.026227 0.458511 0.126713
0.025427 0.454488 0.126578
0.103832 0.446471 0.127063
0.219365 0.437370 0.127839
0.337396 0.428244 0.128570
0.457341 0.419175 0.129210
0.578038 0.410077 0.129703
0.697225 0.401606 0.130006
0.814615 0.394118 0.130077
0.929953 0.387681 0.129870
1.000000 0.382346 0.129354
1.000000 0.377939 0.129333
1.000000 0.377033 0.129355
1.000000 0.377033 0.129355
0.042992 0.549002 0.129348
0.042992 0.549002 0.129348
0.042992 0.549002 0.129348
0.042981 0.548937 0.129347
0.042394 0.545495 0.129273
0.099510 0.538553 0.129471
0.213136 0.530550 0.129864
0.329127 0.522647 0.130067
0.446904 0.514929 0.130028
0.566079 0.507463 0.129693
0.685563 0.500029 0.129067
0.803184 0.493231 0.128193
0.918808 0.487434 0.127104
1.000000 0.482636 0.125838
1.000000 0.477948 0.125532
1.000000 0.476944 0.125580
1.000000 0.476944 0.125580
0.056987 0.642821 0.129922
0.056987 0.642821 0.129922
0.056987 0.642821 0.129922
0.056978 0.642752 0.129923
0.056614 0.639896 0.129954
0.095055 0.633773 0.129896
0.206453 0.627218 0.129440
0.320129 0.620841 0.128716
0.435563 0.614658 0.127753
0.552431 0.608673 0.126582
0.670515 0.602877 0.125241
0.788763 0.596907 0.123804
0.905013 0.591378 0.122314
1.000000 0.586737 0.120792
1.000000 0.581995 0.120147
1.000000 0.580918 0.120204
1.000000 0.580918 0.120204
0.067329 0.740862 0.127091
0.067329 0.740862 0.127091
0.067329 0.740862 0.127091
0.067325 0.740815 0.127093
0.067132 0.738613 0.127186
0.089745 0.732907 0.127144
0.198987 0.727713 0.125958
0.310550 0.722625 0.124624
0.423929 0.717647 0.123178
0.538811 0.712775 0.121663
0.654985 0.707993 0.120122
0.772303 0.703278 0.118601
0.889693 0.698170 0.117182
1.000000 0.693299 0.115903
1.000000 0.688497 0.115180
1.000000 0.687376 0.115223
1.000000 0.687376 0.115223
0.074874 0.842039 0.122112
0.074874 0.842039 0.122112
0.074874 0.842039 0.122112
0.074874 0.842044 0.122112
0.074780 0.840587 0.122189
0.084394 0.835019 0.122330
0.191792 0.830831 0.120889
0.301559 0.826667 0.119427
0.413207 0.822525 0.117993
0.526431 0.818390 0.116633
0.641027 0.814240 0.115396
0.756855 0.810051 0.114334
0.873814 0.805791 0.113497
0.990778 0.800917 0.112950
1.000000 0.795804 0.112736
1.000000 0.794671 0.112741
1.000000 0.794671 0.112741
0.080929 0.944784 0.116901
0.080929 0.944784 0.116901
0.080929 0.944784 0.116901
0.080934 0.944871 0.116897
0.080896 0.944191 0.116928
0.080591 0.938729 0.117180
0.186098 0.935178 0.115967
0.294393 0.931571 0.114868
0.404638 0.927888 0.113942
0.516538 0.924110 0.113240
0.629896 0.920209 0.112817
0.744576 0.916155 0.112725
0.860480 0.911916 0.113021
0.977540 0.907456 0.113759
1.000000 0.902170 0.114951
1.000000 0.901093 0.114947
1.000000 0.901093 0.114947
0.081596 0.956772 0.116366
0.081596 0.956772 0.116366
0.081596 0.956772 0.116366
0.081596 0.956772 0.116366
0.081596 0.956772 0.116366
0.081596 0.956772 0.116366
0.185497 0.956647 0.115132
0.293555 0.952715 0.114181
0.403589 0.948678 0.113427
0.515302 0.944516 0.112921
0.628500 0.940206 0.112716
0.743044 0.935717 0.112864
0.858838 0.931018 0.113418
0.975814 0.926075 0.114432
1.000000 0.920436 0.115923
1.000000 0.919247 0.115966
1.000000 0.919247 0.115966
0.081596 0.956772 0.116366
0.081596 0.956772 0.116366
0.081596 0.956772 0.116366
0.081596 0.956772 0.116366
0.081596 0.956772 0.116366
0.081596 0.956772 0.116366
0.185497 0.956647 0.115132
0.293555 0.952715 0.114181
0.403589 0.948678 0.113427
0.515302 0.944516 0.112921
0.628500 0.940206 0.112716
0.743044 0.935717 0.112864
0.858838 0.931018 0.113418
0.975814 0.926075 0.114432
1.000000 0.920436 0.115923
1.000000 0.919247 0.115966
1.000000 0.919247 0.115966
0.000000 0.000000 0.276685
0.000000 0.000000 0.276685
0.000000 0.000000 0.276685
0.000000 0.000000 0.276685
0.046150 0.000000 0.263453
0.159468 0.000000 0.248885
0.274308 0.000000 0.235340
0.389617 0.000000 0.223119
0.504653 0.000000 0.212253
0.618895 0.000000 0.202728
0.731944 0.000000 0.194509
0.843483 0.000000 0.187547
0.953244 0.000000 0.181788
0.988681 0.000000 0.177293
0.988614 0.000000 0.173679
0.988595 0.000000 0.172673
0.988595 0.000000 0.172673
0.000000 0.000000 0.276685
0.000000 0.000000 0.276685
0.000000 0.000000 0.276685
0.000000 0.000000 0.276685
0.046150 0.000000 0.263453
0.159468 0.000000 0.248885
0.274308 0.000000 0.235340
0.389617 0.000000 0.223119
0.504653 0.000000 0.212253
0.618895 0.000000 0.202728
0.731944 0.000000 0.194509
0.843483 0.000000 0.187547
0.953244 0.000000 0.181788
0.988681 0.000000 0.177293
0.988614 0.000000 0.173679
0.988595 0.000000 0.172673
0.988595 0.000000 0.172673
0.000000 0.000000 0.276685
0.000000 0.000000 0.276685
0.000000 0.000000 0.276685
0.000000 0.000000 0.276685
0.046150 0.000000 0.263453
0.159468 0.000000 0.248885
0.274308 0.000000 0.235340
0.389617 0.000000 0.223119
0.504653 0.000000 0.212253
0.618895 0.000000 0.202728
0.731944 0.000000 0.194509
0.843483 0.000000 0.187547
0.953244 0.000000 0.181788
0.988681 0.000000 0.177293
0.988614 0.000000 0.173679
0.988595 0.000000 0.172673
0.988595 0.000000 0.172673
0.000000 0.000000 0.276685
0.000000 0.000000 0.276685
0.000000 0.000000 0.276685
0.000000 0.000000 0.276685
0.046911 0.000000 0.263357
0.160211 0.000000 0.248793
0.275038 0.000000 0.235258
0.390333 0.000000 0.223047
0.505354 0.000000 0.212191
0.619581 0.000000 0.202675
0.732615 0.000000 0.194464
0.844136 0.000000 0.187509
0.953880 0.000000 0.181758
0.988681 0.000000 0.177270
0.988613 0.000000 0.173660
0.988595 0.000000 0.172673
0.988595 0.000000 0.172673
0.000000 0.015023 0.263276
0.000000 0.015023 0.263276
0.000000 0.015023 0.263276
0.000000 0.015203 0.263187
0.041567 0.007670 0.252187
0.154649 0.000000 0.239229
0.269222 0.000000 0.226928
0.384699 0.000000 0.215192
0.500358 0.000000 0.204412
0.615261 0.000000 0.194995
0.729010 0.000000 0.186905
0.841283 0.000000 0.180092
0.951815 0.000000 0.174501
0.988549 0.000000 0.170198
0.988485 0.000000 0.166793
0.988469 0.000000 0.165899
0.988469 0.000000 0.165899
0.000000 0.105264 0.221295
0.000000 0.105264 0.221295
0.000000 0.105264 0.221295
0.000000 0.105435 0.221220
0.025113 0.097726 0.212020
0.140540 0.088333 0.201291
0.257763 0.078986 0.191427
0.375375 0.069899 0.182453
0.492667 0.061172 0.174441
0.609149 0.052885 0.167431
0.724456 0.045107 0.161441
0.838300 0.037902 0.156477
0.950441 0.031331 0.152532
0.998972 0.027132 0.149382
0.998465 0.024956 0.146905
0.998352 0.024475 0.146322
0.998352 0.024475 0.146322
0.000000 0.194267 0.185996
0.000000 0.194267 0.185996
0.000000 0.194267 0.185996
0.000000 0.194423 0.185925
0.011899 0.187573 0.176955
0.127053 0.177845 0.167447
0.245731 0.167639 0.159301
0.364898 0.157650 0.152653
0.483691 0.148095 0.146887
0.601614 0.139062 0.142028
0.718294 0.130626 0.138087
0.833439 0.122854 0.135061
0.946804 0.115810 0.132939
1.000000 0.110649 0.131362
1.000000 0.108017 0.130063
1.000000 0.107434 0.129840
1.000000 0.107434 0.129840
0.000000 0.282281 0.157402
0.000000 0.282281 0.157402
0.000000 0.282281 0.157402
0.000000 0.282351 0.157201
0.002384 0.276788 0.147710
0.116587 0.267089 0.139433
0.234805 0.256932 0.131360
0.355184 0.246489 0.125351
0.475293 0.236370 0.124113
0.594484 0.226850 0.124786
0.712347 0.218030 0.125561
0.828579 0.209981 0.126394
0.942934 0.202770 0.127243
1.000000 0.196926 0.127882
1.000000 0.193780 0.127783
1.000000 0.193093 0.127761
1.000000 0.193093 0.127761
0.008241 0.370069 0.134228
0.008241 0.370069 0.134228
0.008241 0.370069 0.134228
0.008235 0.370077 0.133861
0.007071 0.365537 0.123887
0.109089 0.356380 0.124389
0.226202 0.346538 0.125079
0.345939 0.336552 0.125859
0.467016 0.326424 0.126680
0.587101 0.316801 0.127498
0.705777 0.307979 0.128278
0.822740 0.300032 0.128973
0.937738 0.293029 0.129537
1.000000 0.287058 0.129918
1.000000 0.283327 0.129875
1.000000 0.282533 0.129866
1.000000 0.282533 0.129866
0.026235 0.458552 0.126715
0.026235 0.458552 0.126715
0.026235 0.458552 0.126715
0.026227 0.458511 0.126713
0.025427 0.454488 0.126578
0.103832 0.446471 0.127063
0.219365 0.437370 0.127839
0.337396 0.428244 0.128570
0.457341 0.419175 0.129210
0.578038 0.410077 0.129703
0.697225 0.401606 0.130006
0.814615 0.394118 0.130077
0.929953 0.387681 0.129870
1.000000 0.382346 0.129354
1.000000 0.377939 0.129333
1.000000 0.377033 0.129355
1.000000 0.377033 0.129355
0.042992 0.549002 0.129348
0.042992 0.549002 0.129348
0.042992 0.549002 0.129348
0.042981 0.548937 0.129347
0.042394 0.545495 0.129273
0.099510 0.538553 0.129471
0.213136 0.530550 0.129864
0.329127 0.522647 0.130067
0.446904 0.514929 0.130028
0.566079 0.507463 0.129693
0.685563 0.500029 0.129067
0.803184 0.493231 0.128193
0.918808 0.487434 0.127104
1.000000 0.482636 0.125838
1.000000 0.477948 0.125532
1.000000 0.476944 0.125580
1.000000 0.476944 0.125580
0.056987 0.642821 0.129922
0.056987 0.642821 0.129922
0.056987 0.642821 0.129922
0.056978 0.642752 0.129923
0.056614 0.639896 0.129954
0.095055 0.633773 0.129896
0.206453 0.627218 0.129440
0.320129 0.620841 0.128716
0.435563 0.614658 0.127753
0.552431 0.608673 0.126582
0.670515 0.602877 0.125241
0.788763 0.596907 0.123804
0.905013 0.591378 0.122314
1.000000 0.586737 0.120792
1.000000 0.581995 0.120147
1.000000 0.580918 0.120204
1.000000 0.580918 0.120204
0.067329 0.740862 0.127091
0.067329 0.740862 0.127091
0.067329 0.740862 0.127091
0.067325 0.740815 0.127093
0.067132 0.738613 0.127186
0.089745 0.732907 0.127144
0.198987 0.727713 0.125958
0.310550 0.722625 0.124624
0.423929 0.717647 0.123178
0.538811 0.712775 0.121663
0.654985 0.707993 0.120122
0.772303 0.703278 0.118601
0.889693 0.698170 0.117182
1.000000 0.693299 0.115903
1.000000 0.688497 0.115180
1.000000 0.687376 0.115223
1.000000 0.687376 0.115223
0.074874 0.842039 0.122112
0.074874 0.842039 0.122112
0.074874 0.842039 0.122112
0.074874 0.842044 0.122112
0.074780 0.840587 0.122189
0.084394 0.835019 0.122330
0.191792 0.830831 0.120889
0.301559 0.826667 0.119427
0.413207 0.822525 0.117993
0.526431 0.818390 0.116633
0.641027 0.814240 0.115396
0.756855 0.810051 0.114334
0.873814 0.805791 0.113497
0.990778 0.800917 0.112950
1.000000 0.795804 0.112736
1.000000 0.794671 0.112741
1.000000 0.794671 0.112741
0.080929 0.944784 0.116901
0.080929 0.944784 0.116901
0.080929 0.944784 0.116901
0.080934 0.944871 0.116897
0.080896 0.944191 0.116928
0.080591 0.938729 0.117180
0.186098 0.935178 0.115967
0.294393 0.931571 0.114868
0.404638 0.927888 0.113942
0.516538 0.924110 0.113240
0.629896 0.920209 0.112817
0.744576 0.916155 0.112725
0.860480 0.911916 0.113021
0.977540 0.907456 0.113759
1.000000 0.902170 0.114951
1.000000 0.901093 0.114947
1.000000 0.901093 0.114947
0.081596 0.956772 0.116366
0.081596 0.956772 0.116366
0.081596 0.956772 0.116366
0.081596 0.956772 0.116366
0.081596 0.956772 0.116366
0.081596 0.956772 0.116366
0.185497 0.956647 0.115132
0.293555 0.952715 0.114181
0.403589 0.948678 0.113427
0.515302 0.944516 0.112921
0.628500 0.940206 0.112716
0.743044 0.935717 0.112864
0.858838 0.931018 0.113418
0.975814 0.926075 0.114432
1.000000 0.920436 0.115923
1.000000 0.919247 0.115966
1.000000 0.919247 0.115966
0.081596 0.956772 0.116366
0.081596 0.956772 0.116366
0.081596 0.956772 0.116366
0.081596 0.956772 0.116366
0.081596 0.956772 0.116366
0.081596 0.956772 0.116366
0.185497 0.956647 0.115132
0.293555 0.952715 0.114181
0.403589 0.948678 0.113427
0.515302 0.944516 0.112921
0.628500 0.940206 0.112716
0.743044 0.935717 0.112864
0.858838 0.931018 0.113418
0.975814 0.926075 0.114432
1.000000 0.920436 0.115923
1.000000 0.919247 0.115966
1.000000 0.919247 0.115966
0.000000 0.000000 0.276685
0.000000 0.000000 0.276685
0.000000 0.000000 0.276685
0.000000 0.000000 0.276685
0.046150 0.000000 0.263453
0.159468 0.000000 0.248885
0.274308 0.000000 0.235340
0.389617 0.000000 0.223119
0.504653 0.000000 0.212253
0.618895 0.000000 0.202728
0.731944 0.000000 0.194509
0.843483 0.000000 0.187547
0.953244 0.000000 0.181788
0.988681 0.000000 0.177293
0.988614 0.000000 0.173679
0.988595 0.000000 0.172673
0.988595 0.000000 0.172673
0.000000 0.000000 0.276685
0.000000 0.000000 0.276685
0.000000 0.000000 0.276685
0.000000 0.000000 0.276685
0.046150 0.000000 0.263453
0.159468 0.000000 0.248885
0.274308 0.000000 0.235340
0.389617 0.000000 0.223119
0.504653 0.000000 0.212253
0.618895 0.000000 0.202728
0.731944 0.000000 0.194509
0.843483 0.000000 0.187547
0.953244 0.000000 0.181788
0.988681 0.000000 0.177293
0.988614 0.000000 0.173679
0.988595 0.000000 0.172673
0.988595 0.000000 0.172673
0.000000 0.000000 0.276685
0.000000 0.000000 0.276685
0.000000 0.000000 0.276685
0.000000 0.000000 0.276685
0.046150 0.000000 0.263453
0.159468 0.000000 0.248885
0.274308 0.000000 0.235340
0.389617 0.000000 0.223119
0.504653 0.000000 0.212253
0.618895 0.000000 0.202728
0.731944 0.000000 0.194509
0.843483 0.000000 0.187547
0.953244 0.000000 0.181788
0.988681 0.000000 0.177293
0.988614 0.000000 0.173679
0.988595 0.000000 0.172673
0.988595 0.000000 0.172673
0.000000 0.000000 0.276685
0.000000 0.000000 0.276685
0.000000 0.000000 0.276685
0.000000 0.000000 0.276685
0.046911 0.000000 0.263357
0.160211 0.000000 0.248793
0.275038 0.000000 0.235258
0.390333 0.000000 0.223047
0.505354 0.000000 0.212191
0.619581 0.000000 0.202675
0.732615 0.000000 0.194464
0.844136 0.000000 0.187509
0.953880 0.000000 0.181758
0.988681 0.000000 0.177270
0.988613 0.000000 0.173660
0.988595 0.000000 0.172673
0.988595 0.000000 0.172673
0.000000 0.015023 0.263276
0.000000 0.015023 0.263276
0.000000 0.015023 0.263276
0.000000 0.015203 0.263187
0.041567 0.007670 0.252187
0.154649 0.000000 0.239229
0.269222 0.000000 0.226928
0.384699 0.000000 0.215192
0.500358 0.000000 0.204412
0.615261 0.000000 0.194995
0.729010 0.000000 0.186905
0.841283 0.000000 0.180092
0.951815 0.000000 0.174501
0.988549 0.000000 0.170198
0.988485 0.000000 0.166793
0.988469 0.000000 0.165899
0.988469 0.000000 0.165899
0.000000 0.105264 0.221295
0.000000 0.105264 0.221295
0.000000 0.105264 0.221295
0.000000 0.105435 0.221220
0.025113 0.097726 0.212020
0.140540 0.088333 0.201291
0.257763 0.078986 0.191427
0.375375 0.069899 0.182453
0.492667 0.061172 0.174441
0.609149 0.052885 0.167431
0.724456 0.045107 0.161441
0.838300 0.037902 0.156477
0.950441 0.031331 0.152532
0.998972 0.027132 0.149382
0.998465 0.024956 0.146905
0.998352 0.024475 0.146322
0.998352 0.024475 0.146322
0.000000 0.194267 0.185996
0.000000 0.194267 0.185996
0.000000 0.194267 0.185996
0.000000 0.194423 0.185925
0.011899 0.187573 0.176955
0.127053 0.177845 0.167447
0.245731 0.167639 0.159301
0.364898 0.157650 0.152653
0.483691 0.148095 0.146887
0.601614 0.139062 0.142028
0.718294 0.130626 0.138087
0.833439 0.122854 0.135061
0.946804 0.115810 0.132939
1.000000 0.110649 0.131362
1.000000 0.108017 0.130063
1.000000 0.107434 0.129840
1.000000 0.107434 0.129840
0.000000 0.282281 0.157402
0.000000 0.282281 0.157402
0.000000 0.282281 0.157402
0.000000 0.282351 0.157201
0.002384 0.276788 0.147710
0.116587 0.267089 0.139433
0.234805 0.256932 0.131360
0.355184 0.246489 0.125351
0.475293 0.236370 0.124113
0.594484 0.226850 0.124786
0.712347 0.218030 0.125561
0.828579 0.209981 0.126394
0.942934 0.202770 0.127243
1.000000 0.196926 0.127882
1.000000 0.193780 0.127783
1.000000 0.193093 0.127761
1.000000 0.193093 0.127761
0.008241 0.370069 0.134228
0.008241 0.370069 0.134228
0.008241 0.370069 0.134228
0.008235 0.370077 0.133861
0.007071 0.365537 0.123887
0.109089 0.356380 0.124389
0.226202 0.346538 0.125079
0.345939 0.336552 0.125859
0.467016 0.326424 0.126680
0.587101 0.316801 0.127498
0.705777 0.307979 0.128278
0.822740 0.300032 0.128973
0.937738 0.293029 0.129537
1.000000 0.287058 0.129918
1.000000 0.283327 0.129875
1.000000 0.282533 0.129866
1.000000 0.282533 0.129866
0.026235 0.458552 0.126715
0.026235 0.458552 0.126715
0.026235 0.458552 0.126715
0.026227 0.458511 0.126713
0.025427 0.454488 0.126578
0.103832 0.446471 0.127063
0.219365 0.437370 0.127839
0.337396 0.428244 0.128570
0.457341 0.419175 0.129210
0.578038 0.410077 0.129703
0.697225 0.401606 0.130006
0.814615 0.394118 0.130077
0.929953 0.387681 0.129870
1.000000 0.382346 0.129354
1.000000 0.377939 0.129333
1.000000 0.377033 0.129355
1.000000 0.377033 0.129355
0.042992 0.549002 0.129348
0.042992 0.549002 0.129348
0.042992 0.549002 0.129348
0.042981 0.548937 0.129347
0.042394 0.545495 0.129273
0.099510 0.538553 0.129471
0.213136 0.530550 0.129864
0.329127 0.522647 0.130067
0.446904 0.514929 0.130028
0.566079 0.507463 0.129693
0.685563 0.500029 0.129067
0.803184 0.493231 0.128193
0.918808 0.487434 0.127104
1.000000 0.482636 0.125838
1.000000 0.477948 0.125532
1.000000 0.476944 0.125580
1.000000 0.476944 0.125580
0.056987 0.642821 0.129922
0.056987 0.642821 0.129922
0.056987 0.642821 0.129922
0.056978 0.642752 0.129923
0.056614 0.639896 0.129954
0.095055 0.633773 0.129896
0.206453 0.627218 0.129440
0.320129 0.620841 0.128716
0.435563 0.614658 0.127753
0.552431 0.608673 0.126582
0.670515 0.602877 0.125241
0.788763 0.596907 0.123804
0.905013 0.591378 0.122314
1.000000 0.586737 0.120792
1.000000 0.581995 0.120147
1.000000 0.580918 0.120204
1.000000 0.580918 0.120204
0.067329 0.740862 0.127091
0.067329 0.740862 0.127091
0.067329 0.740862 0.127091
0.067325 0.740815 0.127093
0.067132 0.738613 0.127186
0.089745 0.732907 0.127144
0.198987 0.727713 0.125958
0.310550 0.722625 0.124624
0.423929 0.717647 0.123178
0.538811 0.712775 0.121663
0.654985 0.707993 0.120122
0.772303 0.703278 0.118601
0.889693 0.698170 0.117182
1.000000 0.693299 0.115903
1.000000 0.688497 0.115180
1.000000 0.687376 0.115223
1.000000 0.687376 0.115223
0.074874 0.842039 0.122112
0.074874 0.842039 0.122112
0.074874 0.842039 0.122112
0.074874 0.842044 0.122112
0.074780 0.840587 0.122189
0.084394 0.835019 0.122330
0.191792 0.830831 0.120889
0.301559 0.826667 0.119427
0.413207 0.822525 0.117993
0.526431 0.818390 0.116633
0.641027 0.814240 0.115396
0.756855 0.810051 0.114334
0.873814 0.805791 0.113497
0.990778 0.800917 0.112950
1.000000 0.795804 0.112736
1.000000 0.794671 0.112741
1.000000 0.794671 0.112741
0.080929 0.944784 0.116901
0.080929 0.944784 0.116901
0.080929 0.944784 0.116901
0.080934 0.944871 0.116897
0.080896 0.944191 0.116928
0.080591 0.938729 0.117180
0.186098 0.935178 0.115967
0.294393 0.931571 0.114868
0.404638 0.927888 0.113942
0.516538 0.924110 0.113240
0.629896 0.920209 0.112817
0.744576 0.916155 0.112725
0.860480 0.911916 0.113021
0.977540 0.907456 0.113759
1.000000 0.902170 0.114951
1.000000 0.901093 0.114947
1.000000 0.901093 0.114947
0.081596 0.956772 0.116366
0.081596 0.956772 0.116366
0.081596 0.956772 0.116366
0.081596 0.956772 0.116366
0.081596 0.956772 0.116366
0.081596 0.956772 0.116366
0.185497 0.956647 0.115132
0.293555 0.952715 0.114181
0.403589 0.948678 0.113427
0.515302 0.944516 0.112921
0.628500 0.940206 0.112716
0.743044 0.935717 0.112864
0.858838 0.931018 0.113418
0.975814 0.926075 0.114432
1.000000 0.920436 0.115923
1.000000 0.919247 0.115966
1.000000 0.919247 0.115966
0.081596 0.956772 0.116366
0.081596 0.956772 0.116366
0.081596 0.956772 0.116366
0.081596 0.956772 0.116366
0.081596 0.956772 0.116366
0.081596 0.956772 0.116366
0.185497 0.956647 0.115132
0.293555 0.952715 0.114181
0.403589 0.948678 0.113427
0.515302 0.944516 0.112921
0.628500 0.940206 0.112716
0.743044 0.935717 0.112864
0.858838 0.931018 0.113418
0.975814 0.926075 0.114432
1.000000 0.920436 0.115923
1.000000 0.919247 0.115966
1.000000 0.919247 0.115966
0.000000 0.000000 0.295408
0.000000 0.000000 0.295408
0.000000 0.000000 0.295408
0.000000 0.000000 0.295630
0.045780 0.000000 0.282967
0.159292 0.000000 0.268960
0.274169 0.000000 0.255711
0.389512 0.000000 0.243778
0.504582 0.000000 0.233188
0.618856 0.000000 0.223925
0.731936 0.000000 0.215954
0.843503 0.000000 0.209225
0.953291 0.000000 0.203682
0.989093 0.000000 0.199370
0.989029 0.000000 0.195917
0.989011 0.000000 0.194985
