resources/luts/open-matte.cube
# Generated by FotoReady. Released under the project GPL-3.0-or-later license.
TITLE "open-matte"
LUT_3D_SIZE 9
DOMAIN_MIN 0 0 0
DOMAIN_MAX 1 1 1
0.345704 0.316407 0.331859
0.431338 0.316406 0.331408
0.511329 0.317124 0.331688
0.586873 0.318494 0.332625
0.658613 0.320468 0.334166
0.726956 0.323011 0.336274
0.792185 0.326096 0.338918
0.854507 0.329698 0.342070
0.892943 0.332265 0.344344
0.345928 0.402173 0.329926
0.432337 0.401998 0.329863
0.513572 0.402268 0.331304
0.590285 0.403168 0.333329
0.663131 0.404649 0.335896
0.732523 0.406676 0.338975
0.798749 0.409222 0.342538
0.862019 0.412262 0.346562
0.901037 0.414457 0.349370
0.348285 0.484032 0.330371
0.433458 0.484162 0.330060
0.515258 0.484213 0.330668
0.592893 0.484564 0.333618
0.666603 0.485477 0.337053
0.736808 0.486915 0.340948
0.803799 0.488851 0.345279
0.867793 0.491263 0.350030
0.907261 0.493052 0.353290
0.352275 0.562642 0.332510
0.435945 0.562953 0.332300
0.516455 0.563184 0.331998
0.594542 0.563261 0.333020
0.668976 0.563525 0.337182
0.739888 0.564322 0.341787
0.807592 0.565638 0.346833
0.872321 0.567461 0.352322
0.912273 0.568891 0.356067
0.357381 0.638250 0.335814
0.439462 0.638647 0.335585
0.518443 0.638962 0.335268
0.595302 0.639214 0.334879
0.670286 0.639310 0.336302
0.741989 0.639556 0.341700
0.810507 0.640356 0.347563
0.876074 0.641696 0.353891
0.916574 0.642833 0.358185
0.363383 0.711101 0.340052
0.443978 0.711643 0.339882
0.521566 0.712129 0.339660
0.597106 0.712578 0.339401
0.671102 0.713003 0.339118
0.743564 0.713272 0.341130
0.812997 0.713656 0.347909
0.879501 0.714610 0.355175
0.920612 0.715516 0.360081
0.370571 0.781722 0.345507
0.449824 0.782506 0.345518
0.526158 0.783256 0.345510
0.600514 0.783991 0.345495
0.673384 0.784725 0.345486
0.745078 0.785469 0.345492
0.815466 0.786053 0.348267
0.883002 0.786715 0.356567
0.924786 0.787449 0.362146
0.379273 0.850593 0.352503
0.457322 0.851713 0.352814
0.532535 0.852817 0.353133
0.605833 0.853927 0.353473
0.677703 0.855055 0.353846
0.748446 0.856212 0.354261
0.818267 0.857408 0.354727
0.886944 0.858440 0.358426
0.929459 0.859056 0.364736
0.385782 0.893948 0.357932
0.463129 0.895330 0.358495
0.537691 0.896707 0.359081
0.610378 0.898101 0.359704
0.681670 0.899524 0.360376
0.751865 0.900989 0.361107
0.821167 0.902505 0.361904
0.889724 0.904078 0.362777
0.932869 0.904888 0.366824
0.345449 0.316419 0.417909
0.431429 0.316374 0.417047
0.511546 0.317220 0.415811
0.587208 0.318711 0.415267
0.659059 0.320801 0.415352
0.727508 0.323455 0.416024
0.792838 0.326646 0.417248
0.855256 0.330349 0.418994
0.893750 0.332980 0.420374
0.345796 0.402163 0.416215
0.432811 0.401865 0.415568
0.515381 0.401921 0.415146
0.593389 0.402607 0.415353
0.667500 0.403877 0.416135
0.738134 0.405693 0.417452
0.805579 0.408027 0.419275
0.870051 0.410855 0.421576
0.909829 0.412914 0.423289
0.347892 0.484261 0.414825
0.432815 0.484547 0.413507
0.515922 0.484272 0.413256
0.594905 0.484381 0.414355
0.669932 0.485053 0.415973
0.741429 0.486251 0.418075
0.809691 0.487947 0.420636
0.874941 0.490123 0.423638
0.915208 0.491765 0.425791
0.351628 0.563052 0.415113
0.434180 0.563848 0.413027
0.515945 0.563703 0.412339
0.595291 0.563450 0.412495
0.671038 0.563470 0.414835
0.743245 0.564030 0.417651
0.812230 0.565114 0.420937
0.878229 0.566712 0.424690
0.918988 0.568001 0.427336
0.356443 0.638804 0.416558
0.436568 0.640017 0.413617
0.516811 0.639961 0.412920
0.594904 0.639856 0.412165
0.671139 0.639643 0.412746
0.744150 0.639663 0.416369
0.813962 0.640241 0.420484
0.880811 0.641366 0.425089
0.922126 0.642368 0.428293
0.362179 0.711813 0.418989
0.440009 0.713509 0.415298
0.518873 0.713636 0.414710
0.595660 0.713738 0.414098
0.670882 0.713826 0.413473
0.744592 0.713806 0.414666
0.815332 0.713978 0.419710
0.883130 0.714728 0.425266
0.925064 0.715505 0.429089
0.369146 0.782622 0.422704
0.444838 0.784894 0.418396
0.522462 0.785296 0.418035
0.598077 0.785695 0.417681
0.672186 0.786103 0.417343
0.745102 0.786528 0.417030
0.816737 0.786840 0.419006
0.885581 0.787307 0.425608
0.928195 0.787918 0.430111
0.377672 0.851712 0.428021
0.451372 0.854650 0.423226
0.527887 0.855417 0.423205
0.602459 0.856201 0.423219
0.675580 0.857013 0.423275
0.747558 0.857862 0.423383
0.818600 0.858757 0.423550
0.888526 0.859532 0.426469
0.931879 0.860033 0.431712
0.384090 0.895223 0.432406
0.456589 0.898633 0.427364
0.532461 0.899679 0.427618
0.606429 0.900753 0.427923
0.678981 0.901867 0.428287
0.750419 0.903030 0.428718
0.820951 0.904251 0.429223
0.890725 0.905536 0.429812
0.934683 0.906203 0.433193
0.345341 0.316696 0.497831
0.430451 0.316859 0.497632
0.511756 0.317315 0.496859
0.587530 0.318922 0.494886
0.659488 0.321122 0.493567
0.728038 0.323881 0.492855
0.793463 0.327173 0.492709
0.855971 0.330974 0.493099
0.894521 0.333664 0.493617
0.346841 0.401961 0.497797
0.432579 0.401900 0.498541
0.515457 0.401898 0.497704
0.593563 0.402689 0.496467
0.667766 0.404057 0.495831
0.738486 0.405967 0.495750
0.806014 0.408391 0.496190
0.870563 0.411306 0.497121
0.910388 0.413418 0.497963
0.348113 0.484242 0.496742
0.432630 0.484505 0.496642
0.516299 0.484097 0.495808
0.596512 0.483989 0.495141
0.672741 0.484446 0.495023
0.745416 0.485429 0.495415
0.814837 0.486912 0.496286
0.881236 0.488879 0.497623
0.922234 0.490389 0.498720
0.351763 0.563124 0.495558
0.433674 0.563982 0.494364
0.515208 0.563961 0.492719
0.595767 0.563391 0.492042
0.672780 0.563177 0.492628
0.746237 0.563509 0.493722
0.816457 0.564372 0.495314
0.883680 0.565754 0.497396
0.925218 0.566907 0.498984
0.356570 0.638904 0.495487
0.435771 0.640293 0.493153
0.514997 0.640685 0.490714
0.594280 0.640237 0.489608
0.671721 0.639727 0.489380
0.745994 0.639530 0.491293
0.817054 0.639897 0.493726
0.885139 0.640815 0.496672
0.927241 0.641688 0.498826
0.362324 0.711960 0.496451
0.438963 0.713955 0.493100
0.516041 0.714852 0.490001
0.594031 0.714621 0.489051
0.670436 0.714386 0.488098
0.745349 0.714087 0.488503
0.817349 0.714058 0.491878
0.886395 0.714611 0.495787
0.929123 0.715265 0.498567
0.369350 0.782848 0.498759
0.443587 0.785540 0.494529
0.518667 0.787029 0.490899
0.595498 0.787106 0.490219
0.670802 0.787200 0.489566
0.744897 0.787321 0.488946
0.817735 0.787371 0.490154
0.887839 0.787650 0.495121
0.931254 0.788144 0.498589
0.377973 0.852048 0.502727
0.449958 0.855526 0.497749
0.523181 0.857694 0.493710
0.598980 0.858164 0.493410
0.673309 0.858673 0.493164
0.746477 0.859226 0.492977
0.818698 0.859833 0.492857
0.889828 0.860362 0.495027
0.933990 0.860751 0.499241
0.384474 0.895645 0.506276
0.455093 0.899671 0.500886
0.527197 0.902317 0.496647
0.602401 0.903084 0.496646
0.676167 0.903900 0.496714
0.748804 0.904774 0.496858
0.820521 0.905712 0.497084
0.891470 0.906721 0.497400
0.936212 0.907249 0.500141
0.345458 0.317190 0.572868
0.429318 0.317704 0.573018
0.510125 0.318222 0.573179
0.587844 0.319128 0.572446
0.659903 0.321434 0.569759
0.728550 0.324295 0.567697
0.794067 0.327684 0.566216
0.856662 0.331578 0.565283
0.895266 0.334326 0.564960
0.348077 0.401985 0.574446
0.432469 0.402182 0.576552
0.514525 0.402354 0.576324
0.593728 0.402765 0.575480
0.668019 0.404228 0.573461
0.738822 0.406230 0.572017
0.806428 0.408740 0.571108
0.871051 0.411737 0.570703
0.910922 0.413901 0.570696
0.350414 0.483808 0.574457
0.433534 0.484282 0.576160
0.515992 0.484080 0.576596
0.596485 0.483902 0.575505
0.672789 0.484443 0.573991
0.745534 0.485507 0.573006
0.815024 0.487068 0.572519
0.881494 0.489116 0.572517
0.922539 0.490679 0.572767
0.352069 0.563137 0.573858
0.433759 0.563875 0.574134
0.514886 0.563820 0.573602
0.595978 0.563112 0.572347
0.674160 0.562689 0.571243
0.748770 0.562818 0.570678
0.820131 0.563483 0.570638
0.888485 0.564673 0.571111
0.930742 0.565705 0.571680
0.356683 0.638993 0.572364
0.435736 0.640245 0.571483
0.514352 0.640708 0.569865
0.593445 0.640384 0.567865
0.672062 0.639587 0.566850
0.747566 0.639178 0.567099
0.819843 0.639340 0.567895
0.889134 0.640058 0.569227
0.932002 0.640806 0.570358
0.362459 0.712099 0.571904
0.438964 0.713968 0.570019
0.515164 0.715057 0.567473
0.592221 0.715260 0.564887
0.669779 0.714712 0.563616
0.745866 0.714143 0.563255
0.819095 0.713918 0.565004
0.889359 0.714280 0.567311
0.932861 0.714815 0.569076
0.369546 0.783067 0.572847
0.443662 0.785644 0.570096
0.517600 0.787446 0.566754
0.592767 0.788263 0.563707
0.669236 0.788053 0.562748
0.744481 0.787877 0.561830
0.818492 0.787674 0.562292
0.889825 0.787772 0.565668
0.934022 0.788152 0.568128
0.378269 0.852378 0.575504
0.450146 0.855750 0.572019
0.521965 0.858350 0.568007
0.595378 0.859863 0.564617
0.670884 0.860077 0.564076
0.745214 0.860344 0.563603
0.818583 0.860670 0.563205
0.890887 0.860960 0.564646
0.935837 0.861241 0.567860
0.384852 0.896061 0.578242
0.455371 0.899988 0.574352
0.525906 0.903140 0.569975
0.598265 0.905142 0.566425
0.673216 0.905670 0.566206
0.747022 0.906263 0.566072
0.819895 0.906926 0.566027
0.891990 0.907666 0.566078
0.937496 0.908062 0.568195
0.345787 0.317889 0.643702
0.428419 0.318744 0.644192
0.508039 0.319589 0.644677
0.585601 0.320421 0.645150
0.660308 0.321739 0.644423
0.729048 0.324699 0.641036
0.794654 0.328183 0.638246
0.857334 0.332167 0.636015
0.895989 0.334972 0.634867
0.349497 0.402218 0.646856
0.432568 0.402668 0.650294
0.513423 0.403154 0.650376
0.592145 0.403604 0.650413
0.668260 0.404392 0.649530
0.739143 0.406481 0.646748
0.806824 0.409076 0.644516
0.871519 0.412153 0.642801
0.911433 0.414366 0.641960
0.352872 0.483589 0.647907
0.434623 0.484270 0.651376
0.515792 0.484297 0.653061
0.595492 0.484266 0.652539
0.672825 0.484433 0.651366
0.745638 0.485575 0.649031
0.815196 0.487214 0.647214
0.881737 0.489342 0.645901
0.922828 0.490957 0.645322
0.355495 0.562443 0.648277
0.435801 0.563375 0.650304
0.515593 0.563507 0.651458
0.595526 0.562988 0.651394
0.673979 0.562495 0.649874
0.748668 0.562711 0.647969
0.820110 0.563464 0.646611
0.888546 0.564743 0.645786
0.930857 0.565834 0.645532
0.357035 0.639005 0.647619
0.435874 0.640144 0.648183
0.514287 0.640500 0.647960
0.593005 0.640160 0.647032
0.672160 0.639241 0.645468
0.748806 0.638644 0.644105
0.822212 0.638624 0.643315
0.892623 0.639164 0.643083
0.936204 0.639800 0.643224
0.362585 0.712231 0.645839
0.438960 0.713977 0.645393
0.515039 0.714951 0.644236
0.591520 0.715241 0.642436
0.668925 0.714822 0.640324
0.746163 0.713989 0.639214
0.820597 0.713573 0.639371
0.892055 0.713749 0.640108
0.936317 0.714167 0.640879
0.369736 0.783282 0.645449
0.443735 0.785746 0.644149
0.517564 0.787442 0.642209
0.591890 0.788466 0.639682
0.667495 0.788682 0.637170
0.743868 0.788217 0.635963
0.819030 0.787766 0.635694
0.891568 0.787687 0.637511
0.936531 0.787956 0.638985
0.378560 0.852704 0.646826
0.450333 0.855974 0.644804
0.522056 0.858477 0.642206
0.594366 0.860315 0.639074
0.668304 0.861249 0.636278
0.743773 0.861236 0.635526
0.818269 0.861288 0.634856
0.891725 0.861346 0.635585
0.937449 0.861522 0.637819
0.385227 0.896473 0.648771
0.455650 0.900304 0.646353
0.526097 0.903367 0.643397
0.597187 0.905768 0.639939
0.670124 0.907203 0.637019
0.745076 0.907521 0.636613
0.819084 0.907916 0.636303
0.892303 0.908394 0.636096
0.938558 0.908660 0.637604
0.346316 0.318781 0.710770
0.427739 0.319973 0.711594
0.506190 0.321137 0.712396
0.582610 0.322279 0.713174
0.657483 0.323394 0.713921
0.729535 0.325095 0.713172
0.795227 0.328670 0.709092
0.857988 0.332743 0.705585
0.896694 0.335602 0.703625
0.351095 0.402650 0.715470
0.432866 0.403347 0.720217
0.512538 0.404142 0.720602
0.590104 0.404890 0.720931
0.666061 0.405588 0.721198
0.739450 0.406723 0.720248
0.807205 0.409399 0.716714
0.871968 0.412554 0.713708
0.911924 0.414815 0.712048
0.355487 0.483573 0.717538
0.435889 0.484456 0.722743
0.515789 0.484708 0.725657
0.594320 0.484965 0.725412
0.671183 0.485150 0.725079
0.745728 0.485633 0.723801
0.815354 0.487350 0.720677
0.881967 0.489558 0.718076
0.923105 0.491224 0.716681
0.359058 0.561956 0.718857
0.438001 0.563079 0.722606
0.516481 0.563395 0.725420
0.595173 0.563092 0.726535
0.672872 0.562739 0.725569
0.748560 0.562601 0.723989
0.820082 0.563441 0.721336
0.888602 0.564810 0.719234
0.930967 0.565958 0.718173
0.361503 0.638039 0.719106
0.438989 0.639375 0.721401
0.516102 0.639925 0.722850
0.593557 0.639776 0.723554
0.671616 0.639053 0.723146
0.748544 0.638402 0.721391
0.822043 0.638478 0.719316
0.892548 0.639117 0.717820
0.936190 0.639816 0.717160
0.363020 0.712273 0.718470
0.439197 0.713918 0.719459
0.515090 0.714799 0.719689
0.591392 0.715000 0.719243
0.668449 0.714579 0.718176
0.746231 0.713641 0.716542
0.821788 0.713056 0.715152
0.894359 0.713068 0.714363
0.939328 0.713382 0.714168
0.369921 0.783493 0.716861
0.443807 0.785847 0.716990
0.517530 0.787441 0.716431
0.591757 0.788367 0.715252
0.666815 0.788684 0.713501
0.743066 0.788352 0.711497
0.819361 0.787658 0.710511
0.893086 0.787406 0.710797
0.938804 0.787567 0.711300
0.378849 0.853028 0.716983
0.450521 0.856197 0.716402
0.522150 0.858608 0.715197
0.594373 0.860359 0.713425
0.667501 0.861510 0.711127
0.742161 0.861918 0.708892
0.817768 0.861702 0.707956
0.892357 0.861532 0.707984
0.938843 0.861605 0.709255
0.385601 0.896883 0.718151
0.455931 0.900620 0.717181
0.526291 0.903597 0.715626
0.597301 0.905916 0.713535
0.669263 0.907644 0.710947
0.742970 0.908565 0.708621
0.818094 0.908698 0.708053
0.892420 0.908919 0.707593
0.939413 0.909057 0.708501
0.347037 0.319862 0.774377
0.427266 0.321383 0.775529
0.504564 0.322863 0.776642
0.579855 0.324308 0.777720
0.653619 0.325718 0.778757
0.726147 0.327091 0.779749
0.795786 0.329148 0.778954
0.858627 0.333307 0.774185
0.897381 0.336218 0.771424
0.352866 0.403273 0.780596
0.433353 0.404212 0.786633
0.511857 0.405311 0.787316
0.588282 0.406352 0.787931
0.663117 0.407334 0.788476
0.736659 0.408255 0.788943
0.807571 0.409712 0.787903
0.872401 0.412943 0.783625
0.912398 0.415251 0.781155
0.358257 0.483751 0.783665
0.437328 0.484831 0.790580
0.515975 0.485305 0.794703
0.593351 0.485844 0.794732
0.669080 0.486303 0.794663
0.743469 0.486684 0.794496
0.815501 0.487478 0.793114
0.882185 0.489765 0.789244
0.923370 0.491483 0.787046
0.362758 0.561666 0.785914
0.440357 0.562976 0.791362
0.517543 0.563474 0.795812
0.595014 0.563385 0.798092
0.671586 0.563313 0.797399
0.746839 0.563198 0.796650
0.820049 0.563416 0.795021
0.888652 0.564872 0.791662
0.931071 0.566078 0.789804
0.366098 0.637277 0.787060
0.442251 0.638809 0.791063
0.518083 0.639551 0.794162
0.594294 0.639592 0.796477
0.671172 0.639092 0.797217
0.747391 0.638587 0.796018
0.821874 0.638334 0.794265
0.892473 0.639070 0.791523
0.936177 0.639833 0.790073
0.368532 0.711076 0.787342
0.443389 0.712928 0.790052
0.518013 0.714010 0.791944
0.593083 0.714411 0.793121
0.668937 0.714188 0.793647
0.745675 0.713452 0.793143
0.821524 0.712826 0.791382
0.894201 0.712945 0.789358
0.939238 0.713328 0.788381
0.370484 0.783598 0.787178
0.444187 0.785865 0.788736
0.517739 0.787377 0.789558
0.591802 0.788227 0.789728
0.666702 0.788471 0.789302
0.742629 0.788152 0.788322
0.819474 0.787367 0.786836
0.894308 0.786963 0.785629
0.940731 0.787028 0.785188
0.379136 0.853350 0.786173
0.450710 0.856422 0.787014
0.522248 0.858742 0.787183
0.594386 0.860407 0.786753
0.667434 0.861478 0.785774
0.741573 0.861998 0.784283
0.817085 0.861922 0.782589
0.892794 0.861527 0.781928
0.940032 0.861499 0.782250
0.385974 0.897293 0.786576
0.456214 0.900939 0.787037
0.526491 0.903830 0.786863
0.597423 0.906070 0.786122
0.669312 0.907722 0.784860
0.742331 0.908831 0.783111
0.816933 0.909282 0.781357
0.892351 0.909250 0.780648
0.940073 0.909263 0.780967
0.347943 0.321125 0.834751
0.426992 0.322971 0.836225
0.503148 0.324760 0.837645
0.577324 0.326504 0.839018
0.649991 0.328204 0.840341
0.721437 0.329860 0.841610
0.791852 0.331468 0.842821
0.859252 0.333859 0.841957
0.898053 0.336823 0.838403
0.354806 0.404079 0.842467
0.434022 0.405257 0.849778
0.511372 0.406655 0.850753
0.586668 0.407984 0.851650
0.660393 0.409246 0.852467
0.732840 0.410439 0.853199
0.804205 0.411562 0.853843
0.872817 0.413319 0.852692
0.912854 0.415673 0.849422
0.361179 0.484114 0.846520
0.438933 0.485389 0.855124
0.516341 0.486080 0.860441
0.592576 0.486897 0.860739
0.667183 0.487626 0.860930
0.740470 0.488274 0.861020
0.812657 0.488853 0.861023
0.882393 0.489964 0.859551
0.923625 0.491734 0.856560
0.366595 0.561564 0.849685
0.442866 0.563059 0.856810
0.518776 0.563738 0.862880
0.595040 0.563861 0.866311
0.670501 0.564068 0.865888
0.744663 0.564229 0.865409
0.817748 0.564356 0.864885
0.888697 0.564932 0.863218
0.931171 0.566196 0.860575
0.370823 0.636710 0.851718
0.445659 0.638437 0.857411
0.520227 0.639370 0.862141
0.595210 0.639600 0.866049
0.670921 0.639321 0.867924
0.746062 0.639102 0.867006
0.820146 0.638880 0.866084
0.892400 0.639025 0.864342
0.936164 0.639851 0.862114
0.374167 0.710083 0.852912
0.447720 0.712140 0.857323
0.521091 0.713422 0.860859
0.594946 0.714022 0.863640
0.669611 0.713995 0.865742
0.745217 0.713489 0.866362
0.820398 0.713016 0.865162
0.894048 0.712827 0.863458
0.939154 0.713279 0.861709
0.377053 0.782215 0.853683
0.449465 0.784696 0.856955
0.521776 0.786418 0.859431
0.594635 0.787475 0.861218
0.668358 0.787925 0.862379
0.743131 0.787811 0.862964
0.818978 0.787235 0.862587
0.894115 0.786803 0.861029
0.940613 0.786942 0.859822
0.379867 0.853552 0.854412
0.451273 0.856548 0.856679
0.522653 0.858798 0.858225
0.594641 0.860398 0.859141
0.667546 0.861407 0.859484
0.741547 0.861870 0.859296
0.816757 0.861819 0.858611
0.893023 0.861347 0.857471
0.940964 0.861230 0.856867
0.386349 0.897703 0.854186
0.456500 0.901259 0.856061
0.526695 0.904068 0.857253
0.597552 0.906230 0.857847
0.669370 0.907809 0.857896
0.742323 0.908848 0.857441
0.816520 0.909381 0.856511
0.892104 0.909397 0.855315
0.940547 0.909287 0.855051
0.348618 0.322026 0.871777
0.426917 0.324077 0.873455
0.502349 0.326063 0.875069
0.575816 0.327996 0.876628
0.647787 0.329880 0.878132
0.718545 0.331714 0.879576
0.788280 0.333497 0.880958
0.857127 0.335226 0.882271
0.898476 0.337204 0.880889
0.356134 0.404689 0.880441
0.434544 0.406018 0.888558
0.511161 0.407605 0.889719
0.585740 0.409117 0.890794
0.658760 0.410556 0.891783
0.730512 0.411921 0.892683
0.801189 0.413212 0.893489
0.870930 0.414424 0.894197
0.913138 0.415936 0.892723
0.363129 0.484442 0.885115
0.440047 0.485839 0.894790
0.516668 0.486668 0.900864
0.592178 0.487661 0.901332
0.666073 0.488561 0.901688
0.738662 0.489378 0.901942
0.810162 0.490126 0.902109
0.880733 0.490816 0.902202
0.923783 0.491891 0.900654
0.369123 0.561594 0.888860
0.444551 0.563207 0.897049
0.519652 0.564001 0.904146
0.595151 0.564260 0.908309
0.669908 0.564643 0.908058
0.743379 0.564981 0.907750
0.815785 0.565282 0.907398
0.887284 0.565559 0.907011
0.931232 0.566269 0.905467
0.373914 0.636448 0.891458
0.447916 0.638298 0.898222
0.521683 0.639353 0.903988
0.595888 0.639703 0.908907
0.670860 0.639565 0.911502
0.745317 0.639527 0.910764
0.818729 0.639486 0.910020
0.891255 0.639451 0.909280
0.936157 0.639863 0.907814
0.377838 0.709552 0.893231
0.450564 0.711738 0.898722
0.523142 0.713148 0.903301
0.596226 0.713874 0.907100
0.670138 0.713973 0.910203
0.745027 0.713613 0.911537
0.819542 0.713327 0.910522
0.893191 0.713074 0.909546
0.939103 0.713250 0.908229
0.381319 0.781437 0.894597
0.452912 0.784054 0.898957
0.524437 0.785910 0.902484
0.596532 0.787099 0.905296
0.669510 0.787681 0.907465
0.743551 0.787697 0.909042
0.818700 0.787272 0.909375
0.893565 0.786893 0.908275
0.940542 0.786892 0.907172
0.384744 0.852549 0.895937
0.455339 0.855688 0.899300
0.525941 0.858077 0.901904
0.597172 0.859815 0.903852
0.669338 0.860961 0.905210
0.742614 0.861560 0.906022
0.817111 0.861644 0.906325
0.892800 0.861299 0.905884
0.940897 0.861176 0.905060
0.387073 0.897835 0.896944
0.457097 0.901355 0.899736
0.527172 0.904130 0.901814
0.597914 0.906262 0.903273
0.669623 0.907812 0.904173
0.742470 0.908825 0.904555
0.816564 0.909334 0.904455
0.891979 0.909367 0.903899
0.940733 0.909215 0.903330
