resources/luts/open-matte.cube
# Generated by FotoReady. Released under the project GPL-3.0-or-later license.
TITLE "open-matte"
LUT_3D_SIZE 5
DOMAIN_MIN 0 0 0
DOMAIN_MAX 1 1 1
0.345704 0.316407 0.331859
0.511329 0.317124 0.331688
0.658613 0.320468 0.334166
0.792185 0.326096 0.338918
0.892943 0.332265 0.344344
0.348285 0.484032 0.330371
0.515258 0.484213 0.330668
0.666603 0.485477 0.337053
0.803799 0.488851 0.345279
0.907261 0.493052 0.353290
0.357381 0.638250 0.335814
0.518443 0.638962 0.335268
0.670286 0.639310 0.336302
0.810507 0.640356 0.347563
0.916574 0.642833 0.358185
0.370571 0.781722 0.345507
0.526158 0.783256 0.345510
0.673384 0.784725 0.345486
0.815466 0.786053 0.348267
0.924786 0.787449 0.362146
0.385782 0.893948 0.357932
0.537691 0.896707 0.359081
0.681670 0.899524 0.360376
0.821167 0.902505 0.361904
0.932869 0.904888 0.366824
0.345341 0.316696 0.497831
0.511756 0.317315 0.496859
0.659488 0.321122 0.493567
0.793463 0.327173 0.492709
0.894521 0.333664 0.493617
0.348113 0.484242 0.496742
0.516299 0.484097 0.495808
0.672741 0.484446 0.495023
0.814837 0.486912 0.496286
0.922234 0.490389 0.498720
0.356570 0.638904 0.495487
0.514997 0.640685 0.490714
0.671721 0.639727 0.489380
0.817054 0.639897 0.493726
0.927241 0.641688 0.498826
0.369350 0.782848 0.498759
0.518667 0.787029 0.490899
0.670802 0.787200 0.489566
0.817735 0.787371 0.490154
0.931254 0.788144 0.498589
0.384474 0.895645 0.506276
0.527197 0.902317 0.496647
0.676167 0.903900 0.496714
0.820521 0.905712 0.497084
0.936212 0.907249 0.500141
0.345787 0.317889 0.643702
0.508039 0.319589 0.644677
0.660308 0.321739 0.644423
0.794654 0.328183 0.638246
0.895989 0.334972 0.634867
0.352872 0.483589 0.647907
0.515792 0.484297 0.653061
0.672825 0.484433 0.651366
0.815196 0.487214 0.647214
0.922828 0.490957 0.645322
0.357035 0.639005 0.647619
0.514287 0.640500 0.647960
0.672160 0.639241 0.645468
0.822212 0.638624 0.643315
0.936204 0.639800 0.643224
0.369736 0.783282 0.645449
0.517564 0.787442 0.642209
0.667495 0.788682 0.637170
0.819030 0.787766 0.635694
0.936531 0.787956 0.638985
0.385227 0.896473 0.648771
0.526097 0.903367 0.643397
0.670124 0.907203 0.637019
0.819084 0.907916 0.636303
0.938558 0.908660 0.637604
0.347037 0.319862 0.774377
0.504564 0.322863 0.776642
0.653619 0.325718 0.778757
0.795786 0.329148 0.778954
0.897381 0.336218 0.771424
0.358257 0.483751 0.783665
0.515975 0.485305 0.794703
0.669080 0.486303 0.794663
0.815501 0.487478 0.793114
0.923370 0.491483 0.787046
0.366098 0.637277 0.787060
0.518083 0.639551 0.794162
0.671172 0.639092 0.797217
0.821874 0.638334 0.794265
0.936177 0.639833 0.790073
0.370484 0.783598 0.787178
0.517739 0.787377 0.789558
0.666702 0.788471 0.789302
0.819474 0.787367 0.786836
0.940731 0.787028 0.785188
0.385974 0.897293 0.786576
0.526491 0.903830 0.786863
0.669312 0.907722 0.784860
0.816933 0.909282 0.781357
0.940073 0.909263 0.780967
0.348618 0.322026 0.871777
0.502349 0.326063 0.875069
0.647787 0.329880 0.878132
0.788280 0.333497 0.880958
0.898476 0.337204 0.880889
0.363129 0.484442 0.885115
0.516668 0.486668 0.900864
0.666073 0.488561 0.901688
0.810162 0.490126 0.902109
0.923783 0.491891 0.900654
0.373914 0.636448 0.891458
0.521683 0.639353 0.903988
0.670860 0.639565 0.911502
0.818729 0.639486 0.910020
0.936157 0.639863 0.907814
0.381319 0.781437 0.894597
0.524437 0.785910 0.902484
0.669510 0.787681 0.907465
0.818700 0.787272 0.909375
0.940542 0.786892 0.907172
0.387073 0.897835 0.896944
0.527172 0.904130 0.901814
0.669623 0.907812 0.904173
0.816564 0.909334 0.904455
0.940733 0.909215 0.903330
