resources/luts/open-matte.cube
# Generated by FotoReady. Released under the project GPL-3.0-or-later license.
TITLE "open-matte"
LUT_3D_SIZE 17
DOMAIN_MIN 0 0 0
DOMAIN_MAX 1 1 1
0.345704 0.316407 0.331859
0.389342 0.316311 0.331536
0.431338 0.316406 0.331408
0.471945 0.316680 0.331462
0.511329 0.317124 0.331688
0.549609 0.317731 0.332078
0.586873 0.318494 0.332625
0.623189 0.319408 0.333322
0.658613 0.320468 0.334166
0.693189 0.321670 0.335152
0.726956 0.323011 0.336274
0.759946 0.324488 0.337531
0.792185 0.326096 0.338918
0.823699 0.327834 0.340432
0.854507 0.329698 0.342070
0.884629 0.331687 0.343830
0.892943 0.332265 0.344344
0.345556 0.359841 0.330541
0.389525 0.359666 0.330418
0.431880 0.359655 0.330605
0.472833 0.359820 0.330962
0.512553 0.360153 0.331482
0.551159 0.360645 0.332156
0.588740 0.361290 0.332979
0.625365 0.362084 0.333944
0.661090 0.363021 0.335048
0.695960 0.364097 0.336287
0.730014 0.365309 0.337657
0.763283 0.366653 0.339153
0.795796 0.368127 0.340774
0.827577 0.369727 0.342516
0.858646 0.371450 0.344376
0.889024 0.373295 0.346353
0.897408 0.373833 0.346926
0.345928 0.402173 0.329926
0.389710 0.402085 0.329645
0.432337 0.401998 0.329863
0.473576 0.402051 0.330507
0.513572 0.402268 0.331304
0.552445 0.402643 0.332246
0.590285 0.403168 0.333329
0.627161 0.403838 0.334547
0.663131 0.404649 0.335896
0.698238 0.405596 0.337374
0.732523 0.406676 0.338975
0.766017 0.407886 0.340697
0.798749 0.409222 0.342538
0.830742 0.410681 0.344493
0.862019 0.412262 0.346562
0.892598 0.413961 0.348740
0.901037 0.414457 0.349370
0.346866 0.443537 0.329899
0.390304 0.443535 0.329693
0.432752 0.443530 0.329484
0.474242 0.443501 0.330001
0.514491 0.443591 0.331051
0.553609 0.443835 0.332239
0.591685 0.444228 0.333559
0.628791 0.444763 0.335008
0.664983 0.445436 0.336581
0.700307 0.446243 0.338276
0.734802 0.447180 0.340088
0.768500 0.448244 0.342015
0.801430 0.449432 0.344054
0.833615 0.450740 0.346203
0.865079 0.452167 0.348459
0.895839 0.453709 0.350820
0.904328 0.454161 0.351499
0.348285 0.484032 0.330371
0.391366 0.484102 0.330220
0.433458 0.484162 0.330060
0.474776 0.484212 0.329888
0.515258 0.484213 0.330668
0.554600 0.484315 0.332080
0.592893 0.484564 0.333618
0.630208 0.484952 0.335277
0.666603 0.485477 0.337053
0.702123 0.486132 0.338945
0.736808 0.486915 0.340948
0.770690 0.487823 0.343060
0.803799 0.488851 0.345279
0.836158 0.489998 0.347603
0.867793 0.491263 0.350030
0.898724 0.492644 0.352562
0.907261 0.493052 0.353290
0.350110 0.523722 0.331264
0.392820 0.523847 0.331151
0.434545 0.523957 0.331021
0.475497 0.524051 0.330874
0.515812 0.524130 0.330709
0.555370 0.524138 0.331718
0.593860 0.524231 0.333454
0.631365 0.524462 0.335304
0.667944 0.524826 0.337265
0.703642 0.525319 0.339335
0.738500 0.525938 0.341512
0.772555 0.526683 0.343797
0.805836 0.527551 0.346189
0.838371 0.528542 0.348689
0.870185 0.529655 0.351296
0.901298 0.530889 0.354011
0.909886 0.531256 0.354791
0.352275 0.562642 0.332510
0.394601 0.562808 0.332416
0.435945 0.562953 0.332300
0.476518 0.563079 0.332161
0.516455 0.563184 0.331998
0.555851 0.563269 0.331811
0.594542 0.563261 0.333020
0.632223 0.563325 0.335046
0.668976 0.563525 0.337182
0.704850 0.563858 0.339429
0.739888 0.564322 0.341787
0.774125 0.564916 0.344255
0.807592 0.565638 0.346833
0.840316 0.566486 0.349522
0.872321 0.567461 0.352322
0.903629 0.568561 0.355232
0.912273 0.568891 0.356067
0.354717 0.600814 0.334046
0.396646 0.601007 0.333954
0.437596 0.601174 0.333834
0.477778 0.601317 0.333687
0.517329 0.601440 0.333515
0.556346 0.601543 0.333321
0.594901 0.601629 0.333106
0.632797 0.601609 0.334518
0.669737 0.601657 0.336842
0.705801 0.601844 0.339279
0.741031 0.602166 0.341830
0.775464 0.602622 0.344494
0.809129 0.603210 0.347272
0.842055 0.603930 0.350163
0.874265 0.604780 0.353168
0.905780 0.605758 0.356286
0.914483 0.606055 0.357180
0.357381 0.638250 0.335814
0.398905 0.638460 0.335712
0.439462 0.638647 0.335585
0.479263 0.638813 0.335437
0.518443 0.638962 0.335268
0.557099 0.639095 0.335082
0.595302 0.639214 0.334879
0.633107 0.639321 0.334663
0.670286 0.639310 0.336302
0.706553 0.639363 0.338943
0.741989 0.639556 0.341700
0.776630 0.639888 0.344573
0.810507 0.640356 0.347563
0.843647 0.640959 0.350668
0.876074 0.641696 0.353891
0.907809 0.642566 0.357229
0.916574 0.642833 0.358185
0.360256 0.674988 0.337802
0.401392 0.675227 0.337704
0.441575 0.675445 0.337587
0.481013 0.675646 0.337452
0.519842 0.675833 0.337302
0.558155 0.676008 0.337139
0.596023 0.676173 0.336964
0.633501 0.676328 0.336779
0.670631 0.676476 0.336585
0.707162 0.676492 0.338473
0.742816 0.676569 0.341449
0.777678 0.676788 0.344544
0.811779 0.677148 0.347758
0.845145 0.677647 0.351091
0.877802 0.678284 0.354543
0.909770 0.679057 0.358114
0.918600 0.679298 0.359136
0.363383 0.711101 0.340052
0.404150 0.711381 0.339975
0.443978 0.711643 0.339882
0.483072 0.711892 0.339776
0.521566 0.712129 0.339660
0.559554 0.712357 0.339535
0.597106 0.712578 0.339401
0.634274 0.712793 0.339262
0.671102 0.713003 0.339118
0.707624 0.713210 0.338970
0.743564 0.713272 0.341130
0.778660 0.713392 0.344458
0.812997 0.713656 0.347909
0.846603 0.714062 0.351481
0.879501 0.714610 0.355175
0.911713 0.715299 0.358991
0.920612 0.715516 0.360081
0.366808 0.746658 0.342607
0.407224 0.746991 0.342565
0.446714 0.747309 0.342512
0.485481 0.747617 0.342451
0.523659 0.747916 0.342383
0.561338 0.748209 0.342309
0.598590 0.748497 0.342232
0.635465 0.748782 0.342152
0.672007 0.749066 0.342072
0.708250 0.749349 0.341991
0.744221 0.749633 0.341913
0.779625 0.749759 0.344364
0.814210 0.749939 0.348063
0.848067 0.750265 0.351887
0.881219 0.750736 0.355834
0.913687 0.751351 0.359907
0.922658 0.751548 0.361070
0.370571 0.781722 0.345507
0.410654 0.782119 0.345516
0.449824 0.782506 0.345518
0.488282 0.782883 0.345515
0.526158 0.783256 0.345510
0.563546 0.783624 0.345502
0.600514 0.783991 0.345495
0.637112 0.784358 0.345489
0.673384 0.784725 0.345486
0.709363 0.785095 0.345487
0.745078 0.785469 0.345492
0.780551 0.785846 0.345504
0.815466 0.786053 0.348267
0.849585 0.786310 0.352353
0.883002 0.786715 0.356567
0.915739 0.787268 0.360908
0.924786 0.787449 0.362146
0.374713 0.816348 0.348793
0.414481 0.816823 0.348868
0.453347 0.817289 0.348939
0.491512 0.817748 0.349010
0.529105 0.818205 0.349081
0.566217 0.818661 0.349153
0.602916 0.819117 0.349230
0.639253 0.819575 0.349311
0.675271 0.820038 0.349398
0.711002 0.820505 0.349493
0.746474 0.820978 0.349596
0.781711 0.821458 0.349709
0.816733 0.821946 0.349832
0.851202 0.822250 0.352926
0.884896 0.822601 0.357417
0.917912 0.823102 0.362037
0.927038 0.823269 0.363354
0.379273 0.850593 0.352503
0.418742 0.851156 0.352659
0.457322 0.851713 0.352814
0.495210 0.852265 0.352972
0.532535 0.852817 0.353133
0.569387 0.853370 0.353299
0.605833 0.853927 0.353473
0.641925 0.854488 0.353655
0.677703 0.855055 0.353846
0.713201 0.855629 0.354047
0.748446 0.856212 0.354261
0.783461 0.856805 0.354487
0.818267 0.857408 0.354727
0.852880 0.858022 0.354982
0.886944 0.858440 0.358426
0.920251 0.858900 0.363337
0.929459 0.859056 0.364736
0.384290 0.884505 0.356676
0.423478 0.885169 0.356927
0.461787 0.885827 0.357180
0.499414 0.886484 0.357438
0.536486 0.887141 0.357703
0.573094 0.887803 0.357977
0.609303 0.888470 0.358261
0.645164 0.889144 0.358556
0.680717 0.889826 0.358864
0.715996 0.890518 0.359185
0.751028 0.891221 0.359522
0.785836 0.891936 0.359874
0.820440 0.892664 0.360243
0.854856 0.893405 0.360631
0.889100 0.894162 0.361037
0.922797 0.894708 0.364849
0.932089 0.894856 0.366333
0.385782 0.893948 0.357932
0.424893 0.894642 0.358212
0.463129 0.895330 0.358495
0.500686 0.896018 0.358784
0.537691 0.896707 0.359081
0.574233 0.897401 0.359387
0.610378 0.898101 0.359704
0.646177 0.898808 0.360033
0.681670 0.899524 0.360376
0.716891 0.900251 0.360733
0.751865 0.900989 0.361107
0.786618 0.901740 0.361496
0.821167 0.902505 0.361904
0.855531 0.903284 0.362330
0.889724 0.904078 0.362777
0.923552 0.904741 0.365315
0.932869 0.904888 0.366824
0.345595 0.316367 0.375768
0.389354 0.316260 0.375237
0.431384 0.316389 0.374717
0.472023 0.316697 0.374385
0.511439 0.317173 0.374231
0.549749 0.317810 0.374244
0.587042 0.318604 0.374418
0.623387 0.319547 0.374747
0.658839 0.320636 0.375224
0.693442 0.321867 0.375845
0.727236 0.323236 0.376606
0.760251 0.324739 0.377503
0.792516 0.326374 0.378532
0.824054 0.328138 0.379689
0.854886 0.330028 0.380973
0.885032 0.332041 0.382380
0.893352 0.332627 0.382795
0.345497 0.359788 0.374569
0.389725 0.359568 0.374158
0.432411 0.359508 0.373869
0.473690 0.359625 0.373759
0.513729 0.359910 0.373818
0.552650 0.360354 0.374036
0.590542 0.360952 0.374408
0.627474 0.361698 0.374926
0.663503 0.362587 0.375587
0.698674 0.363616 0.376385
0.733026 0.364780 0.377317
0.766591 0.366077 0.378379
0.799398 0.367502 0.379567
0.831469 0.369054 0.380878
0.862828 0.370730 0.382310
0.893492 0.372527 0.383859
0.901956 0.373051 0.384314
0.345734 0.402221 0.373417
0.389639 0.402117 0.372930
0.432619 0.401959 0.372810
0.474216 0.401952 0.372975
0.514564 0.402111 0.373300
0.553784 0.402427 0.373775
0.591966 0.402894 0.374396
0.629181 0.403506 0.375156
0.665485 0.404259 0.376052
0.700925 0.405148 0.377078
0.735538 0.406171 0.378231
0.769358 0.407323 0.379508
0.802413 0.408601 0.380905
0.834728 0.410002 0.382420
0.866323 0.411525 0.384050
0.897219 0.413166 0.385791
0.905746 0.413646 0.386299
0.346547 0.443674 0.372847
0.389958 0.443715 0.372284
0.432737 0.443618 0.371982
0.474572 0.443516 0.372160
0.515171 0.443546 0.372736
0.554634 0.443731 0.373456
0.593052 0.444064 0.374312
0.630494 0.444539 0.375301
0.667020 0.445153 0.376419
0.702673 0.445901 0.377660
0.737495 0.446779 0.379022
0.771517 0.447784 0.380502
0.804769 0.448912 0.382097
0.837274 0.450161 0.383803
0.869054 0.451529 0.385618
0.900129 0.453012 0.387540
0.908706 0.453447 0.388097
0.347837 0.484253 0.372777
0.390742 0.484422 0.372123
0.433164 0.484388 0.371867
0.474806 0.484345 0.371601
0.515626 0.484274 0.372040
0.555311 0.484315 0.372983
0.593942 0.484503 0.374055
0.631593 0.484831 0.375252
0.668319 0.485294 0.376571
0.704167 0.485889 0.378008
0.739178 0.486611 0.379559
0.773383 0.487458 0.381223
0.806811 0.488426 0.382995
0.839489 0.489513 0.384875
0.871440 0.490718 0.386862
0.902687 0.492041 0.388956
0.911312 0.492433 0.389561
0.349529 0.524021 0.373131
0.391916 0.524301 0.372367
0.433970 0.524315 0.372140
0.475243 0.524316 0.371897
0.515875 0.524302 0.371636
0.555764 0.524236 0.372304
0.594591 0.524267 0.373572
0.632430 0.524435 0.374959
0.669338 0.524737 0.376461
0.705363 0.525169 0.378075
0.740546 0.525727 0.379800
0.774923 0.526411 0.381636
0.808526 0.527220 0.383584
0.841381 0.528153 0.385641
0.873513 0.529207 0.387809
0.904944 0.530384 0.390088
0.913621 0.530735 0.390746
0.351555 0.563013 0.373837
0.393414 0.563389 0.372947
0.435085 0.563438 0.372732
0.475977 0.563468 0.372495
0.516229 0.563479 0.372235
0.555936 0.563470 0.371951
0.594953 0.563388 0.372818
0.632967 0.563391 0.374381
0.670051 0.563529 0.376059
0.706254 0.563802 0.377852
0.741618 0.564206 0.379759
0.776179 0.564741 0.381780
0.809969 0.565404 0.383915
0.843015 0.566196 0.386164
0.875340 0.567114 0.388526
0.906967 0.568157 0.391002
0.915700 0.568472 0.391715
0.353855 0.601251 0.374833
0.395173 0.601709 0.373801
0.436449 0.601778 0.373580
0.476950 0.601826 0.373334
0.516816 0.601854 0.373065
0.556144 0.601865 0.372776
0.595008 0.601860 0.372468
0.633229 0.601769 0.373542
0.670501 0.601758 0.375409
0.706896 0.601885 0.377394
0.742454 0.602149 0.379496
0.777213 0.602547 0.381715
0.811203 0.603079 0.384050
0.844452 0.603742 0.386503
0.876984 0.604536 0.389072
0.908820 0.605460 0.391757
0.917612 0.605742 0.392530
0.356373 0.638750 0.376060
0.397147 0.639281 0.374880
0.438031 0.639371 0.374654
0.478153 0.639443 0.374408
0.517650 0.639499 0.374144
0.556619 0.639541 0.373865
0.595133 0.639570 0.373570
0.633245 0.639589 0.373263
0.670749 0.639510 0.374567
0.707348 0.639505 0.376757
0.743113 0.639641 0.379067
0.778082 0.639916 0.381496
0.812285 0.640329 0.384046
0.845750 0.640877 0.386714
0.878500 0.641560 0.389502
0.910558 0.642376 0.392410
0.919413 0.642629 0.393245
0.359108 0.675553 0.377517
0.399356 0.676170 0.376203
0.439868 0.676293 0.375988
0.479629 0.676401 0.375758
0.518776 0.676497 0.375515
0.557404 0.676582 0.375260
0.595585 0.676658 0.374995
0.633372 0.676726 0.374721
0.670810 0.676788 0.374439
0.707664 0.676739 0.375996
0.743650 0.676760 0.378526
0.778842 0.676924 0.381179
0.813270 0.677230 0.383954
0.846963 0.677675 0.386851
0.879944 0.678259 0.389871
0.912236 0.678980 0.393012
0.921157 0.679206 0.393913
0.362102 0.711736 0.379245
0.401845 0.712450 0.377815
0.442003 0.712618 0.377627
0.481421 0.712775 0.377428
0.520236 0.712922 0.377220
0.558541 0.713062 0.377004
0.596406 0.713196 0.376782
0.633885 0.713325 0.376556
0.671022 0.713450 0.376326
0.707851 0.713574 0.376093
0.744115 0.713573 0.377923
0.779542 0.713638 0.380812
0.814208 0.713849 0.383825
0.848142 0.714204 0.386963
0.881366 0.714700 0.390226
0.913904 0.715337 0.393614
0.922894 0.715541 0.394584
0.365399 0.747366 0.381287
0.404656 0.748189 0.379757
0.444478 0.748415 0.379610
0.483571 0.748632 0.379457
0.522071 0.748842 0.379299
0.560069 0.749048 0.379137
0.597635 0.749250 0.378973
0.634824 0.749451 0.378808
0.671676 0.749651 0.378643
0.708227 0.749852 0.378480
0.744505 0.750055 0.378319
0.780233 0.750120 0.380443
0.815149 0.750248 0.383707
0.849335 0.750523 0.387098
0.882815 0.750943 0.390616
0.915610 0.751509 0.394262
0.924673 0.751692 0.395305
0.369040 0.782505 0.383683
0.407830 0.783449 0.382069
0.447333 0.783744 0.381979
0.486119 0.784033 0.381886
0.524320 0.784318 0.381792
0.562028 0.784601 0.381698
0.599312 0.784883 0.381606
0.636225 0.785167 0.381516
0.672809 0.785452 0.381430
0.709098 0.785741 0.381349
0.745120 0.786035 0.381274
0.780900 0.786333 0.381207
0.816139 0.786481 0.383645
0.850589 0.786688 0.387301
0.884336 0.787044 0.391086
0.917401 0.787548 0.395001
0.926540 0.787716 0.396121
0.373067 0.817212 0.386472
0.411407 0.818289 0.384791
0.450609 0.818664 0.384772
0.489104 0.819036 0.384754
0.527022 0.819407 0.384738
0.564456 0.819778 0.384726
0.601473 0.820151 0.384719
0.638127 0.820528 0.384718
0.674458 0.820909 0.384724
0.710501 0.821297 0.384739
0.746282 0.821691 0.384763
0.781827 0.822093 0.384798
0.817156 0.822505 0.384844
0.851949 0.822752 0.387616
0.885975 0.823055 0.391680
0.919321 0.823508 0.395877
0.928538 0.823662 0.397075
0.377518 0.851541 0.389694
0.415427 0.852761 0.387961
0.454343 0.853229 0.388027
0.492563 0.853695 0.388098
0.530215 0.854162 0.388174
0.567390 0.854632 0.388257
0.604157 0.855107 0.388349
0.640566 0.855587 0.388450
0.676660 0.856075 0.388561
0.712470 0.856571 0.388685
0.748026 0.857076 0.388821
0.783351 0.857592 0.388971
0.818465 0.858120 0.389136
0.853384 0.858659 0.389316
0.887773 0.859022 0.392440
0.921412 0.859436 0.396929
0.930712 0.859579 0.398210
0.382431 0.885541 0.393386
0.419926 0.886916 0.391616
0.458573 0.887487 0.391782
0.496534 0.888058 0.391955
0.533935 0.888633 0.392137
0.570867 0.889212 0.392329
0.607398 0.889799 0.392532
0.643578 0.890393 0.392748
0.679449 0.890997 0.392978
0.715042 0.891612 0.393223
0.750387 0.892239 0.393484
0.785506 0.892878 0.393761
0.820419 0.893532 0.394057
0.855144 0.894200 0.394371
0.889694 0.894883 0.394705
0.923716 0.895376 0.398200
0.933102 0.895512 0.399566
0.383894 0.895008 0.394509
0.421277 0.896429 0.392731
0.459852 0.897031 0.392927
0.497742 0.897634 0.393132
0.535076 0.898240 0.393346
0.571943 0.898852 0.393570
0.608410 0.899472 0.393807
0.644529 0.900100 0.394058
0.680340 0.900739 0.394323
0.715875 0.901389 0.394604
0.751163 0.902051 0.394902
0.786227 0.902727 0.395218
0.821087 0.903417 0.395552
0.855759 0.904123 0.395906
0.890259 0.904845 0.396281
0.924405 0.905448 0.398600
0.933815 0.905582 0.399991
0.345449 0.316419 0.417909
0.389136 0.316314 0.417622
0.431429 0.316374 0.417047
0.472100 0.316713 0.416338
0.511546 0.317220 0.415811
0.549886 0.317888 0.415457
0.587208 0.318711 0.415267
0.623580 0.319683 0.415234
0.659059 0.320801 0.415352
0.693689 0.322059 0.415617
0.727508 0.323455 0.416024
0.760549 0.324985 0.416569
0.792838 0.326646 0.417248
0.824400 0.328435 0.418057
0.855256 0.330349 0.418994
0.885424 0.332387 0.420055
0.893750 0.332980 0.420374
0.345645 0.359710 0.417264
0.389630 0.359540 0.417092
0.432430 0.359469 0.416599
0.473738 0.359616 0.416110
0.513806 0.359930 0.415794
0.552755 0.360403 0.415643
0.590673 0.361029 0.415648
0.627632 0.361803 0.415803
0.663686 0.362719 0.416104
0.698882 0.363773 0.416544
0.733257 0.364963 0.417121
0.766846 0.366285 0.417829
0.799675 0.367735 0.418665
0.831769 0.369311 0.419626
0.863149 0.371010 0.420709
0.893834 0.372830 0.421911
0.902304 0.373360 0.422269
0.345796 0.402163 0.416215
0.389583 0.402069 0.415972
0.432811 0.401865 0.415568
0.474723 0.401810 0.415274
0.515381 0.401921 0.415146
0.554906 0.402189 0.415175
0.593389 0.402607 0.415353
0.630902 0.403172 0.415674
0.667500 0.403877 0.416135
0.703231 0.404718 0.416729
0.738134 0.405693 0.417452
0.772240 0.406797 0.418302
0.805579 0.408027 0.419275
0.838175 0.409381 0.420367
0.870051 0.410855 0.421576
0.901224 0.412448 0.422899
0.909829 0.412914 0.423289
0.346584 0.443658 0.415279
0.389760 0.443758 0.414798
0.432661 0.443642 0.414298
0.474833 0.443470 0.414145
0.515774 0.443441 0.414258
0.555574 0.443567 0.414520
0.594324 0.443841 0.414923
0.632096 0.444258 0.415462
0.668947 0.444814 0.416134
0.704923 0.445504 0.416932
0.740064 0.446324 0.417855
0.774403 0.447271 0.418897
0.807968 0.448341 0.420057
0.840785 0.449532 0.421330
0.872875 0.450842 0.422715
0.904258 0.452267 0.424208
0.912921 0.452686 0.424645
0.347892 0.484261 0.414825
0.390412 0.484546 0.414102
0.432815 0.484547 0.413507
0.474773 0.484414 0.413149
0.515922 0.484272 0.413256
0.555942 0.484253 0.413739
0.594905 0.484381 0.414355
0.632883 0.484649 0.415102
0.669932 0.485053 0.415973
0.706102 0.485588 0.416965
0.741429 0.486251 0.418075
0.775949 0.487039 0.419300
0.809691 0.487947 0.420636
0.842680 0.488976 0.422082
0.874941 0.490123 0.423638
0.906496 0.491389 0.425304
0.915208 0.491765 0.425791
0.349596 0.524047 0.414793
0.391451 0.524500 0.413812
0.433344 0.524603 0.413107
0.474932 0.524512 0.412770
0.515873 0.524407 0.412415
0.556086 0.524270 0.412750
0.595242 0.524239 0.413561
0.633406 0.524346 0.414495
0.670636 0.524587 0.415548
0.706981 0.524958 0.416716
0.742481 0.525458 0.418000
0.777175 0.526083 0.419398
0.811092 0.526834 0.420910
0.844260 0.527709 0.422536
0.876703 0.528708 0.424275
0.908444 0.529828 0.426127
0.917208 0.530164 0.426666
0.351628 0.563052 0.415113
0.392808 0.563658 0.413860
0.434180 0.563848 0.413027
0.475386 0.563785 0.412694
0.515945 0.563703 0.412339
0.555955 0.563603 0.411961
0.595291 0.563450 0.412495
0.633631 0.563392 0.413605
0.671038 0.563470 0.414835
0.707562 0.563684 0.416184
0.743245 0.564030 0.417651
0.778124 0.564507 0.419235
0.812230 0.565114 0.420937
0.845590 0.565850 0.422756
0.878229 0.566712 0.424690
0.910167 0.567702 0.426741
0.918988 0.568001 0.427336
0.353929 0.601300 0.415720
0.394422 0.602043 0.414180
0.435262 0.602306 0.413205
0.476076 0.602260 0.412863
0.516250 0.602196 0.412500
0.555884 0.602116 0.412118
0.595049 0.602023 0.411718
0.633589 0.601863 0.412462
0.671186 0.601793 0.413882
0.707903 0.601863 0.415425
0.743782 0.602070 0.417088
0.778860 0.602412 0.418872
0.813168 0.602888 0.420776
0.846732 0.603497 0.422800
0.879579 0.604237 0.424943
0.911728 0.605108 0.427205
0.920608 0.605374 0.427860
0.356443 0.638804 0.416558
0.396252 0.639678 0.414728
0.436568 0.640017 0.413617
0.477004 0.639996 0.413276
0.516811 0.639961 0.412920
0.556087 0.639914 0.412549
0.594904 0.639856 0.412165
0.633317 0.639789 0.411770
0.671139 0.639643 0.412746
0.708062 0.639582 0.414496
0.744150 0.639663 0.416369
0.779440 0.639883 0.418365
0.813962 0.640241 0.420484
0.847744 0.640736 0.422725
0.880811 0.641366 0.425089
0.913183 0.642130 0.427575
0.922126 0.642368 0.428293
0.359179 0.675617 0.417634
0.398323 0.676633 0.415532
0.438136 0.677059 0.414300
0.478213 0.677077 0.413977
0.517672 0.677083 0.413643
0.556608 0.677081 0.413298
0.595094 0.677070 0.412945
0.633184 0.677054 0.412585
0.670922 0.677032 0.412218
0.708093 0.676919 0.413449
0.744403 0.676885 0.415544
0.779917 0.676996 0.417765
0.814666 0.677249 0.420112
0.848678 0.677642 0.422584
0.881977 0.678174 0.425180
0.914586 0.678844 0.427902
0.923595 0.679057 0.428686
0.362179 0.711813 0.418989
0.400680 0.712984 0.416633
0.440009 0.713509 0.415298
0.479746 0.713576 0.415007
0.518873 0.713636 0.414710
0.557488 0.713689 0.414406
0.595660 0.713738 0.414098
0.633444 0.713783 0.413787
0.670882 0.713826 0.413473
0.708011 0.713868 0.413158
0.744592 0.713806 0.414666
0.780343 0.713819 0.417124
0.815332 0.713978 0.419710
0.849586 0.714282 0.422424
0.883130 0.714728 0.425266
0.915985 0.715315 0.428235
0.925064 0.715505 0.429089
0.365488 0.747460 0.420666
0.403365 0.748797 0.418072
0.442230 0.749433 0.416650
0.481643 0.749562 0.416407
0.520457 0.749686 0.416161
0.558767 0.749807 0.415913
0.596641 0.749926 0.415664
0.634135 0.750044 0.415415
0.671291 0.750163 0.415169
0.708144 0.750284 0.414924
0.744722 0.750407 0.414684
0.780766 0.750413 0.416488
0.816007 0.750490 0.419326
0.850515 0.750715 0.422295
0.884315 0.751087 0.425393
0.917430 0.751603 0.428622
0.926582 0.751774 0.429549
0.369146 0.782622 0.422704
0.406420 0.784136 0.419891
0.444838 0.784894 0.418396
0.483944 0.785096 0.418215
0.522462 0.785296 0.418035
0.560483 0.785495 0.417857
0.598077 0.785695 0.417681
0.635297 0.785897 0.417509
0.672186 0.786103 0.417343
0.708778 0.786313 0.417183
0.745102 0.786528 0.417030
0.781182 0.786750 0.416884
0.816737 0.786840 0.419006
0.851512 0.786999 0.422240
0.885581 0.787307 0.425608
0.918967 0.787764 0.429107
0.928195 0.787918 0.430111
0.373194 0.817354 0.425143
0.409884 0.819057 0.422127
0.447872 0.819949 0.420576
0.486689 0.820235 0.420471
0.524926 0.820522 0.420371
0.562675 0.820810 0.420276
0.600004 0.821103 0.420187
0.636966 0.821399 0.420106
0.673604 0.821702 0.420033
0.709951 0.822012 0.419970
0.746036 0.822329 0.419917
0.781882 0.822656 0.419876
0.817510 0.822992 0.419848
0.852621 0.823184 0.422305
0.886970 0.823439 0.425952
0.920638 0.823847 0.429735
0.929946 0.823988 0.430818
0.377672 0.851712 0.428021
0.413795 0.853614 0.424818
0.451372 0.854650 0.423226
0.489915 0.855032 0.423212
0.527887 0.855417 0.423205
0.565379 0.855806 0.423207
0.602459 0.856201 0.423219
0.639179 0.856602 0.423241
0.675580 0.857013 0.423275
0.711697 0.857432 0.423322
0.747558 0.857862 0.423383
0.783185 0.858303 0.423459
0.818600 0.858757 0.423550
0.853819 0.859224 0.423658
0.888526 0.859532 0.426469
0.922488 0.859902 0.430546
0.931879 0.860033 0.431712
0.382616 0.885745 0.431376
0.418192 0.887858 0.428002
0.455373 0.889049 0.426384
0.493659 0.889538 0.426474
0.531382 0.890031 0.426574
0.568632 0.890531 0.426686
0.605478 0.891039 0.426811
0.641970 0.891556 0.426950
0.678150 0.892084 0.427104
0.714052 0.892623 0.427274
0.749703 0.893176 0.427461
0.785126 0.893742 0.427666
0.820342 0.894322 0.427889
0.855367 0.894918 0.428133
0.890218 0.895531 0.428397
0.924557 0.895972 0.431581
0.934034 0.896096 0.432833
0.384090 0.895223 0.432406
0.419515 0.897396 0.428987
0.456589 0.898633 0.427364
0.494805 0.899154 0.427485
0.532461 0.899679 0.427618
0.569647 0.900212 0.427764
0.606429 0.900753 0.427923
0.642860 0.901305 0.428097
0.678981 0.901867 0.428287
0.714825 0.902442 0.428493
0.750419 0.903030 0.428718
0.785788 0.903633 0.428961
0.820951 0.904251 0.429223
0.855924 0.904885 0.429507
0.890725 0.905536 0.429812
0.925182 0.906080 0.431917
0.934683 0.906203 0.433193
0.345365 0.316529 0.458539
0.388726 0.316517 0.458344
0.431113 0.316513 0.458162
0.472176 0.316730 0.457534
0.511652 0.317268 0.456642
0.550020 0.317966 0.455926
0.587370 0.318817 0.455377
0.623770 0.319818 0.454989
0.659275 0.320962 0.454756
0.693931 0.322248 0.454671
0.727775 0.323670 0.454731
0.760840 0.325225 0.454930
0.793153 0.326912 0.455265
0.824738 0.328725 0.455732
0.855617 0.330664 0.456328
0.885807 0.332726 0.457049
