resources/luts/pastel-fade.cube
TITLE "pastel-fade"
LUT_3D_SIZE 6
DOMAIN_MIN 0 0 0
DOMAIN_MAX 1 1 1
0.131396 0.133301 0.133497
0.296490 0.140876 0.140613
0.451943 0.148343 0.147592
0.602472 0.155730 0.154479
0.749686 0.163063 0.161312
0.894410 0.170368 0.168131
0.147200 0.301636 0.147328
0.310936 0.308394 0.154165
0.465829 0.315148 0.160972
0.616017 0.321916 0.167782
0.763207 0.328800 0.174757
0.908222 0.335835 0.181951
0.162778 0.459849 0.160777
0.325320 0.466332 0.167535
0.479917 0.472955 0.174484
0.630267 0.479749 0.181676
0.777697 0.486702 0.189097
0.922892 0.493805 0.196740
0.178349 0.613130 0.174271
0.340324 0.619735 0.181413
0.494918 0.626521 0.188818
0.645318 0.633471 0.196461
0.792772 0.640568 0.204323
0.937938 0.647709 0.212234
0.194676 0.763584 0.188523
0.356089 0.770405 0.196141
0.510484 0.777389 0.204003
0.660735 0.784428 0.211932
0.808017 0.791460 0.219829
0.952962 0.798466 0.227666
0.211493 0.912083 0.203606
0.372211 0.919056 0.211571
0.526223 0.926015 0.219494
0.676139 0.932946 0.227354
0.823067 0.939831 0.235125
0.967609 0.946654 0.242783
0.134485 0.136212 0.286591
0.299301 0.143734 0.292989
0.454642 0.151163 0.299315
0.605103 0.158523 0.305603
0.752267 0.165841 0.311887
0.896993 0.173158 0.318226
0.150242 0.304224 0.299074
0.313733 0.310970 0.305311
0.468522 0.317721 0.311569
0.618699 0.324518 0.317909
0.765954 0.331462 0.324488
0.911022 0.338556 0.331311
0.165780 0.462324 0.311393
0.328156 0.468837 0.317676
0.482772 0.475525 0.324233
0.633150 0.482382 0.331056
0.780603 0.489396 0.338128
0.925808 0.496559 0.345442
0.181472 0.615629 0.324022
0.343353 0.622302 0.330801
0.497925 0.629153 0.337860
0.648313 0.636166 0.345176
0.795749 0.643298 0.352684
0.940886 0.650440 0.360203
0.197935 0.766160 0.337562
0.359227 0.773048 0.344859
0.513562 0.780074 0.352378
0.663762 0.787116 0.359915
0.810988 0.794142 0.367423
0.955866 0.801133 0.374874
0.214812 0.914733 0.351993
0.375379 0.921709 0.359568
0.529295 0.928664 0.367104
0.679123 0.935582 0.374577
0.825957 0.942446 0.381964
0.970397 0.949239 0.389239
0.137565 0.139108 0.430813
0.302109 0.146584 0.436900
0.457341 0.153979 0.442940
0.607733 0.161317 0.448965
0.754847 0.168623 0.455006
0.899621 0.175971 0.461174
0.153275 0.306814 0.442709
0.316528 0.313551 0.448683
0.471213 0.320303 0.454700
0.621422 0.327148 0.460878
0.768730 0.334149 0.467315
0.913840 0.341300 0.474001
0.168776 0.464809 0.454530
0.331033 0.471370 0.460649
0.485655 0.478121 0.467069
0.636051 0.485038 0.473757
0.783516 0.492111 0.480700
0.928723 0.499331 0.487888
0.184621 0.618154 0.466850
0.346399 0.624893 0.473502
0.500940 0.631806 0.480435
0.651307 0.638879 0.487629
0.798717 0.646023 0.494940
0.943818 0.653162 0.502245
0.201200 0.768758 0.480127
0.362362 0.775710 0.487308
0.516630 0.782756 0.494641
0.666772 0.789797 0.501966
0.813935 0.796813 0.509253
0.958740 0.803788 0.516478
0.218120 0.917380 0.494264
0.378530 0.924356 0.501627
0.532344 0.931303 0.508944
0.682078 0.938205 0.516190
0.828813 0.945046 0.523343
0.973146 0.951809 0.530378
0.140634 0.141989 0.570475
0.304915 0.149424 0.576360
0.460038 0.156790 0.582218
0.610362 0.164109 0.588077
0.757440 0.171412 0.593978
0.902287 0.178805 0.600080
0.156301 0.309403 0.581994
0.319321 0.316135 0.587803
0.473925 0.322899 0.593686
0.624182 0.329801 0.599801
0.771533 0.336859 0.606177
0.916675 0.344063 0.612804
0.171776 0.467304 0.593513
0.333945 0.473929 0.599574
0.488565 0.480739 0.605936
0.638969 0.487715 0.612568
0.786437 0.494845 0.619456
0.931638 0.502108 0.626567
0.187793 0.620702 0.605708
0.349461 0.627505 0.612309
0.503964 0.634479 0.619192
0.654301 0.641598 0.626313
0.801677 0.648744 0.633484
0.946735 0.655879 0.640640
0.204472 0.771376 0.618870
0.365498 0.778385 0.625996
0.519692 0.785435 0.633190
0.669768 0.792471 0.640366
0.816862 0.799477 0.647495
0.961589 0.806433 0.654553
0.221420 0.920024 0.632818
0.381668 0.926998 0.640034
0.535373 0.933934 0.647193
0.685006 0.940818 0.654273
0.831638 0.947633 0.661251
0.975857 0.954364 0.668102
0.143695 0.144857 0.707058
0.307718 0.152254 0.712794
0.462734 0.159595 0.718521
0.612990 0.166900 0.724265
0.760075 0.174219 0.730098
0.904987 0.181657 0.736176
0.159319 0.311992 0.718302
0.322111 0.318722 0.723997
0.476679 0.325518 0.729820
0.626975 0.332476 0.735912
0.774360 0.339588 0.742267
0.919526 0.346846 0.748873
0.174811 0.469822 0.729639
0.336888 0.476509 0.735685
0.491497 0.483379 0.742029
0.641901 0.490412 0.748643
0.789365 0.497599 0.755514
0.934553 0.504883 0.762553
0.190986 0.623273 0.741790
0.352538 0.630138 0.748380
0.506994 0.637171 0.755248
0.657294 0.644316 0.762302
0.804630 0.651462 0.769365
0.949639 0.658589 0.776403
0.207748 0.774014 0.754913
0.368633 0.781059 0.761988
0.522746 0.788111 0.769076
0.672750 0.795140 0.776134
0.819768 0.802131 0.783136
0.964411 0.809066 0.790057
0.224710 0.922666 0.768708
0.384791 0.929634 0.775808
0.538382 0.936557 0.782840
0.687909 0.943420 0.789784
0.834431 0.950207 0.796616
0.978533 0.956903 0.803312
0.146746 0.147711 0.841324
0.310518 0.155076 0.846944
0.465428 0.162396 0.852572
0.615616 0.169689 0.858231
0.762748 0.177044 0.864051
0.907717 0.184527 0.870127
0.162329 0.314581 0.852356
0.324899 0.321312 0.857968
0.479469 0.328158 0.863783
0.629795 0.335171 0.869877
0.777207 0.342337 0.876233
0.922389 0.349648 0.882842
0.177879 0.472362 0.863596
0.339859 0.479111 0.869650
0.494449 0.486039 0.875999
0.644846 0.493129 0.882617
0.792299 0.500367 0.889488
0.937467 0.507657 0.896450
0.194196 0.625864 0.875748
0.355627 0.632790 0.882349
0.510029 0.639881 0.889223
0.660286 0.647033 0.896202
0.807575 0.654176 0.903175
0.952528 0.661293 0.910114
0.211027 0.776671 0.888877
0.371767 0.783733 0.895891
0.525791 0.790783 0.902890
0.675717 0.797803 0.909849
0.822654 0.804777 0.916741
0.967207 0.811689 0.923543
0.227991 0.925305 0.902527
0.387900 0.932265 0.909529
0.541371 0.939172 0.916452
0.690786 0.946011 0.923276
0.837192 0.952768 0.929979
0.981171 0.959428 0.936538
