resources/luts/pastel-fade.cube
TITLE "pastel-fade"
LUT_3D_SIZE 16
DOMAIN_MIN 0 0 0
DOMAIN_MAX 1 1 1
0.131396 0.133301 0.133497
0.188207 0.135840 0.135887
0.243000 0.138365 0.138258
0.296490 0.140876 0.140613
0.349021 0.143376 0.142952
0.400794 0.145864 0.145278
0.451943 0.148343 0.147592
0.502561 0.150813 0.149896
0.552720 0.153275 0.152191
0.602472 0.155730 0.154479
0.651862 0.158179 0.156760
0.700923 0.160623 0.159038
0.749686 0.163063 0.161312
0.798174 0.165500 0.163584
0.846409 0.167935 0.165857
0.894410 0.170368 0.168131
0.136692 0.191300 0.138172
0.193268 0.193698 0.140517
0.247922 0.196088 0.142849
0.301313 0.198470 0.145170
0.353767 0.200847 0.147479
0.405479 0.203217 0.149778
0.456576 0.205583 0.152070
0.507150 0.207945 0.154355
0.557269 0.210303 0.156634
0.606987 0.212659 0.158909
0.656345 0.215013 0.161182
0.705379 0.217367 0.163454
0.754115 0.219720 0.165726
0.802585 0.222075 0.168002
0.850834 0.224445 0.170299
0.898882 0.226830 0.172621
0.141960 0.247155 0.142777
0.198314 0.249467 0.145087
0.252833 0.251776 0.147389
0.306128 0.254082 0.149683
0.358508 0.256384 0.151970
0.410159 0.258683 0.154250
0.461205 0.260981 0.156526
0.511735 0.263277 0.158799
0.561816 0.265574 0.161070
0.611499 0.267870 0.163339
0.660826 0.270167 0.165610
0.709839 0.272469 0.167886
0.758591 0.274787 0.170186
0.807106 0.277121 0.172510
0.855403 0.279471 0.174858
0.903495 0.281838 0.177230
0.147200 0.301636 0.147328
0.203345 0.303890 0.149611
0.257734 0.306142 0.151890
0.310936 0.308394 0.154165
0.363243 0.310645 0.156436
0.414834 0.312897 0.158705
0.465829 0.315148 0.160972
0.516316 0.317401 0.163239
0.566359 0.319655 0.165507
0.616017 0.321916 0.167782
0.665358 0.324193 0.170082
0.714413 0.326488 0.172407
0.763207 0.328800 0.174757
0.811762 0.331129 0.177131
0.860096 0.333474 0.179529
0.908222 0.335835 0.181951
0.152416 0.355112 0.151837
0.208362 0.357323 0.154100
0.262625 0.359535 0.156364
0.315736 0.361748 0.158626
0.367971 0.363963 0.160888
0.419504 0.366179 0.163151
0.470450 0.368399 0.165416
0.520903 0.370625 0.167689
0.570953 0.372869 0.169987
0.620648 0.375131 0.172311
0.670025 0.377411 0.174660
0.719116 0.379709 0.177035
0.767943 0.382023 0.179434
0.816529 0.384355 0.181858
0.864891 0.386703 0.184306
0.913044 0.389067 0.186778
0.157608 0.407802 0.156316
0.213365 0.409980 0.158567
0.267507 0.412162 0.160821
0.320529 0.414347 0.163078
0.372694 0.416536 0.165338
0.424177 0.418732 0.167606
0.475119 0.420946 0.169900
0.525600 0.423180 0.172222
0.575680 0.425433 0.174569
0.625404 0.427703 0.176943
0.674810 0.429992 0.179342
0.723927 0.432297 0.181766
0.772780 0.434620 0.184215
0.821388 0.436959 0.186688
0.869770 0.439315 0.189186
0.917939 0.441688 0.191708
0.162778 0.459849 0.160777
0.218355 0.462004 0.163023
0.272380 0.464164 0.165274
0.325320 0.466332 0.167535
0.377459 0.468519 0.169823
0.428956 0.470727 0.172139
0.479917 0.472955 0.174484
0.530420 0.475201 0.176855
0.580521 0.477466 0.179252
0.630267 0.479749 0.181676
0.679693 0.482049 0.184124
0.728828 0.484367 0.186598
0.777697 0.486702 0.189097
0.826320 0.489053 0.191620
0.874713 0.491421 0.194168
0.922892 0.493805 0.196740
0.167927 0.511358 0.165232
0.223336 0.513498 0.167480
0.277284 0.515658 0.169757
0.330210 0.517841 0.172065
0.382350 0.520045 0.174404
0.433855 0.522269 0.176771
0.484828 0.524512 0.179165
0.535344 0.526774 0.181586
0.585459 0.529054 0.184034
0.635218 0.531352 0.186507
0.684656 0.533668 0.189006
0.733802 0.536000 0.191529
0.782679 0.538349 0.194078
0.831308 0.540715 0.196651
0.879706 0.543098 0.199249
0.927886 0.545496 0.201871
0.173085 0.562419 0.169707
0.228399 0.564575 0.172003
0.282308 0.566756 0.174332
0.335217 0.568958 0.176692
0.387351 0.571180 0.179081
0.438857 0.573423 0.181499
0.489834 0.575684 0.183944
0.540355 0.577964 0.186415
0.590476 0.580261 0.188912
0.640240 0.582576 0.191436
0.689682 0.584909 0.193984
0.738831 0.587258 0.196558
0.787709 0.589624 0.199157
0.836337 0.592007 0.201780
0.884731 0.594400 0.204418
0.932906 0.596793 0.207055
0.178349 0.613130 0.174271
0.233575 0.615309 0.176620
0.287440 0.617511 0.179002
0.340324 0.619735 0.181413
0.392446 0.621978 0.183854
0.443945 0.624240 0.186322
0.494918 0.626521 0.188818
0.545437 0.628820 0.191339
0.595556 0.631136 0.193887
0.645318 0.633471 0.196461
0.694757 0.635822 0.199060
0.743900 0.638190 0.201684
0.792772 0.640568 0.204323
0.841392 0.642948 0.206962
0.889775 0.645329 0.209599
0.937938 0.647709 0.212234
0.183713 0.663540 0.178929
0.238848 0.665743 0.181331
0.292662 0.667968 0.183765
0.345516 0.670213 0.186229
0.397617 0.672478 0.188721
0.449102 0.674761 0.191240
0.500064 0.677063 0.193787
0.550574 0.679383 0.196359
0.600684 0.681720 0.198958
0.650436 0.684074 0.201582
0.699864 0.686440 0.204223
0.748996 0.688808 0.206863
0.797854 0.691176 0.209502
0.846458 0.693544 0.212139
0.894824 0.695911 0.214772
0.942966 0.698276 0.217401
0.189160 0.713681 0.183679
0.244201 0.715910 0.186136
0.297959 0.718158 0.188623
0.350776 0.720427 0.191138
0.402850 0.722715 0.193682
0.454314 0.725021 0.196253
0.505258 0.727344 0.198850
0.555750 0.729686 0.201474
0.605844 0.732040 0.204116
0.655579 0.734397 0.206759
0.704990 0.736753 0.209400
0.754103 0.739110 0.212039
0.802940 0.741466 0.214674
0.851521 0.743820 0.217304
0.899863 0.746172 0.219929
0.947979 0.748521 0.222548
0.194676 0.763584 0.188523
0.249620 0.765838 0.191033
0.303317 0.768112 0.193573
0.356089 0.770405 0.196141
0.408130 0.772716 0.198736
0.459565 0.775045 0.201359
0.510484 0.777389 0.204003
0.560953 0.779735 0.206648
0.611023 0.782082 0.209291
0.660735 0.784428 0.211932
0.710121 0.786774 0.214569
0.759207 0.789118 0.217202
0.808017 0.791460 0.219829
0.856569 0.793799 0.222449
0.904880 0.796135 0.225062
0.952962 0.798466 0.227666
0.200246 0.813273 0.193458
0.255089 0.815553 0.196023
0.308719 0.817852 0.198616
0.361442 0.820169 0.201236
0.413443 0.822503 0.203881
0.464842 0.824840 0.206530
0.515729 0.827178 0.209176
0.566168 0.829516 0.211820
0.616207 0.831853 0.214459
0.665889 0.834188 0.217094
0.715243 0.836521 0.219723
0.764297 0.838850 0.222346
0.813073 0.841176 0.224961
0.861589 0.843498 0.227567
0.909861 0.845815 0.230163
0.957903 0.848126 0.232749
0.205856 0.862766 0.198486
0.260596 0.865073 0.201105
0.314154 0.867397 0.203750
0.366821 0.869727 0.206403
0.418774 0.872058 0.209053
0.470132 0.874388 0.211699
0.520980 0.876716 0.214342
0.571381 0.879043 0.216980
0.621384 0.881368 0.219612
0.671028 0.883690 0.222237
0.720344 0.886008 0.224854
0.769358 0.888321 0.227463
0.818093 0.890630 0.230062
0.866566 0.892932 0.232650
0.914794 0.895229 0.235226
0.962789 0.897518 0.237791
0.211493 0.912083 0.203606
0.266126 0.914408 0.206264
0.319606 0.916732 0.208919
0.372211 0.919056 0.211571
0.424111 0.921378 0.214218
0.475421 0.923698 0.216859
0.526223 0.926015 0.219494
0.576580 0.928330 0.222123
0.626539 0.930640 0.224743
0.676139 0.932946 0.227354
0.725411 0.935247 0.229955
0.774379 0.937543 0.232546
0.823067 0.939831 0.235125
0.871491 0.942113 0.237691
0.919667 0.944388 0.240244
0.967609 0.946654 0.242783
0.132427 0.134273 0.186156
0.189191 0.136805 0.188425
0.243957 0.139323 0.190681
0.297428 0.141830 0.192924
0.349943 0.144324 0.195156
0.401704 0.146808 0.197378
0.452843 0.149283 0.199591
0.503453 0.151749 0.201798
0.553603 0.154208 0.203999
0.603349 0.156660 0.206195
0.652733 0.159107 0.208388
0.701789 0.161550 0.210580
0.750546 0.163988 0.212771
0.799030 0.166424 0.214963
0.847260 0.168858 0.217157
0.895265 0.171295 0.219361
0.137718 0.192218 0.190599
0.194249 0.194611 0.192832
0.248876 0.196997 0.195057
0.302249 0.199376 0.197273
0.354689 0.201750 0.199481
0.406388 0.204118 0.201684
0.457475 0.206481 0.203881
0.508041 0.208841 0.206074
0.558152 0.211198 0.208266
0.607864 0.213553 0.210455
0.657216 0.215907 0.212645
0.706244 0.218260 0.214836
0.754975 0.220613 0.217030
0.803451 0.222973 0.219237
0.851710 0.225349 0.221469
0.899767 0.227741 0.223727
0.142980 0.248040 0.194989
0.199292 0.250349 0.197195
0.253785 0.252656 0.199396
0.307062 0.254959 0.201592
0.359428 0.257259 0.203784
0.411067 0.259558 0.205974
0.462103 0.261854 0.208161
0.512625 0.264150 0.210348
0.562698 0.266446 0.212536
0.612375 0.268742 0.214725
0.661696 0.271040 0.216917
0.710716 0.273348 0.219126
0.759477 0.275672 0.221360
0.808001 0.278013 0.223621
0.856305 0.280370 0.225907
0.904405 0.282743 0.228219
0.148215 0.302498 0.199338
0.204320 0.304750 0.201523
0.258685 0.307001 0.203708
0.311868 0.309252 0.205891
0.364161 0.311502 0.208074
0.415741 0.313753 0.210257
0.466727 0.316005 0.212441
0.517205 0.318257 0.214628
0.567241 0.320513 0.216817
0.616906 0.322779 0.219025
0.666255 0.325064 0.221260
0.715317 0.327366 0.223522
0.764119 0.329684 0.225809
0.812681 0.332020 0.228123
0.861021 0.334372 0.230462
0.909154 0.336740 0.232826
0.153426 0.355958 0.203658
0.209334 0.358167 0.205830
0.263574 0.360378 0.208005
0.316667 0.362591 0.210182
0.368889 0.364806 0.212361
0.420410 0.367023 0.214543
0.471347 0.369244 0.216730
0.521805 0.371476 0.218935
0.571862 0.373727 0.221168
0.621564 0.375997 0.223429
0.670948 0.378284 0.225716
0.720044 0.380588 0.228030
0.768878 0.382910 0.230370
0.817469 0.385248 0.232737
0.865835 0.387602 0.235128
0.913992 0.389973 0.237545
0.158613 0.408635 0.207960
0.214335 0.410813 0.210126
0.268454 0.412995 0.212297
0.321459 0.415181 0.214473
0.373611 0.417370 0.216654
0.425096 0.419572 0.218854
0.476042 0.421794 0.221084
0.526529 0.424036 0.223342
0.576614 0.426295 0.225628
0.626344 0.428573 0.227941
0.675755 0.430868 0.230281
0.724876 0.433181 0.232648
0.773732 0.435510 0.235040
0.822344 0.437857 0.237459
0.870729 0.440219 0.239903
0.918901 0.442598 0.242372
0.163779 0.460673 0.212255
0.219323 0.462828 0.214420
0.273325 0.464989 0.216593
0.326261 0.467163 0.218785
0.378401 0.469358 0.221008
0.429901 0.471574 0.223261
0.480865 0.473808 0.225544
0.531372 0.476062 0.227855
0.581477 0.478334 0.230194
0.631226 0.480624 0.232560
0.680656 0.482931 0.234952
0.729794 0.485256 0.237371
0.778665 0.487598 0.239816
0.827290 0.489956 0.242287
0.875685 0.492330 0.244783
0.923865 0.494721 0.247305
0.168925 0.512175 0.216553
0.224310 0.514320 0.218730
0.278252 0.516488 0.220943
0.331176 0.518679 0.223189
0.383316 0.520890 0.225466
0.434823 0.523122 0.227773
0.485798 0.525372 0.230109
0.536316 0.527641 0.232472
0.586433 0.529929 0.234864
0.636194 0.532234 0.237282
0.685633 0.534556 0.239727
0.734780 0.536895 0.242198
0.783659 0.539252 0.244695
0.832288 0.541624 0.247218
0.880686 0.544013 0.249767
0.928866 0.546418 0.252339
0.174101 0.563240 0.220894
0.229398 0.565405 0.223127
0.283300 0.567593 0.225395
0.336205 0.569803 0.227695
0.388338 0.572033 0.230026
0.439844 0.574283 0.232386
0.490821 0.576551 0.234775
0.541343 0.578838 0.237192
0.591465 0.581143 0.239636
0.641229 0.583465 0.242106
0.690671 0.585804 0.244604
0.739820 0.588161 0.247127
0.788697 0.590534 0.249677
0.837324 0.592922 0.252251
0.885717 0.595316 0.254831
0.933890 0.597710 0.257412
0.179387 0.613960 0.225334
0.234596 0.616147 0.227624
0.288452 0.618357 0.229947
0.341332 0.620587 0.232302
0.393451 0.622838 0.234686
0.444948 0.625108 0.237100
0.495920 0.627396 0.239542
0.546438 0.629702 0.242012
0.596556 0.632026 0.244508
0.646317 0.634367 0.247032
0.695754 0.636725 0.249581
0.744896 0.639099 0.252156
0.793766 0.641479 0.254739
0.842383 0.643859 0.257321
0.890764 0.646240 0.259902
0.938923 0.648620 0.262481
0.184770 0.664378 0.229874
0.239887 0.666589 0.232220
0.293692 0.668821 0.234598
0.346539 0.671074 0.237008
0.398637 0.673347 0.239446
0.450118 0.675637 0.241914
0.501078 0.677947 0.244409
0.551585 0.680273 0.246931
0.601692 0.682618 0.249481
0.651442 0.684979 0.252056
0.700867 0.687346 0.254640
0.749996 0.689714 0.257224
0.798850 0.692082 0.259807
0.847450 0.694450 0.262388
0.895812 0.696817 0.264966
0.943950 0.699181 0.267540
0.190233 0.714528 0.234512
0.245256 0.716764 0.236914
0.299003 0.719021 0.239348
0.351812 0.721297 0.241812
0.403881 0.723592 0.244305
0.455340 0.725905 0.246826
0.506280 0.728236 0.249374
0.556768 0.730585 0.251950
0.606858 0.732941 0.254536
0.656589 0.735298 0.257122
0.705996 0.737655 0.259707
0.755104 0.740011 0.262290
0.803936 0.742367 0.264870
0.852512 0.744721 0.267445
0.900848 0.747072 0.270016
0.948958 0.749420 0.272580
0.195762 0.764441 0.239248
0.250687 0.766702 0.241706
0.304372 0.768983 0.244196
0.357136 0.771284 0.246714
0.409169 0.773602 0.249261
0.460598 0.775939 0.251836
0.511511 0.778285 0.254424
0.561975 0.780632 0.257013
0.612040 0.782979 0.259600
0.661746 0.785325 0.262185
0.711126 0.787671 0.264767
0.760207 0.790014 0.267345
0.809011 0.792355 0.269918
0.857556 0.794693 0.272484
0.905859 0.797027 0.275043
0.953933 0.799356 0.277594
0.201342 0.814138 0.244080
0.256166 0.816426 0.246596
0.309783 0.818733 0.249140
0.362496 0.821057 0.251713
0.414487 0.823395 0.254305
0.465880 0.825733 0.256897
0.516759 0.828071 0.259487
0.567191 0.830409 0.262075
0.617224 0.832745 0.264659
0.666898 0.835080 0.267239
0.716246 0.837412 0.269814
0.765292 0.839740 0.272382
0.814060 0.842065 0.274943
0.862568 0.844385 0.277496
0.910832 0.846700 0.280040
0.958865 0.849009 0.282573
0.206960 0.863642 0.249009
0.261679 0.865956 0.251581
0.315222 0.868285 0.254176
0.367878 0.870616 0.256772
0.419821 0.872947 0.259365
0.471171 0.875277 0.261957
0.522010 0.877605 0.264544
0.572403 0.879932 0.267127
0.622397 0.882256 0.269705
0.672033 0.884576 0.272276
0.721341 0.886893 0.274839
0.770347 0.889204 0.277394
0.819072 0.891511 0.279940
0.867536 0.893811 0.282475
0.915754 0.896105 0.285000
0.963739 0.898392 0.287512
0.212601 0.912967 0.254033
0.267213 0.915293 0.256635
0.320677 0.917617 0.259234
0.373269 0.919941 0.261830
0.425158 0.922263 0.264422
0.476458 0.924583 0.267008
0.527250 0.926900 0.269589
0.577598 0.929213 0.272163
0.627547 0.931522 0.274730
0.677137 0.933826 0.277288
0.726399 0.936125 0.279836
0.775357 0.938418 0.282374
0.824034 0.940705 0.284900
0.872448 0.942984 0.287414
0.920613 0.945255 0.289915
0.968543 0.947517 0.292402
0.133457 0.135243 0.236973
0.190175 0.137769 0.239168
0.244913 0.140282 0.241352
0.298364 0.142782 0.243526
0.350865 0.145272 0.245691
0.402614 0.147752 0.247847
0.453743 0.150223 0.249996
0.504344 0.152686 0.252140
0.554487 0.155142 0.254281
0.604226 0.157592 0.256418
0.653604 0.160037 0.258554
0.702654 0.162477 0.260689
0.751407 0.164914 0.262826
0.799886 0.167349 0.264965
0.848112 0.169783 0.267107
0.896127 0.172225 0.269268
0.138742 0.193135 0.241273
0.195230 0.195524 0.243437
0.249830 0.197906 0.245594
0.303184 0.200282 0.247744
0.355610 0.202653 0.249889
0.407297 0.205019 0.252029
0.458374 0.207381 0.254165
0.508931 0.209739 0.256300
0.559036 0.212095 0.258433
0.608740 0.214449 0.260567
0.658086 0.216802 0.262702
0.707109 0.219155 0.264840
0.755837 0.221509 0.266983
0.804323 0.223875 0.269148
0.852591 0.226257 0.271340
0.900657 0.228655 0.273557
0.143998 0.248925 0.245528
0.200269 0.251232 0.247668
0.254738 0.253536 0.249805
0.307996 0.255837 0.251939
0.360348 0.258136 0.254071
0.411975 0.260433 0.256201
0.463002 0.262729 0.258331
0.513515 0.265024 0.260462
0.563581 0.267320 0.262595
0.613251 0.269616 0.264731
0.662570 0.271916 0.266874
0.711599 0.274230 0.269040
0.760368 0.276561 0.271234
0.808900 0.278908 0.273454
0.857212 0.281272 0.275701
0.905318 0.283651 0.277974
0.149229 0.303361 0.249750
0.205295 0.305611 0.251873
0.259635 0.307861 0.253997
0.312801 0.310111 0.256121
0.365080 0.312360 0.258246
0.416648 0.314611 0.260373
0.467625 0.316862 0.262503
0.518094 0.319116 0.264636
0.568127 0.321373 0.266777
0.617800 0.323647 0.268943
0.667156 0.325938 0.271137
0.716226 0.328247 0.273358
0.765035 0.330572 0.275606
0.813603 0.332914 0.277881
0.861949 0.335272 0.280182
0.910087 0.337647 0.282509
0.154435 0.356804 0.253949
0.210307 0.359013 0.256062
0.264523 0.361224 0.258179
0.317598 0.363436 0.260300
0.369806 0.365651 0.262424
0.421316 0.367869 0.264553
0.472248 0.370092 0.266691
0.522712 0.372331 0.268854
0.572775 0.374590 0.271047
0.622484 0.376866 0.273267
0.671874 0.379160 0.275515
0.720976 0.381471 0.277791
0.769815 0.383799 0.280093
0.818410 0.386144 0.282422
0.866781 0.388505 0.284777
0.914941 0.390882 0.287158
0.159618 0.409469 0.258136
0.215305 0.411647 0.260246
0.269401 0.413829 0.262362
0.322388 0.416016 0.264485
0.374530 0.418208 0.266616
0.426019 0.420417 0.268775
0.476970 0.422646 0.270964
0.527461 0.424894 0.273182
0.577551 0.427161 0.275429
0.627286 0.429446 0.277703
0.676701 0.431748 0.280006
0.725827 0.434067 0.282335
0.774687 0.436403 0.284691
0.823302 0.438756 0.287073
0.871689 0.441126 0.289482
0.919864 0.443511 0.291917
0.164780 0.461498 0.262322
0.220290 0.463654 0.264434
0.274272 0.465817 0.266556
0.327206 0.467998 0.268707
0.379347 0.470201 0.270889
0.430849 0.472423 0.273103
0.481817 0.474665 0.275346
0.532326 0.476926 0.277619
0.582435 0.479205 0.279920
0.632187 0.481502 0.282248
0.681619 0.483816 0.284604
0.730760 0.486147 0.286987
0.779633 0.488496 0.289397
0.828260 0.490861 0.291833
0.876656 0.493242 0.294295
0.924837 0.495639 0.296783
0.169922 0.512994 0.266517
0.225290 0.515146 0.268652
0.279225 0.517322 0.270825
0.332146 0.519520 0.273031
0.384286 0.521739 0.275269
0.435793 0.523977 0.277538
0.486769 0.526235 0.279836
0.537289 0.528511 0.282162
0.587408 0.530806 0.284517
0.637170 0.533118 0.286900
0.686611 0.535447 0.289309
0.735759 0.537793 0.291746
0.784638 0.540156 0.294209
0.833268 0.542535 0.296698
0.881665 0.544931 0.299214
0.929845 0.547339 0.301749
0.175120 0.564065 0.270775
0.230401 0.566238 0.272969
0.284295 0.568434 0.275198
0.337196 0.570651 0.277460
0.389328 0.572888 0.279754
0.440833 0.575145 0.282077
0.491810 0.577421 0.284429
0.542332 0.579715 0.286810
0.592454 0.582027 0.289219
0.642218 0.584356 0.291655
0.691660 0.586702 0.294119
0.740808 0.589065 0.296609
0.789685 0.591445 0.299126
0.838310 0.593837 0.301662
0.886701 0.596231 0.304201
0.934872 0.598626 0.306740
0.180428 0.614792 0.275137
0.235620 0.616988 0.277388
0.289467 0.619205 0.279674
0.342341 0.621443 0.281993
0.394457 0.623701 0.284341
0.445952 0.625978 0.286719
0.496922 0.628273 0.289126
0.547439 0.630586 0.291562
0.597556 0.632917 0.294024
0.647315 0.635265 0.296514
0.696751 0.637630 0.299032
0.745891 0.640008 0.301569
0.794758 0.642389 0.304110
0.843373 0.644770 0.306650
0.891750 0.647150 0.309190
0.939906 0.649530 0.311728
0.185829 0.665219 0.279600
0.240929 0.667438 0.281910
0.294723 0.669678 0.284253
0.347564 0.671938 0.286627
0.399656 0.674218 0.289031
0.451134 0.676516 0.291464
0.502091 0.678832 0.293925
0.552595 0.681166 0.296415
0.602700 0.683517 0.298932
0.652446 0.685882 0.301471
0.701869 0.688250 0.304013
0.750994 0.690619 0.306555
0.799845 0.692987 0.309097
0.848441 0.695355 0.311636
0.896798 0.697721 0.314173
0.944930 0.700085 0.316705
0.191307 0.715378 0.284165
0.246312 0.717622 0.286533
0.300048 0.719886 0.288932
0.352849 0.722169 0.291362
0.404912 0.724472 0.293821
0.456365 0.726792 0.296309
0.507300 0.729130 0.298825
0.557785 0.731484 0.301366
0.607870 0.733840 0.303910
0.657598 0.736198 0.306454
0.706999 0.738555 0.308998
0.756103 0.740912 0.311539
0.804930 0.743267 0.314078
0.853500 0.745620 0.316612
0.901830 0.747970 0.319141
0.949933 0.750316 0.321664
0.196848 0.765299 0.288831
0.251754 0.767568 0.291256
0.305427 0.769857 0.293712
0.358181 0.772165 0.296198
0.410208 0.774491 0.298712
0.461630 0.776833 0.301253
0.512537 0.779180 0.303800
0.562995 0.781527 0.306347
0.613054 0.783875 0.308893
0.662755 0.786221 0.311436
0.712129 0.788566 0.313977
0.761204 0.790909 0.316513
0.810001 0.793249 0.319044
0.858539 0.795586 0.321569
0.906835 0.797918 0.324087
0.954901 0.800245 0.326597
0.202438 0.815006 0.293595
0.257242 0.817301 0.296078
0.310845 0.819615 0.298591
0.363547 0.821947 0.301132
0.415530 0.824286 0.303682
0.466915 0.826624 0.306232
0.517787 0.828963 0.308781
0.568212 0.831301 0.311327
0.618238 0.833637 0.313870
0.667905 0.835971 0.316409
0.717245 0.838302 0.318942
0.766284 0.840629 0.321469
0.815044 0.842952 0.323989
0.863543 0.845270 0.326501
0.911798 0.847583 0.329003
0.959822 0.849890 0.331495
0.208062 0.864519 0.298459
0.262761 0.866841 0.300999
0.316289 0.869172 0.303554
0.368933 0.871503 0.306108
0.420866 0.873835 0.308661
0.472206 0.876165 0.311211
0.523037 0.878493 0.313757
0.573422 0.880819 0.316299
0.623408 0.883142 0.318835
0.673035 0.885461 0.321365
0.722334 0.887776 0.323887
0.771331 0.890086 0.326401
0.820047 0.892390 0.328905
0.868501 0.894688 0.331399
0.916709 0.896980 0.333882
0.964683 0.899264 0.336353
0.213707 0.913850 0.303413
0.268297 0.916177 0.305973
0.321746 0.918502 0.308531
0.374325 0.920826 0.311086
0.426202 0.923147 0.313636
0.477492 0.925466 0.316181
0.528274 0.927782 0.318721
0.578612 0.930094 0.321254
0.628552 0.932402 0.323779
0.678132 0.934705 0.326295
0.727383 0.937002 0.328802
0.776332 0.939292 0.331299
0.824998 0.941576 0.333784
0.873400 0.943852 0.336257
0.921554 0.946120 0.338717
0.969472 0.948379 0.341163
0.134485 0.136212 0.286591
0.191157 0.138731 0.288733
0.245869 0.141239 0.290866
0.299301 0.143734 0.292989
0.351787 0.146220 0.295104
0.403524 0.148696 0.297212
0.454642 0.151163 0.299315
0.505235 0.153623 0.301413
0.555371 0.156076 0.303509
0.605103 0.158523 0.305603
0.654474 0.160966 0.307696
0.703519 0.163405 0.309791
0.752267 0.165841 0.311887
0.800741 0.168275 0.313987
0.848969 0.170710 0.316094
0.896993 0.173158 0.318226
0.139765 0.194051 0.290788
0.196210 0.196436 0.292901
0.250784 0.198815 0.295009
0.304119 0.201188 0.297111
0.356530 0.203557 0.299209
0.408206 0.205920 0.301303
0.459273 0.208280 0.303395
0.509822 0.210637 0.305486
0.559918 0.212992 0.307578
0.609616 0.215345 0.309670
0.658957 0.217697 0.311765
0.707973 0.220050 0.313864
0.756705 0.222407 0.315974
0.805199 0.224780 0.318110
0.853476 0.227168 0.320273
0.901550 0.229572 0.322462
0.145016 0.249810 0.294945
0.201247 0.252114 0.297037
0.255689 0.254416 0.299127
0.308930 0.256715 0.301215
0.361267 0.259013 0.303303
0.412883 0.261309 0.305390
0.463900 0.263604 0.307477
0.514404 0.265899 0.309567
0.564463 0.268194 0.311660
0.614126 0.270491 0.313757
0.663449 0.272795 0.315867
0.712486 0.275116 0.318005
0.761264 0.277453 0.320170
0.809803 0.279807 0.322362
0.858121 0.282176 0.324581
0.906235 0.284562 0.326827
0.150242 0.304224 0.299074
0.206269 0.306473 0.301151
0.260585 0.308721 0.303230
0.313733 0.310970 0.305311
0.365998 0.313219 0.307394
0.417555 0.315470 0.309480
0.468522 0.317721 0.311569
0.518983 0.319975 0.313663
0.569018 0.322237 0.315772
0.618699 0.324518 0.317909
0.668062 0.326815 0.320075
0.717139 0.329130 0.322268
0.765954 0.331462 0.324488
0.814528 0.333811 0.326736
0.862879 0.336175 0.329010
0.911022 0.338556 0.331311
0.155443 0.357651 0.303184
0.211278 0.359859 0.305254
0.265471 0.362070 0.307328
0.318529 0.364282 0.309408
0.370724 0.366498 0.311492
0.422222 0.368716 0.313582
0.473154 0.370943 0.315687
0.523624 0.373190 0.317822
0.573693 0.375455 0.319986
0.623407 0.377738 0.322179
0.672803 0.380038 0.324400
0.721910 0.382356 0.326648
0.770754 0.384691 0.328924
0.819354 0.387042 0.331226
0.867728 0.389410 0.333555
0.915892 0.391794 0.335911
0.160622 0.410304 0.307287
0.216274 0.412482 0.309355
0.270347 0.414665 0.311431
0.323318 0.416852 0.313515
0.375455 0.419049 0.315614
0.426947 0.421265 0.317744
0.477902 0.423501 0.319905
0.528398 0.425756 0.322095
0.578492 0.428030 0.324315
0.628231 0.430321 0.326562
0.677650 0.432630 0.328838
0.726779 0.434956 0.331141
0.775642 0.437299 0.333471
0.824260 0.439658 0.335828
0.872650 0.442034 0.338212
0.920826 0.444426 0.340622
0.165780 0.462324 0.311393
0.221257 0.464481 0.313465
0.275224 0.466648 0.315554
0.328156 0.468837 0.317676
0.380298 0.471046 0.319831
0.431802 0.473276 0.322017
0.482772 0.475525 0.324233
0.533284 0.477793 0.326479
0.583395 0.480079 0.328753
0.633150 0.482382 0.331056
0.682585 0.484703 0.333386
0.731728 0.487041 0.335744
0.780603 0.489396 0.338128
0.829230 0.491768 0.340540
0.877627 0.494155 0.342978
0.925808 0.496559 0.345442
0.170922 0.513816 0.315513
0.226274 0.515975 0.317621
0.280201 0.518159 0.319766
0.333119 0.520364 0.321945
0.385259 0.522590 0.324156
0.436766 0.524836 0.326398
