resources/luts/polar-blue.cube
# Generated by FotoReady. Released under the project GPL-3.0-or-later license.
TITLE "polar-blue"
LUT_3D_SIZE 5
DOMAIN_MIN 0 0 0
DOMAIN_MAX 1 1 1
0.000000 0.050385 0.275337
0.100317 0.049590 0.269491
0.364610 0.052268 0.259443
0.608299 0.060856 0.258841
0.779606 0.071178 0.264037
0.000000 0.267908 0.256066
0.102742 0.269468 0.254422
0.373204 0.270554 0.258118
0.625872 0.276431 0.269737
0.803534 0.284272 0.282126
0.000000 0.536689 0.273870
0.111196 0.541587 0.270737
0.376744 0.544575 0.273762
0.639679 0.547289 0.284897
0.824868 0.551706 0.299494
0.025130 0.797255 0.303070
0.145934 0.804712 0.293595
0.405635 0.809242 0.293627
0.665707 0.813751 0.294239
0.855610 0.816831 0.304786
0.071474 0.978525 0.325873
0.186923 0.987928 0.314390
0.439273 0.994222 0.318850
0.690940 1.000000 0.326436
0.874293 1.000000 0.334421
0.000000 0.050548 0.481130
0.098882 0.050846 0.477915
0.365599 0.052768 0.470370
0.609636 0.062235 0.461764
0.781169 0.073177 0.460695
0.000000 0.267460 0.469788
0.104234 0.269262 0.473554
0.375355 0.270378 0.475980
0.632486 0.275976 0.477776
0.813454 0.283563 0.482575
0.000000 0.537912 0.482340
0.111797 0.542430 0.483644
0.374995 0.546562 0.481767
0.646392 0.547505 0.484812
0.837868 0.550841 0.490836
0.027637 0.798862 0.500804
0.148318 0.805943 0.495857
0.398492 0.814473 0.484558
0.666173 0.816967 0.483399
0.861680 0.818827 0.489812
0.074630 0.980503 0.517205
0.189783 0.989591 0.510679
0.427337 1.000000 0.499556
0.686319 1.000000 0.506082
0.874792 1.000000 0.513460
0.000000 0.052424 0.716933
0.098469 0.054070 0.716947
0.357412 0.057960 0.715316
0.611197 0.064000 0.713926
0.783046 0.075695 0.705008
0.000000 0.267217 0.716154
0.109302 0.269940 0.727226
0.371468 0.273003 0.737796
0.633143 0.277244 0.740147
0.814754 0.285445 0.736401
0.000000 0.537545 0.737068
0.118269 0.542117 0.744372
0.376551 0.546575 0.752950
0.651103 0.546939 0.751669
0.847433 0.549734 0.747938
0.030831 0.800839 0.746109
0.151331 0.807462 0.746854
0.398497 0.816059 0.744222
0.665133 0.819421 0.738539
0.867547 0.819783 0.739918
0.078507 0.982987 0.754843
0.193265 0.991693 0.754539
0.426291 1.000000 0.751824
0.678858 1.000000 0.749694
0.873640 1.000000 0.756397
0.000000 0.056146 0.930971
0.099589 0.059131 0.934175
0.348550 0.065827 0.936480
0.596380 0.073110 0.942104
0.783271 0.078889 0.947899
0.000000 0.268758 0.940418
0.116059 0.272394 0.958754
0.368344 0.277728 0.976774
0.623234 0.283542 0.983851
0.814849 0.287824 0.988752
0.014961 0.535697 0.970266
0.134167 0.541080 0.984294
0.382594 0.547075 1.000000
0.648693 0.549182 1.000000
0.848453 0.550666 1.000000
0.045629 0.799876 0.986372
0.163900 0.806596 0.993435
0.406315 0.815413 1.000000
0.667420 0.819346 1.000000
0.870184 0.819650 1.000000
0.082321 0.985509 0.992705
0.196654 0.993844 0.998704
0.428447 1.000000 1.000000
0.677872 1.000000 1.000000
0.870797 1.000000 1.000000
0.000000 0.057869 0.997124
0.100386 0.061287 1.000000
0.346085 0.068883 1.000000
0.590752 0.077032 1.000000
0.775179 0.083439 1.000000
0.000000 0.269729 1.000000
0.118696 0.273657 1.000000
0.367801 0.279709 1.000000
0.619720 0.286320 1.000000
0.809026 0.291176 1.000000
0.021989 0.535552 1.000000
0.139681 0.541196 1.000000
0.384978 0.547671 1.000000
0.648109 0.550431 1.000000
0.845589 0.552487 1.000000
0.055602 0.798550 1.000000
0.172299 0.805558 1.000000
0.411471 0.814917 1.000000
0.669327 0.819405 1.000000
0.869632 0.820213 1.000000
0.083471 0.986289 1.000000
0.197738 0.994514 1.000000
0.429148 1.000000 1.000000
0.678148 1.000000 1.000000
0.870584 1.000000 1.000000
