resources/luts/polar-blue.cube
# Generated by FotoReady. Released under the project GPL-3.0-or-later license.
TITLE "polar-blue"
LUT_3D_SIZE 9
DOMAIN_MIN 0 0 0
DOMAIN_MAX 1 1 1
0.000000 0.050385 0.275337
0.000000 0.050560 0.275480
0.100317 0.049590 0.269491
0.235082 0.050173 0.263231
0.364610 0.052268 0.259443
0.488995 0.055837 0.258025
0.608299 0.060856 0.258841
0.722582 0.067299 0.261754
0.779606 0.071178 0.264037
0.000000 0.132612 0.263711
0.000000 0.132789 0.263868
0.102776 0.132284 0.260530
0.239400 0.132383 0.257543
0.370939 0.133934 0.256773
0.497462 0.136908 0.258093
0.619030 0.141281 0.261366
0.735705 0.147027 0.266457
0.793515 0.150496 0.269725
0.000000 0.267908 0.256066
0.000000 0.268093 0.256234
0.102742 0.269468 0.254422
0.239687 0.269613 0.254688
0.373204 0.270554 0.258118
0.501912 0.272835 0.263180
0.625872 0.276431 0.269737
0.745148 0.281318 0.277654
0.803534 0.284272 0.282126
0.000000 0.402880 0.261092
0.000000 0.403098 0.261261
0.104711 0.406239 0.259491
0.239182 0.407235 0.261008
0.373641 0.408153 0.263607
0.504735 0.409595 0.271003
0.631289 0.412269 0.279437
0.753366 0.416150 0.288770
0.812387 0.418530 0.293710
0.000000 0.536689 0.273870
0.000000 0.536959 0.274007
0.111196 0.541587 0.270737
0.243771 0.543144 0.272410
0.376744 0.544575 0.273762
0.509863 0.545806 0.276066
0.639679 0.547289 0.284897
0.765086 0.549952 0.294478
0.824868 0.551706 0.299494
0.000976 0.668398 0.289243
0.004077 0.668735 0.289282
0.124546 0.674569 0.282973
0.255856 0.676434 0.283405
0.387628 0.678147 0.283503
0.519649 0.679792 0.283252
0.651614 0.681259 0.284839
0.779848 0.682903 0.295765
0.840040 0.684169 0.301515
0.025130 0.797255 0.303070
0.028984 0.797673 0.302954
0.145934 0.804712 0.293595
0.275637 0.807020 0.293534
0.405635 0.809242 0.293627
0.535679 0.811477 0.293818
0.665707 0.813751 0.294239
0.795373 0.815910 0.297614
0.855610 0.816831 0.304786
0.056248 0.923702 0.317786
0.060775 0.924230 0.317534
0.173519 0.932747 0.306626
0.300926 0.935772 0.307577
0.428464 0.938776 0.309167
0.555843 0.941875 0.311301
0.683003 0.945092 0.314109
0.809884 0.948452 0.317724
0.869130 0.950098 0.319748
0.071474 0.978525 0.325873
0.076293 0.978955 0.325543
0.186923 0.987928 0.314390
0.313062 0.991073 0.316202
0.439273 0.994222 0.318850
0.565252 0.997495 0.322219
0.690940 1.000000 0.326436
0.816278 1.000000 0.331629
0.874293 1.000000 0.334421
0.000000 0.050305 0.355080
0.000000 0.050480 0.355222
0.099657 0.049925 0.350236
0.235426 0.050181 0.344697
0.364999 0.052451 0.339439
0.489442 0.056190 0.336521
0.608815 0.061374 0.335809
0.723182 0.067978 0.337166
0.780205 0.071933 0.338634
0.000000 0.132312 0.344822
0.000000 0.132489 0.344978
0.102646 0.132309 0.343640
0.239496 0.132391 0.340511
0.371106 0.134107 0.338212
0.497712 0.137240 0.337974
0.619377 0.141767 0.339662
0.736162 0.147663 0.343139
0.793983 0.151203 0.345568
0.000000 0.268040 0.338212
0.000000 0.268226 0.338387
0.102661 0.269492 0.338424
0.239899 0.269628 0.338126
0.374980 0.270325 0.339540
0.505265 0.272357 0.342557
0.630816 0.275698 0.347042
0.751694 0.280326 0.352858
0.810841 0.283144 0.356257
0.000000 0.403207 0.341878
0.000000 0.403425 0.342066
0.104708 0.406441 0.342050
0.238172 0.407910 0.341918
0.374132 0.408459 0.343787
0.506845 0.409635 0.349044
0.635033 0.412037 0.355309
0.758755 0.415641 0.362446
0.818545 0.417880 0.366281
0.000000 0.537154 0.352978
0.000000 0.537424 0.353144
0.111416 0.541909 0.351533
0.241710 0.544447 0.350144
0.376200 0.545466 0.350998
0.510875 0.546306 0.352450
0.642348 0.547507 0.359060
0.769399 0.549894 0.366447
0.829927 0.551512 0.370396
0.001559 0.668944 0.366354
0.004712 0.669279 0.366430
0.125128 0.674955 0.361695
0.252856 0.678318 0.357716
0.386135 0.679624 0.357339
0.519650 0.680866 0.356641
0.653123 0.681962 0.357480
0.782958 0.683346 0.366305
0.843862 0.684487 0.371048
0.026074 0.797867 0.378108
0.029977 0.798283 0.378041
0.146833 0.805180 0.370344
0.271594 0.809528 0.364648
0.403057 0.811359 0.364359
0.534552 0.813209 0.364195
0.666020 0.815102 0.364290
0.797138 0.816911 0.367037
0.858054 0.817717 0.373260
0.057412 0.924435 0.391056
0.061984 0.924962 0.390868
0.174591 0.933354 0.381715
0.295697 0.938960 0.375807
0.424657 0.941590 0.377107
0.553446 0.944321 0.378979
0.682003 0.947174 0.381553
0.810268 0.950175 0.384960
0.870100 0.951654 0.386894
0.072674 0.979273 0.398458
0.077536 0.979702 0.398204
0.188013 0.988556 0.388850
0.307266 0.994515 0.383276
0.434885 0.997295 0.385679
0.562260 1.000000 0.388829
0.689332 1.000000 0.392853
0.816041 1.000000 0.397880
0.874632 1.000000 0.400601
0.000000 0.050548 0.481130
0.000000 0.050723 0.481269
0.098882 0.050846 0.477915
0.233587 0.051274 0.474493
0.365599 0.052768 0.470370
0.490142 0.056783 0.464987
0.609636 0.062235 0.461764
0.724145 0.069097 0.460564
0.781169 0.073177 0.460695
0.000000 0.132191 0.473082
0.000000 0.132368 0.473236
0.102750 0.132718 0.475162
0.238092 0.133150 0.473568
0.371354 0.134402 0.471479
0.498104 0.137794 0.468681
0.619932 0.142571 0.467762
0.736902 0.148709 0.468587
0.794743 0.152364 0.469641
0.000000 0.267460 0.469788
0.000000 0.267649 0.469979
0.104234 0.269262 0.473554
0.239485 0.269747 0.475981
0.375355 0.270378 0.475980
0.506277 0.272526 0.476167
0.632486 0.275976 0.477776
0.754043 0.280702 0.480669
0.813454 0.283563 0.482575
0.000000 0.403747 0.474027
0.000000 0.403965 0.474248
0.104705 0.406773 0.477088
0.237362 0.408313 0.478739
0.374597 0.408607 0.479412
0.509967 0.409344 0.481157
0.640831 0.411300 0.483864
0.767251 0.414449 0.487397
0.828298 0.416455 0.489422
0.000000 0.537912 0.482340
0.000000 0.538181 0.482555
0.111797 0.542430 0.483644
0.240556 0.545328 0.483084
0.374995 0.546562 0.481767
0.512214 0.546761 0.481822
0.646392 0.547505 0.484812
0.776127 0.549442 0.488624
0.837868 0.550841 0.490836
0.002549 0.669825 0.492408
0.005787 0.670158 0.492546
0.126114 0.675576 0.490392
0.251523 0.679611 0.486415
0.383364 0.681683 0.482572
0.519318 0.682270 0.481155
0.655250 0.682759 0.480784
0.787700 0.683721 0.486186
0.849762 0.684660 0.489291
0.027637 0.798862 0.500804
0.031620 0.799276 0.500821
0.148318 0.805943 0.495857
0.269892 0.811308 0.489517
0.398492 0.814473 0.484558
0.532357 0.815695 0.483827
0.666173 0.816967 0.483399
0.799659 0.818206 0.485133
0.861680 0.818827 0.489812
0.059318 0.925637 0.510901
0.063961 0.926163 0.510824
0.176341 0.934352 0.504555
0.293394 0.941320 0.497356
0.418065 0.945852 0.492782
0.549153 0.947981 0.494237
0.679989 0.950242 0.496438
0.810513 0.952658 0.499518
0.871298 0.953865 0.501311
0.074630 0.980503 0.517205
0.079560 0.980929 0.517078
0.189783 0.989591 0.510679
0.304612 0.997059 0.503541
0.427337 1.000000 0.499556
0.556990 1.000000 0.502360
0.686319 1.000000 0.506082
0.815266 1.000000 0.510848
0.874792 1.000000 0.513460
0.000000 0.051255 0.601749
0.000000 0.051430 0.601886
0.098485 0.052227 0.600154
0.230667 0.053369 0.597779
0.362441 0.054706 0.596508
0.490807 0.057394 0.593555
0.610429 0.063110 0.587805
0.725087 0.070229 0.584031
0.782115 0.074431 0.582821
0.000000 0.132527 0.595880
0.000000 0.132704 0.596031
0.103247 0.133582 0.601211
0.236107 0.134709 0.600568
0.368688 0.135982 0.600750
0.498474 0.138360 0.599457
0.620474 0.143385 0.595916
0.737635 0.149762 0.594072
0.795500 0.153529 0.593748
0.000000 0.267115 0.595731
0.000000 0.267307 0.595944
0.106558 0.269378 0.603156
0.239223 0.270355 0.608637
0.373685 0.271297 0.609952
0.506358 0.272942 0.610133
0.632808 0.276610 0.608964
0.754627 0.281548 0.609033
0.814092 0.284507 0.609500
0.000000 0.402955 0.602829
0.000000 0.403179 0.603093
0.108378 0.406303 0.609300
0.238901 0.408150 0.614271
0.374248 0.408753 0.617452
0.510506 0.409385 0.617564
0.642105 0.411417 0.617223
0.769282 0.414634 0.617661
0.830622 0.416668 0.618135
0.000000 0.538665 0.611671
0.000000 0.538933 0.611940
0.112208 0.542943 0.615713
0.240852 0.545593 0.617792
0.374582 0.546858 0.618038
0.513161 0.546769 0.616715
0.650036 0.547057 0.616099
0.782448 0.548547 0.616351
0.845395 0.549729 0.616841
0.003585 0.670692 0.618381
0.006908 0.671022 0.618585
0.127139 0.676185 0.619026
0.252431 0.679973 0.617689
0.382723 0.682411 0.614707
0.518569 0.683235 0.611241
0.656953 0.683120 0.609676
0.792011 0.683663 0.611670
0.855224 0.684402 0.613149
0.029224 0.799853 0.623469
0.033285 0.800264 0.623575
0.149818 0.806703 0.621358
0.271206 0.811849 0.617811
0.397390 0.815725 0.613066
0.529721 0.817752 0.609082
0.665877 0.818407 0.608147
0.801727 0.819078 0.608883
0.864846 0.819515 0.612029
0.061223 0.926843 0.630767
0.065938 0.927367 0.630804
0.178083 0.935356 0.627434
0.294880 0.942133 0.623180
0.416268 0.947721 0.618173
0.544397 0.951223 0.615169
0.677505 0.952893 0.617014
0.810280 0.954727 0.619781
0.872011 0.955664 0.621441
0.076575 0.981740 0.635999
0.081572 0.982165 0.636004
0.191534 0.990636 0.632573
0.306082 0.997922 0.628449
0.425157 1.000000 0.623759
0.551248 1.000000 0.621594
0.682828 1.000000 0.625027
0.814006 1.000000 0.629548
0.874462 1.000000 0.632057
0.000000 0.052424 0.716933
0.000000 0.052599 0.717067
0.098469 0.054070 0.716947
0.228134 0.055921 0.715602
0.357412 0.057960 0.715316
0.486366 0.060163 0.715952
0.611197 0.064000 0.713926
0.726010 0.071372 0.707563
0.783046 0.075695 0.705008
0.000000 0.133320 0.713211
0.000000 0.133497 0.713359
0.104139 0.134901 0.721783
0.234526 0.136720 0.722075
0.364654 0.138678 0.723146
0.494584 0.140747 0.724859
0.621005 0.144206 0.724118
0.738365 0.150819 0.719590
0.796257 0.154698 0.717882
0.000000 0.267217 0.716154
0.000000 0.267414 0.716394
0.109302 0.269940 0.727226
0.239388 0.271405 0.735746
0.371468 0.273003 0.737796
0.503557 0.274629 0.740029
0.633143 0.277244 0.740147
0.755232 0.282389 0.737376
0.814754 0.285445 0.736401
0.000000 0.402271 0.725824
0.000000 0.402503 0.726139
0.113253 0.406054 0.735811
0.241226 0.408319 0.744200
0.374086 0.409374 0.750218
0.509033 0.410277 0.751429
0.642482 0.411767 0.750863
0.769999 0.415163 0.748306
0.831422 0.417281 0.747286
0.000000 0.537545 0.737068
0.000000 0.537822 0.737404
0.118269 0.542117 0.744372
0.244857 0.545042 0.749599
0.376551 0.546575 0.752950
0.513311 0.546768 0.753980
0.651103 0.546939 0.751669
0.784236 0.548511 0.748902
0.847433 0.549734 0.747938
0.004665 0.671546 0.744277
0.008072 0.671872 0.744552
0.128201 0.676783 0.747603
0.253370 0.680328 0.748922
0.383518 0.682529 0.748640
0.518584 0.683412 0.746892
0.658230 0.683047 0.744160
0.795888 0.683174 0.742762
0.860246 0.683715 0.742627
0.030831 0.800839 0.746109
0.034971 0.801247 0.746309
0.151331 0.807462 0.746854
0.272527 0.812391 0.746114
0.398497 0.816059 0.744222
0.529181 0.818490 0.741310
0.665133 0.819421 0.738539
0.803337 0.819527 0.738292
0.867547 0.819783 0.739918
0.063125 0.928055 0.750658
0.067910 0.928576 0.750816
0.179814 0.936368 0.750360
0.296349 0.942956 0.749064
0.417454 0.948364 0.747061
0.543070 0.952614 0.744483
0.674547 0.955128 0.743284
0.809568 0.956383 0.745753
0.872238 0.957051 0.747288
0.078507 0.982987 0.754843
0.083570 0.983409 0.754986
0.193265 0.991693 0.754539
0.307525 0.998800 0.753442
0.426291 1.000000 0.751824
0.549505 1.000000 0.749811
0.678858 1.000000 0.749694
0.812260 1.000000 0.753983
0.873640 1.000000 0.756397
0.000000 0.054055 0.826675
0.000000 0.054230 0.826807
0.098836 0.056371 0.828289
0.225991 0.058929 0.827960
0.352781 0.061667 0.828642
0.479267 0.064560 0.830200
0.605512 0.067583 0.832498
0.726917 0.072526 0.831154
0.783964 0.076967 0.827250
0.000000 0.134569 0.825068
0.000000 0.134746 0.825218
0.105428 0.136673 0.836871
0.233349 0.139182 0.838083
0.361031 0.141821 0.840028
0.488537 0.144563 0.842568
0.615927 0.147385 0.845568
0.739094 0.151881 0.845134
0.797015 0.155870 0.842040
0.000000 0.267765 0.831052
0.000000 0.267967 0.831323
0.112468 0.270946 0.845761
0.239983 0.272897 0.857304
0.369687 0.275147 0.860071
0.499422 0.277418 0.862976
0.629250 0.279685 0.865882
0.755859 0.283225 0.865694
0.815441 0.286376 0.863273
0.000000 0.402023 0.843242
0.000000 0.402265 0.843611
0.118574 0.406239 0.856733
0.244004 0.408920 0.868525
0.374383 0.410424 0.877364
0.507047 0.411943 0.879090
0.640011 0.413374 0.880359
0.770762 0.415678 0.878873
0.832265 0.417880 0.876371
0.004321 0.536408 0.856485
0.006932 0.536696 0.856895
0.125982 0.541387 0.867157
0.250098 0.544700 0.875631
0.379334 0.546614 0.882196
0.513662 0.547236 0.885941
0.650157 0.547673 0.884697
0.785112 0.548713 0.881766
0.848349 0.550034 0.879415
0.015354 0.669990 0.865671
0.018791 0.670328 0.866036
0.136862 0.675515 0.872239
0.259952 0.679344 0.876755
0.388001 0.681838 0.879716
0.520948 0.683022 0.881255
0.658678 0.682978 0.881090
0.797155 0.683027 0.878208
0.861716 0.683624 0.876724
0.032456 0.801822 0.868728
0.036674 0.802227 0.869026
0.152855 0.808220 0.872349
0.273850 0.812936 0.874433
0.399600 0.816398 0.875409
0.530043 0.818632 0.875410
0.665118 0.819660 0.874568
0.804488 0.819554 0.873365
0.869783 0.819630 0.873483
0.065022 0.929273 0.870580
0.069877 0.929792 0.870862
0.181532 0.937389 0.873336
0.297798 0.943791 0.875015
0.418613 0.949020 0.876031
0.543918 0.953101 0.876516
0.673653 0.956057 0.876600
0.808372 0.957626 0.877441
0.871975 0.958028 0.878857
0.080423 0.984243 0.873744
0.085553 0.984662 0.874029
0.194972 0.992762 0.876581
0.308937 0.999692 0.878527
0.427389 1.000000 0.879994
0.550268 1.000000 0.881111
0.677517 1.000000 0.882004
0.810026 1.000000 0.884160
0.872322 1.000000 0.886484
0.000000 0.056146 0.930971
0.000000 0.056321 0.931101
0.099589 0.059131 0.934175
0.224242 0.062394 0.934845
0.348550 0.065827 0.936480
0.472576 0.069408 0.938945
0.596380 0.073110 0.942104
0.720025 0.076909 0.945820
0.783271 0.078889 0.947899
0.000000 0.136273 0.931447
0.000000 0.136451 0.931608
0.107119 0.138898 0.946470
0.232580 0.142094 0.948587
0.357824 0.145411 0.951389
0.482912 0.148824 0.954742
0.607906 0.152307 0.958507
0.732867 0.155837 0.962550
0.796279 0.157645 0.964671
0.000000 0.268758 0.940418
0.000000 0.268966 0.940727
0.116059 0.272394 0.958754
0.241008 0.274828 0.973304
0.368344 0.277728 0.976774
0.495733 0.280641 0.980335
0.623234 0.283542 0.983851
0.750912 0.286405 0.987186
0.814849 0.287824 0.988752
0.004497 0.402212 0.955076
0.006328 0.402462 0.955505
0.124343 0.406858 0.972060
0.247237 0.409952 0.987239
0.375143 0.411902 0.998884
0.505531 0.414034 1.000000
0.636239 0.416071 1.000000
0.767325 0.417989 1.000000
0.832064 0.418903 1.000000
0.014961 0.535697 0.970266
0.017603 0.535997 0.970755
0.134167 0.541080 0.984294
0.255818 0.544778 0.996000
0.382594 0.547075 1.000000
0.514482 0.548129 1.000000
0.648693 0.549182 1.000000
0.783121 0.550180 1.000000
0.848453 0.550666 1.000000
0.028563 0.668296 0.980945
0.032013 0.668649 0.981409
0.147596 0.674231 0.990894
0.268177 0.678461 0.998736
0.393696 0.681366 1.000000
0.524092 0.682968 1.000000
0.659293 0.683392 1.000000
0.796376 0.683744 1.000000
0.861925 0.683944 1.000000
0.045629 0.799876 0.986372
0.049853 0.800296 0.986792
0.163900 0.806596 0.993435
0.282741 0.811627 0.998882
0.406315 0.815413 1.000000
0.534561 0.817978 1.000000
0.667420 0.819346 1.000000
0.804777 0.819598 1.000000
0.870184 0.819650 1.000000
0.066911 0.930498 0.990538
0.071836 0.931014 0.990950
0.183235 0.938420 0.996368
0.299224 0.944639 1.000000
0.419743 0.949693 1.000000
0.544731 0.953606 1.000000
0.674128 0.956403 1.000000
0.807874 0.958107 1.000000
0.871351 0.958553 1.000000
0.082321 0.985509 0.992705
0.087517 0.985926 0.993138
0.196654 0.993844 0.998704
0.310318 1.000000 1.000000
0.428447 1.000000 1.000000
0.550985 1.000000 1.000000
0.677872 1.000000 1.000000
0.809051 1.000000 1.000000
0.870797 1.000000 1.000000
0.000000 0.057819 0.997124
0.000000 0.057990 0.997122
0.100332 0.061235 1.000000
0.223341 0.064952 1.000000
0.346031 0.068832 1.000000
0.468462 0.072849 1.000000
0.590696 0.076980 1.000000
0.712796 0.081200 1.000000
0.775170 0.083389 1.000000
0.000000 0.137676 0.998519
0.000000 0.137854 0.998564
0.108478 0.140634 1.000000
0.232333 0.144272 1.000000
0.355995 0.148021 1.000000
0.479525 0.151858 1.000000
0.602986 0.155758 1.000000
0.726437 0.159696 1.000000
0.789002 0.161704 1.000000
0.000000 0.269678 1.000000
0.000193 0.269889 1.000000
0.118646 0.273604 1.000000
0.241935 0.276344 1.000000
0.367749 0.279656 1.000000
0.493638 0.282972 1.000000
0.619665 0.286268 1.000000
0.745890 0.289518 1.000000
0.809019 0.291126 1.000000
0.010066 0.402598 1.000000
0.011946 0.402855 1.000000
0.128309 0.407518 1.000000
0.249575 0.410872 1.000000
0.375905 0.413101 1.000000
0.504851 0.415616 1.000000
0.634141 0.418028 1.000000
0.763824 0.420317 1.000000
0.827775 0.421412 1.000000
0.021984 0.535501 1.000000
0.024661 0.535811 1.000000
0.139631 0.541142 1.000000
0.259711 0.545081 1.000000
0.384924 0.547618 1.000000
0.515273 0.548943 1.000000
0.648053 0.550379 1.000000
0.781046 0.551763 1.000000
0.845583 0.552436 1.000000
0.037126 0.667483 1.000000
0.040595 0.667850 1.000000
0.154588 0.673681 1.000000
0.273577 0.678166 1.000000
0.397503 0.681327 1.000000
0.526303 0.683190 1.000000
0.659932 0.683903 1.000000
0.795550 0.684656 1.000000
0.860298 0.685049 1.000000
0.055594 0.798499 1.000000
0.059821 0.798937 1.000000
0.172247 0.805504 1.000000
0.289466 0.810805 1.000000
0.411417 0.814864 1.000000
0.538039 0.817705 1.000000
0.669272 0.819352 1.000000
0.805028 0.819912 1.000000
0.869630 0.820160 1.000000
0.075205 0.929419 1.000000
0.080133 0.929952 1.000000
0.190307 0.937526 1.000000
0.305070 0.943915 1.000000
0.424362 0.949143 1.000000
0.548122 0.953234 1.000000
0.676290 0.956211 1.000000
0.808807 0.958097 1.000000
0.871614 0.958628 1.000000
0.083471 0.986289 1.000000
0.088734 0.986705 1.000000
0.197695 0.994511 1.000000
0.311170 1.000000 1.000000
0.429101 1.000000 1.000000
0.551430 1.000000 1.000000
0.678097 1.000000 1.000000
0.809046 1.000000 1.000000
0.870584 1.000000 1.000000
0.000000 0.057869 0.997124
0.000000 0.058040 0.997122
0.100386 0.061287 1.000000
0.223396 0.065003 1.000000
0.346085 0.068883 1.000000
0.468517 0.072901 1.000000
0.590752 0.077032 1.000000
0.712852 0.081252 1.000000
0.775179 0.083439 1.000000
0.000000 0.137727 0.998521
0.000000 0.137906 0.998574
0.108530 0.140686 1.000000
0.232386 0.144324 1.000000
0.356049 0.148073 1.000000
0.479580 0.151910 1.000000
0.603041 0.155810 1.000000
0.726493 0.159747 1.000000
0.789011 0.161754 1.000000
0.000000 0.269729 1.000000
0.000243 0.269942 1.000000
0.118696 0.273657 1.000000
0.241986 0.276397 1.000000
0.367801 0.279709 1.000000
0.493692 0.283025 1.000000
0.619720 0.286320 1.000000
0.745947 0.289570 1.000000
0.809026 0.291176 1.000000
0.010070 0.402649 1.000000
0.011995 0.402909 1.000000
0.128359 0.407572 1.000000
0.249626 0.410925 1.000000
0.375957 0.413154 1.000000
0.504905 0.415669 1.000000
0.634197 0.418080 1.000000
0.763881 0.420368 1.000000
0.827783 0.421463 1.000000
0.021989 0.535552 1.000000
0.024710 0.535865 1.000000
0.139681 0.541196 1.000000
0.259764 0.545134 1.000000
0.384978 0.547671 1.000000
0.515328 0.548995 1.000000
0.648109 0.550431 1.000000
0.781104 0.551815 1.000000
0.845589 0.552487 1.000000
0.037132 0.667534 1.000000
0.040645 0.667903 1.000000
0.154639 0.673734 1.000000
0.273630 0.678219 1.000000
0.397557 0.681380 1.000000
0.526358 0.683243 1.000000
0.659989 0.683956 1.000000
0.795607 0.684709 1.000000
0.860303 0.685101 1.000000
0.055602 0.798550 1.000000
0.059871 0.798991 1.000000
0.172299 0.805558 1.000000
0.289519 0.810858 1.000000
0.411471 0.814917 1.000000
0.538094 0.817758 1.000000
0.669327 0.819405 1.000000
0.805084 0.819966 1.000000
0.869632 0.820213 1.000000
0.075212 0.929470 1.000000
0.080182 0.930006 1.000000
0.190358 0.937580 1.000000
0.305121 0.943970 1.000000
0.424414 0.949198 1.000000
0.548174 0.953288 1.000000
0.676343 0.956265 1.000000
0.808860 0.958152 1.000000
0.871613 0.958682 1.000000
0.083471 0.986289 1.000000
0.088776 0.986708 1.000000
0.197738 0.994514 1.000000
0.311215 1.000000 1.000000
0.429148 1.000000 1.000000
0.551478 1.000000 1.000000
0.678148 1.000000 1.000000
0.809098 1.000000 1.000000
0.870584 1.000000 1.000000
