resources/luts/polar-blue.cube
# Generated by FotoReady. Released under the project GPL-3.0-or-later license.
TITLE "polar-blue"
LUT_3D_SIZE 17
DOMAIN_MIN 0 0 0
DOMAIN_MAX 1 1 1
0.000000 0.050385 0.275337
0.000000 0.050417 0.275363
0.000000 0.050560 0.275480
0.030731 0.050043 0.272564
0.100317 0.049590 0.269491
0.168370 0.049686 0.266056
0.235082 0.050173 0.263231
0.300493 0.051035 0.261032
0.364610 0.052268 0.259443
0.427442 0.053870 0.258447
0.488995 0.055837 0.258025
0.549278 0.058167 0.258163
0.608299 0.060856 0.258841
0.666064 0.063901 0.260044
0.722582 0.067299 0.261754
0.777861 0.071048 0.263955
0.779606 0.071178 0.264037
0.000000 0.065292 0.272782
0.000000 0.065325 0.272809
0.000000 0.065468 0.272928
0.031415 0.064985 0.270435
0.101034 0.064543 0.267584
0.169242 0.064601 0.264472
0.236119 0.065045 0.261963
0.301700 0.065862 0.260067
0.365994 0.067048 0.258768
0.429008 0.068601 0.258049
0.490749 0.070517 0.257892
0.551226 0.072793 0.258281
0.610446 0.075426 0.259199
0.668417 0.078412 0.260628
0.725146 0.081750 0.262551
0.780641 0.085436 0.264953
0.782305 0.085557 0.265038
0.000000 0.132612 0.263711
0.000000 0.132644 0.263740
0.000000 0.132789 0.263868
0.033193 0.132656 0.262265
0.102776 0.132284 0.260530
0.171730 0.132150 0.258754
0.239400 0.132383 0.257543
0.305801 0.132979 0.256888
0.370939 0.133934 0.256773
0.434824 0.135244 0.257180
0.497462 0.136908 0.258093
0.558862 0.138921 0.259494
0.619030 0.141281 0.261366
0.677975 0.143984 0.263693
0.735705 0.147027 0.266457
0.792227 0.150408 0.269642
0.793515 0.150496 0.269725
0.000000 0.200279 0.258069
0.000000 0.200312 0.258100
0.000000 0.200457 0.258236
0.034242 0.200790 0.257075
0.102717 0.200843 0.255825
0.171957 0.200654 0.255096
0.240163 0.200735 0.255084
0.307126 0.201167 0.255570
0.372853 0.201948 0.256539
0.437351 0.203075 0.257973
0.500630 0.204544 0.259855
0.562695 0.206352 0.262169
0.623556 0.208496 0.264896
0.683219 0.210973 0.268021
0.741692 0.213781 0.271525
0.798984 0.216915 0.275393
0.799878 0.216974 0.275464
0.000000 0.267908 0.256066
0.000000 0.267941 0.256098
0.000000 0.268093 0.256234
0.035614 0.268926 0.255402
0.102742 0.269468 0.254422
0.171279 0.269540 0.254247
0.239687 0.269613 0.254688
0.307050 0.269915 0.256190
0.373204 0.270554 0.258118
0.438155 0.271528 0.260454
0.501912 0.272835 0.263180
0.564482 0.274470 0.266280
0.625872 0.276431 0.269737
0.686092 0.278715 0.273534
0.745148 0.281318 0.277654
0.803048 0.284238 0.282079
0.803534 0.284272 0.282126
0.000000 0.335481 0.257288
0.000000 0.335513 0.257321
0.000000 0.335679 0.257459
0.037441 0.336976 0.256762
0.103309 0.337972 0.255861
0.171130 0.338281 0.256225
0.238989 0.338583 0.256721
0.306702 0.338865 0.257997
0.373369 0.339328 0.260690
0.438860 0.340116 0.263734
0.503182 0.341225 0.267112
0.566344 0.342652 0.270807
0.628352 0.344395 0.274800
0.689216 0.346450 0.279077
0.748941 0.348814 0.283618
0.807537 0.351484 0.288408
0.807606 0.351497 0.288423
0.000000 0.402880 0.261092
0.000000 0.402912 0.261126
0.000000 0.403098 0.261261
0.040015 0.404824 0.260507
0.104711 0.406239 0.259491
0.171905 0.406750 0.260203
0.239182 0.407235 0.261008
0.306478 0.407721 0.261821
0.373641 0.408153 0.263607
0.439760 0.408719 0.267167
0.504735 0.409595 0.271003
0.568576 0.410780 0.275099
0.631289 0.412269 0.279437
0.692883 0.414060 0.283999
0.753366 0.416150 0.288770
0.812386 0.418521 0.293701
0.812387 0.418530 0.293710
0.000000 0.469988 0.266835
0.000000 0.470021 0.266869
0.000000 0.470230 0.266994
0.043632 0.472351 0.265990
0.107242 0.474150 0.264667
0.173895 0.474827 0.265532
0.240677 0.475462 0.266454
0.307505 0.476086 0.267327
0.374387 0.476697 0.268132
0.441148 0.477219 0.270103
0.506864 0.477828 0.274204
0.571471 0.478735 0.278508
0.634977 0.479936 0.282996
0.697390 0.481428 0.287652
0.758715 0.483210 0.292463
0.818149 0.485254 0.297373
0.818150 0.485263 0.297381
0.000000 0.536689 0.273870
0.000000 0.536721 0.273905
0.000000 0.536959 0.274007
0.048583 0.539439 0.272560
0.111196 0.541587 0.270737
0.177396 0.542396 0.271564
0.243771 0.543144 0.272410
0.310217 0.543872 0.273148
0.376744 0.544575 0.273762
0.443357 0.545252 0.274234
0.509863 0.545806 0.276066
0.575319 0.546402 0.280396
0.639679 0.547289 0.284897
0.702938 0.548472 0.289586
0.765086 0.549952 0.294478
0.824867 0.551697 0.299486
0.824868 0.551706 0.299494
0.000000 0.602865 0.281555
0.000000 0.602897 0.281589
0.000000 0.603167 0.281653
0.055165 0.605971 0.279571
0.116867 0.608433 0.277054
0.182701 0.609339 0.277649
0.248755 0.610165 0.278225
0.314907 0.610961 0.278638
0.381155 0.611726 0.278891
0.447491 0.612465 0.279001
0.513907 0.613179 0.278984
0.580171 0.613759 0.280643
0.645321 0.614359 0.285302
0.709341 0.615265 0.290205
0.772227 0.616478 0.295367
0.832259 0.617960 0.300654
0.832261 0.617969 0.300662
0.000976 0.668398 0.289243
0.000981 0.668430 0.289277
0.004077 0.668735 0.289282
0.063669 0.671828 0.286370
0.124546 0.674569 0.282973
0.190083 0.675544 0.283183
0.255856 0.676434 0.283405
0.321707 0.677300 0.283506
0.387628 0.678147 0.283503
0.453611 0.678976 0.283413
0.519649 0.679792 0.283252
0.585734 0.680597 0.283037
0.651614 0.681259 0.284839
0.716312 0.681922 0.290144
0.779848 0.682903 0.295765
0.840039 0.684160 0.301507
0.840040 0.684169 0.301515
0.012040 0.733185 0.296358
0.012046 0.733216 0.296391
0.015526 0.733559 0.296319
0.074293 0.736931 0.292527
0.134320 0.739962 0.288300
0.199502 0.741029 0.288254
0.264913 0.742014 0.288296
0.330376 0.742985 0.288274
0.395884 0.743947 0.288204
0.461429 0.744902 0.288102
0.527003 0.745853 0.287986
0.592598 0.746803 0.287871
0.658208 0.747756 0.287775
0.723558 0.748559 0.290036
0.787659 0.749342 0.296303
0.847917 0.750409 0.302673
0.847919 0.750418 0.302681
0.025130 0.797255 0.303070
0.025137 0.797286 0.303103
0.028984 0.797673 0.302954
0.086841 0.801358 0.298464
0.145934 0.804712 0.293595
0.210673 0.805906 0.293483
0.275637 0.807020 0.293534
0.340626 0.808131 0.293576
0.405635 0.809242 0.293627
0.470655 0.810356 0.293701
0.535679 0.811477 0.293818
0.600699 0.812608 0.293991
0.665707 0.813751 0.294239
0.730697 0.814909 0.294578
0.795373 0.815910 0.297614
0.855608 0.816822 0.304779
0.855610 0.816831 0.304786
0.039962 0.860723 0.310003
0.039970 0.860753 0.310036
0.044164 0.861192 0.309814
0.101025 0.865224 0.304815
0.159096 0.868936 0.299493
0.223308 0.870291 0.299502
0.287737 0.871568 0.299750
0.352168 0.872852 0.300045
0.416591 0.874147 0.300404
0.481001 0.875455 0.300843
0.545389 0.876780 0.301379
0.609747 0.878124 0.302029
0.674068 0.879491 0.302808
0.738345 0.880884 0.303733
0.802570 0.882305 0.304822
0.862825 0.883512 0.308448
0.862826 0.883521 0.308456
0.056248 0.923702 0.317786
0.056257 0.923732 0.317819
0.060775 0.924230 0.317534
0.116555 0.928645 0.312213
0.173519 0.932747 0.306626
0.237116 0.934298 0.306944
0.300926 0.935772 0.307577
0.364711 0.937264 0.308312
0.428464 0.938776 0.309167
0.492177 0.940312 0.310158
0.555843 0.941875 0.311301
0.619454 0.943467 0.312612
0.683003 0.945092 0.314109
0.746482 0.946753 0.315808
0.809884 0.948452 0.317724
0.869129 0.950089 0.319738
0.869130 0.950098 0.319748
0.071474 0.978525 0.325846
0.071474 0.978525 0.325875
0.076268 0.978952 0.325519
0.130999 0.983591 0.320051
0.186897 0.987926 0.314365
0.249861 0.989536 0.315082
0.313035 0.991071 0.316177
0.376166 0.992632 0.317419
0.439246 0.994220 0.318825
0.502268 0.995840 0.320411
0.565225 0.997493 0.322194
0.628108 0.999184 0.324188
0.690912 1.000000 0.326411
0.753628 1.000000 0.328877
0.816249 1.000000 0.331604
0.874293 1.000000 0.334389
0.874293 1.000000 0.334396
0.071474 0.978525 0.325873
0.071474 0.978525 0.325902
0.076293 0.978955 0.325543
0.131025 0.983594 0.320076
0.186923 0.987928 0.314390
0.249887 0.989538 0.315108
0.313062 0.991073 0.316202
0.376193 0.992634 0.317444
0.439273 0.994222 0.318850
0.502295 0.995842 0.320437
0.565252 0.997495 0.322219
0.628136 0.999186 0.324214
0.690940 1.000000 0.326436
0.753656 1.000000 0.328903
0.816278 1.000000 0.331629
0.874293 1.000000 0.334414
0.874293 1.000000 0.334421
0.000000 0.050357 0.290021
0.000000 0.050389 0.290047
0.000000 0.050533 0.290163
0.030742 0.050051 0.287368
0.100186 0.049638 0.284358
0.168431 0.049671 0.281030
0.235146 0.050174 0.278074
0.300561 0.051052 0.275742
0.364682 0.052301 0.274018
0.427519 0.053918 0.272886
0.489078 0.055901 0.272328
0.549367 0.058246 0.272326
0.608394 0.060950 0.272865
0.666166 0.064010 0.273927
0.722692 0.067423 0.275495
0.777979 0.071185 0.277552
0.779716 0.071315 0.277630
0.000000 0.065258 0.287513
0.000000 0.065290 0.287540
0.000000 0.065434 0.287658
0.031443 0.064983 0.285321
0.100920 0.064581 0.282531
0.169293 0.064585 0.279500
0.236174 0.065046 0.276857
0.301759 0.065879 0.274827
0.366058 0.067081 0.273393
0.429077 0.068649 0.272537
0.490824 0.070580 0.272242
0.551308 0.072871 0.272492
0.610534 0.075519 0.273269
0.668513 0.078520 0.274556
0.725250 0.081872 0.276337
0.780754 0.085572 0.278593
0.782409 0.085693 0.278673
0.000000 0.132545 0.278645
0.000000 0.132577 0.278673
0.000000 0.132722 0.278802
0.033306 0.132615 0.277411
0.102741 0.132276 0.275829
0.171743 0.132135 0.274009
0.239419 0.132384 0.272660
0.305825 0.132995 0.271867
0.370971 0.133965 0.271612
0.434862 0.135290 0.271878
0.497508 0.136968 0.272649
0.558916 0.138995 0.273906
0.619094 0.141369 0.275633
0.678049 0.144086 0.277814
0.735788 0.147143 0.280431
0.792321 0.150537 0.283466
0.793601 0.150625 0.283546
0.000000 0.200281 0.273139
0.000000 0.200313 0.273170
0.000000 0.200459 0.273305
0.034249 0.200783 0.272319
0.102706 0.200827 0.271241
0.172000 0.200636 0.270404
0.240345 0.200695 0.270214
0.307448 0.201106 0.270522
0.373316 0.201866 0.271311
0.437956 0.202970 0.272564
0.501376 0.204417 0.274264
0.563584 0.206203 0.276394
0.624588 0.208325 0.278937
0.684395 0.210780 0.281875
0.743013 0.213564 0.285192
0.800449 0.216675 0.288871
0.801336 0.216733 0.288938
0.000000 0.267932 0.271034
0.000000 0.267964 0.271066
0.000000 0.268117 0.271203
0.035616 0.268939 0.270541
0.102728 0.269472 0.269729
0.171196 0.269583 0.269381
0.239738 0.269628 0.269737
0.307244 0.269907 0.271056
0.373540 0.270524 0.272800
0.438634 0.271476 0.274950
0.502535 0.272760 0.277490
0.565249 0.274372 0.280402
0.626785 0.276310 0.283670
0.687150 0.278570 0.287276
0.746352 0.281150 0.291204
0.804399 0.284045 0.295436
0.804877 0.284079 0.295480
0.000000 0.335524 0.272140
0.000000 0.335556 0.272174
0.000000 0.335722 0.272313
0.037444 0.337008 0.271781
0.103298 0.337994 0.271044
0.170933 0.338390 0.271111
0.238923 0.338657 0.271577
0.306772 0.338909 0.272762
0.373584 0.339349 0.275267
0.439220 0.340113 0.278121
0.503689 0.341198 0.281308
0.566997 0.342602 0.284810
0.629152 0.344321 0.288610
0.690163 0.346351 0.292692
0.750037 0.348691 0.297037
0.808781 0.351337 0.301630
0.808841 0.351348 0.301643
0.000000 0.402939 0.275814
0.000000 0.402972 0.275848
0.000000 0.403157 0.275986
0.040027 0.404872 0.275393
0.104711 0.406276 0.274537
0.171599 0.406920 0.274827
0.239009 0.407370 0.275598
0.306440 0.407821 0.276375
0.373742 0.408221 0.278064
0.440008 0.408762 0.281430
0.505131 0.409615 0.285071
0.569120 0.410775 0.288970
0.631983 0.412239 0.293109
0.693726 0.414005 0.297473
0.754359 0.416070 0.302043
0.813519 0.418415 0.306773
0.813520 0.418424 0.306782
0.000000 0.470062 0.281412
0.000000 0.470094 0.281446
0.000000 0.470304 0.281575
0.043658 0.472412 0.280727
0.107258 0.474199 0.279559
0.173488 0.475058 0.279879
0.240406 0.475656 0.280762
0.307370 0.476243 0.281595
0.374388 0.476817 0.282358
0.441290 0.477307 0.284227
0.507156 0.477891 0.288129
0.571914 0.478772 0.292231
0.635571 0.479948 0.296517
0.698135 0.481414 0.300970
0.759611 0.483170 0.305577
0.819185 0.485189 0.310286
0.819186 0.485198 0.310294
0.000000 0.536774 0.288288
0.000000 0.536806 0.288322
0.000000 0.537044 0.288430
0.048631 0.539511 0.287135
0.111235 0.541646 0.285463
0.176894 0.542683 0.285619
0.243406 0.543394 0.286422
0.309991 0.544084 0.287116
0.376656 0.544750 0.287684
0.443408 0.545389 0.288109
0.510058 0.545910 0.289833
0.575665 0.546480 0.293960
0.640177 0.547342 0.298259
0.703585 0.548499 0.302746
0.765883 0.549954 0.307439
0.825800 0.551674 0.312252
0.825802 0.551683 0.312260
0.000000 0.602958 0.295799
0.000000 0.602990 0.295833
0.000000 0.603260 0.295903
0.055240 0.606050 0.293968
0.116936 0.608499 0.291598
0.182111 0.609680 0.291398
0.248305 0.610468 0.291927
0.314596 0.611226 0.292292
0.380983 0.611953 0.292498
0.447457 0.612654 0.292562
0.514011 0.613331 0.292500
0.580418 0.613878 0.294056
0.645716 0.614454 0.298517
0.709885 0.615335 0.303223
0.772918 0.616524 0.308191
0.833084 0.617983 0.313288
0.833085 0.617992 0.313296
0.001081 0.668498 0.303298
0.001086 0.668530 0.303332
0.004191 0.668834 0.303344
0.063779 0.671913 0.300575
0.124651 0.674640 0.297322
0.189409 0.675938 0.296617
0.255321 0.676790 0.296793
0.321309 0.677619 0.296850
0.387367 0.678428 0.296805
0.453487 0.679221 0.296673
0.519661 0.680000 0.296472
0.585881 0.680768 0.296218
0.651901 0.681399 0.297922
0.716745 0.682038 0.303034
0.780427 0.682996 0.308464
0.840747 0.684230 0.314023
0.840749 0.684239 0.314031
0.012181 0.733289 0.310217
0.012187 0.733320 0.310250
0.015676 0.733663 0.310186
0.074437 0.737022 0.306540
0.134458 0.740038 0.302461
0.198738 0.741477 0.301385
0.264286 0.742425 0.301386
0.329885 0.743360 0.301324
0.395528 0.744285 0.301215
0.461207 0.745204 0.301076
0.526915 0.746119 0.300923
0.592644 0.747034 0.300774
0.658387 0.747952 0.300644
0.723874 0.748724 0.302813
0.788119 0.749484 0.308893
0.848504 0.750529 0.315085
0.848505 0.750538 0.315092
0.025301 0.797367 0.316746
0.025308 0.797397 0.316779
0.029164 0.797784 0.316639
0.087013 0.801457 0.312299
0.146097 0.804797 0.307583
0.209814 0.806412 0.306324
0.274912 0.807489 0.306338
0.340035 0.808564 0.306345
0.405177 0.809640 0.306361
0.470330 0.810719 0.306403
0.535486 0.811805 0.306487
0.600637 0.812900 0.306630
0.665777 0.814009 0.306849
0.730897 0.815133 0.307159
0.795707 0.816104 0.310108
0.856067 0.816995 0.317100
0.856068 0.817004 0.317108
0.040157 0.860844 0.323511
0.040165 0.860874 0.323543
0.044367 0.861313 0.323332
0.101219 0.865333 0.318487
0.159279 0.869032 0.313321
0.222346 0.870856 0.312068
0.286908 0.872097 0.312284
0.351470 0.873347 0.312547
0.416025 0.874607 0.312876
0.480565 0.875880 0.313287
0.545083 0.877171 0.313795
0.609571 0.878481 0.314418
0.674022 0.879815 0.315172
0.738427 0.881174 0.316074
0.802780 0.882561 0.317139
0.863149 0.883741 0.320693
0.863150 0.883750 0.320701
0.056460 0.923835 0.331139
0.056469 0.923866 0.331172
0.060995 0.924364 0.330898
0.116763 0.928766 0.325737
0.173714 0.932858 0.320309
0.236045 0.934925 0.319250
0.299985 0.936365 0.319854
0.363900 0.937822 0.320562
0.427783 0.939301 0.321391
0.491625 0.940803 0.322357
0.555419 0.942332 0.323477
0.619158 0.943891 0.324766
0.682834 0.945483 0.326242
0.746439 0.947111 0.327921
0.809967 0.948778 0.329818
0.869319 0.950384 0.331816
0.869320 0.950393 0.331826
0.071692 0.978661 0.339073
0.071693 0.978661 0.339102
0.076495 0.979088 0.338759
0.131212 0.983716 0.333455
0.187096 0.988040 0.327933
0.248688 0.990209 0.327173
0.311991 0.991710 0.328242
0.375251 0.993237 0.329461
0.438459 0.994792 0.330846
0.501609 0.996378 0.332411
0.564692 0.997999 0.334174
0.627702 0.999657 0.336150
0.690632 1.000000 0.338356
0.753473 1.000000 0.340806
0.816220 1.000000 0.343518
0.874369 1.000000 0.346290
0.874369 1.000000 0.346298
0.071693 0.978661 0.339100
0.071693 0.978662 0.339129
0.076520 0.979091 0.338784
0.131238 0.983719 0.333480
0.187122 0.988042 0.327958
0.248714 0.990212 0.327198
0.312018 0.991712 0.328268
0.375278 0.993239 0.329487
0.438486 0.994794 0.330871
0.501636 0.996380 0.332437
0.564720 0.998001 0.334200
0.627730 0.999658 0.336176
0.690660 1.000000 0.338381
0.753502 1.000000 0.340832
0.816248 1.000000 0.343544
0.874369 1.000000 0.346315
0.874369 1.000000 0.346322
0.000000 0.050305 0.355080
0.000000 0.050337 0.355106
0.000000 0.050480 0.355222
0.030852 0.050157 0.352969
0.099657 0.049925 0.350236
0.168336 0.049754 0.347836
0.235426 0.050181 0.344697
0.300858 0.051131 0.341767
0.364999 0.052451 0.339439
0.427858 0.054139 0.337696
0.489442 0.056190 0.336521
0.549758 0.058603 0.335898
0.608815 0.061374 0.335809
0.666621 0.064500 0.336238
0.723182 0.067978 0.337166
0.778507 0.071804 0.338578
0.780205 0.071933 0.338634
0.000000 0.065174 0.352784
0.000000 0.065206 0.352810
0.000000 0.065350 0.352928
0.031626 0.065045 0.351286
0.100467 0.064823 0.348768
0.169187 0.064658 0.346572
0.236413 0.065055 0.343712
0.302018 0.065959 0.341079
0.366338 0.067231 0.339035
0.429382 0.068869 0.337565
0.491156 0.070868 0.336649
0.551669 0.073226 0.336273
0.610928 0.075940 0.336417
0.668941 0.079006 0.337067
0.725716 0.082422 0.338204
0.781260 0.086185 0.339811
0.782876 0.086305 0.339870
0.000000 0.132312 0.344822
0.000000 0.132344 0.344850
0.000000 0.132489 0.344978
0.033872 0.132505 0.344539
0.102646 0.132309 0.343640
0.171605 0.132154 0.342236
0.239496 0.132391 0.340511
0.305930 0.133070 0.339096
0.371106 0.134107 0.338212
0.435031 0.135498 0.337844
0.497712 0.137240 0.337974
0.559159 0.139331 0.338586
0.619377 0.141767 0.339662
0.678376 0.144546 0.341185
0.736162 0.147663 0.343139
0.792743 0.151117 0.345505
0.793983 0.151203 0.345568
0.000000 0.200044 0.340218
0.000000 0.200077 0.340249
0.000000 0.200223 0.340384
0.034912 0.200609 0.340279
0.102909 0.200715 0.340076
0.171947 0.200574 0.339611
0.240589 0.200617 0.338828
0.307940 0.201035 0.338437
0.374059 0.201801 0.338521
0.438953 0.202910 0.339063
0.502629 0.204361 0.340047
0.565096 0.206150 0.341454
0.626361 0.208273 0.343268
0.686432 0.210729 0.345473
0.745317 0.213513 0.348050
0.803023 0.216623 0.350983
0.803872 0.216678 0.351037
0.000000 0.268040 0.338212
0.000000 0.268072 0.338244
0.000000 0.268226 0.338387
0.035620 0.269004 0.338483
0.102661 0.269492 0.338424
0.170844 0.269685 0.338194
0.239899 0.269628 0.338126
0.308043 0.269808 0.338624
0.374980 0.270325 0.339540
0.440718 0.271175 0.340857
0.505265 0.272357 0.342557
0.568628 0.273865 0.344625
0.630816 0.275698 0.347042
0.691835 0.277853 0.349792
0.751694 0.280326 0.352858
0.810400 0.283114 0.356222
0.810841 0.283144 0.356257
0.000000 0.335717 0.338794
0.000000 0.335750 0.338827
0.000000 0.335917 0.338977
0.037457 0.337155 0.339185
0.103249 0.338093 0.339181
0.170209 0.338725 0.338948
0.238560 0.338923 0.339099
0.307022 0.339038 0.339873
0.374484 0.339374 0.341531
0.440773 0.340033 0.343533
0.505896 0.341013 0.345861
0.569862 0.342309 0.348499
0.632677 0.343920 0.351429
0.694351 0.345841 0.354635
0.754890 0.348071 0.358099
0.814303 0.350605 0.361804
0.814321 0.350615 0.361814
0.000000 0.403207 0.341878
0.000000 0.403240 0.341912
0.000000 0.403425 0.342066
0.040077 0.405089 0.342192
0.104708 0.406441 0.342050
0.170532 0.407478 0.341622
0.238172 0.407910 0.341918
0.306204 0.408200 0.342534
0.374132 0.408459 0.343787
0.441058 0.408892 0.346281
0.506845 0.409635 0.349044
0.571501 0.410684 0.352059
0.635033 0.412037 0.355309
0.697448 0.413691 0.358777
0.758755 0.415641 0.362446
0.818544 0.417871 0.366272
0.818545 0.417880 0.366281
0.000000 0.470392 0.346821
0.000000 0.470424 0.346856
0.000000 0.470634 0.347004
0.043776 0.472688 0.346857
0.107332 0.474419 0.346384
0.172108 0.475825 0.345567
0.239124 0.476458 0.345817
0.306698 0.476881 0.346467
0.374330 0.477290 0.347044
0.441869 0.477634 0.348451
0.508407 0.478105 0.351456
0.573840 0.478872 0.354655
0.638175 0.479932 0.358032
0.701420 0.481283 0.361570
0.763576 0.482922 0.365264
0.823773 0.484826 0.369076
0.823774 0.484835 0.369084
0.000000 0.537154 0.352978
0.000000 0.537187 0.353013
0.000000 0.537424 0.353144
0.048847 0.539833 0.352530
0.111416 0.541909 0.351533
0.175230 0.543650 0.350135
0.241710 0.544447 0.350144
0.308914 0.544969 0.350637
0.376200 0.545466 0.350998
0.443578 0.545935 0.351211
0.510875 0.546306 0.352450
0.577160 0.546760 0.355666
0.642348 0.547507 0.359060
0.706430 0.548551 0.362648
0.769399 0.549894 0.366447
0.829926 0.551504 0.370388
0.829927 0.551512 0.370396
0.000000 0.603378 0.359705
0.000000 0.603409 0.359738
0.000000 0.603679 0.359836
0.055583 0.606407 0.358562
0.117252 0.608793 0.356848
0.180193 0.610832 0.354675
0.246224 0.611759 0.354252
0.313141 0.612346 0.354400
0.380151 0.612904 0.354396
0.447246 0.613437 0.354256
0.514419 0.613946 0.353995
0.581462 0.614348 0.355090
0.647427 0.614812 0.358665
0.712261 0.615583 0.362491
0.775957 0.616664 0.366583
0.836718 0.618016 0.370833
0.836719 0.618025 0.370841
0.001559 0.668944 0.366354
0.001564 0.668975 0.366388
0.004712 0.669279 0.366430
0.064279 0.672292 0.364304
0.125128 0.674955 0.361695
0.187253 0.677270 0.358619
0.252856 0.678318 0.357716
0.319462 0.678980 0.357576
0.386135 0.679624 0.357339
0.452867 0.680251 0.357022
0.519650 0.680866 0.356641
0.586478 0.681472 0.356212
0.653123 0.681962 0.357480
0.718623 0.682494 0.361731
0.782958 0.683346 0.366305
0.843861 0.684478 0.371040
0.843862 0.684487 0.371048
0.012820 0.733757 0.372396
0.012826 0.733788 0.372429
0.016357 0.734129 0.372400
0.075089 0.737426 0.369412
0.135079 0.740382 0.365996
0.196319 0.743000 0.362170
0.261410 0.744203 0.360970
0.327617 0.744974 0.360730
0.393866 0.745737 0.360449
0.460149 0.746494 0.360143
0.526458 0.747249 0.359830
0.592785 0.748004 0.359525
0.659124 0.748763 0.359246
0.725225 0.749399 0.361003
0.790115 0.750057 0.366246
0.851068 0.751004 0.371638
0.851070 0.751013 0.371646
0.026074 0.797867 0.378108
0.026081 0.797897 0.378140
0.029977 0.798283 0.378041
0.087789 0.801897 0.374378
0.146833 0.805180 0.370344
0.207101 0.808136 0.365955
0.271594 0.809528 0.364648
0.337317 0.810443 0.364496
0.403057 0.811359 0.364359
0.468804 0.812280 0.364253
0.534552 0.813209 0.364195
0.600294 0.814148 0.364202
0.666020 0.815102 0.364290
0.731724 0.816072 0.364476
0.797138 0.816911 0.367037
0.858052 0.817708 0.373252
0.858054 0.817717 0.373260
0.041034 0.861388 0.384118
0.041042 0.861418 0.384150
0.045282 0.861856 0.383986
0.102088 0.865821 0.379837
0.160100 0.869466 0.375373
0.219311 0.872794 0.370610
0.283119 0.874409 0.369383
0.348273 0.875501 0.369507
0.413417 0.876605 0.369702
0.478543 0.877724 0.369983
0.543645 0.878861 0.370369
0.608714 0.880019 0.370874
0.673742 0.881201 0.371516
0.738724 0.882409 0.372312
0.803650 0.883647 0.373277
0.864527 0.884703 0.376507
0.864528 0.884713 0.376516
0.057412 0.924435 0.391056
0.057421 0.924466 0.391088
0.061984 0.924962 0.390868
0.117697 0.929313 0.386422
0.174591 0.933354 0.381715
0.232659 0.937088 0.376765
0.295697 0.938960 0.375807
0.360195 0.940264 0.376394
0.424657 0.941590 0.377107
0.489077 0.942942 0.377964
0.553446 0.944321 0.378979
0.617757 0.945730 0.380170
0.682003 0.947174 0.381553
0.746176 0.948655 0.383144
0.810268 0.950175 0.384960
0.870099 0.951645 0.386884
0.870100 0.951654 0.386894
0.072674 0.979273 0.398431
0.072674 0.979273 0.398460
0.077510 0.979699 0.398179
0.132167 0.984278 0.393607
0.187987 0.988554 0.388824
0.244964 0.992529 0.383846
0.307239 0.994513 0.383250
0.371075 0.995888 0.384366
0.434858 0.997293 0.385653
0.498579 0.998730 0.387126
0.562232 1.000000 0.388802
0.625810 1.000000 0.390697
0.689303 1.000000 0.392827
0.752707 1.000000 0.395207
0.816012 1.000000 0.397854
0.874632 1.000000 0.400568
0.874632 1.000000 0.400576
0.072674 0.979273 0.398458
0.072675 0.979274 0.398487
0.077536 0.979702 0.398204
0.132192 0.984281 0.393632
0.188013 0.988556 0.388850
0.244991 0.992531 0.383872
0.307266 0.994515 0.383276
0.371102 0.995890 0.384392
0.434885 0.997295 0.385679
0.498607 0.998732 0.387152
0.562260 1.000000 0.388829
0.625838 1.000000 0.390724
0.689332 1.000000 0.392853
0.752735 1.000000 0.395234
0.816041 1.000000 0.397880
0.874632 1.000000 0.400594
0.874632 1.000000 0.400601
0.000000 0.050368 0.418784
0.000000 0.050400 0.418809
0.000000 0.050544 0.418924
0.031054 0.050378 0.417213
0.099223 0.050328 0.414755
0.167266 0.050336 0.412625
0.235193 0.050399 0.410805
0.301143 0.051216 0.407824
0.365304 0.052607 0.404889
0.428186 0.054364 0.402534
0.489796 0.056484 0.400741
0.550141 0.058965 0.399494
0.609230 0.061802 0.398776
0.667069 0.064994 0.398568
0.723666 0.068536 0.398856
0.779030 0.072426 0.399621
