resources/luts/quiet-earth.cube
# Generated by FotoReady. Released under the project GPL-3.0-or-later license.
TITLE "quiet-earth"
LUT_3D_SIZE 17
DOMAIN_MIN 0 0 0
DOMAIN_MAX 1 1 1
0.131572 0.118120 0.037804
0.165447 0.121730 0.040929
0.203241 0.125640 0.044206
0.241872 0.129508 0.047339
0.281261 0.133323 0.050322
0.321365 0.137076 0.053151
0.362156 0.140761 0.055824
0.403612 0.144372 0.058342
0.445719 0.147903 0.060704
0.488461 0.151351 0.062912
0.531830 0.154710 0.064967
0.575815 0.157978 0.066871
0.620408 0.161149 0.068625
0.665601 0.164220 0.070231
0.711386 0.167187 0.071692
0.757758 0.170047 0.073009
0.804709 0.172796 0.074185
0.144424 0.160480 0.049114
0.178399 0.164250 0.052315
0.216218 0.168389 0.055278
0.254861 0.172481 0.058105
0.294250 0.176512 0.060787
0.334342 0.180474 0.063322
0.375108 0.184360 0.065709
0.416527 0.188164 0.067948
0.458582 0.191881 0.070040
0.501261 0.195506 0.071985
0.544553 0.199034 0.073785
0.588448 0.202462 0.075442
0.632938 0.205786 0.076957
0.678015 0.209001 0.078333
0.723671 0.212103 0.079572
0.769899 0.215090 0.080676
0.816695 0.217956 0.081647
0.158942 0.207802 0.060628
0.193285 0.211644 0.063825
0.231164 0.215922 0.067089
0.269778 0.220231 0.069606
0.309124 0.224471 0.071987
0.349159 0.228634 0.074228
0.389853 0.232712 0.076329
0.431186 0.236700 0.078290
0.473142 0.240591 0.080113
0.515707 0.244382 0.081798
0.558870 0.248067 0.083347
0.602622 0.251642 0.084762
0.646954 0.255104 0.086044
0.691858 0.258447 0.087197
0.737327 0.261669 0.088221
0.783354 0.264765 0.089119
0.829933 0.267731 0.089895
0.173795 0.256137 0.071454
0.208494 0.260032 0.074516
0.246721 0.264346 0.077866
0.285322 0.268741 0.080929
0.324579 0.273162 0.083036
0.364510 0.277496 0.085011
0.405086 0.281737 0.086855
0.446286 0.285878 0.088568
0.488094 0.289915 0.090151
0.530497 0.293841 0.091605
0.573484 0.297652 0.092932
0.617045 0.301344 0.094134
0.661170 0.304913 0.095213
0.705854 0.308355 0.096171
0.751087 0.311665 0.097010
0.796863 0.314840 0.097734
0.843177 0.317876 0.098343
0.188799 0.305288 0.081656
0.223816 0.309208 0.084609
0.262378 0.313542 0.087849
0.301267 0.317928 0.091106
0.340435 0.322379 0.094009
0.380214 0.326855 0.095749
0.420624 0.331228 0.097365
0.461644 0.335493 0.098859
0.503256 0.339643 0.100233
0.545449 0.343674 0.101486
0.588211 0.347581 0.102622
0.631531 0.351359 0.103641
0.675402 0.355004 0.104547
0.719816 0.358512 0.105342
0.764764 0.361880 0.106027
0.810240 0.365102 0.106606
0.856239 0.368176 0.107080
0.203780 0.355098 0.091317
0.239072 0.359015 0.094189
0.277926 0.363337 0.097349
0.317094 0.367702 0.100534
0.356485 0.372099 0.103741
0.396098 0.376549 0.106531
0.436294 0.381023 0.107951
0.477084 0.385380 0.109257
0.518453 0.389613 0.110451
0.560387 0.393717 0.111535
0.602874 0.397687 0.112510
0.645906 0.401520 0.113379
0.689473 0.405209 0.114143
0.733567 0.408753 0.114805
0.778181 0.412145 0.115368
0.823308 0.415383 0.115834
0.868941 0.418462 0.116205
0.218563 0.405426 0.100528
0.254090 0.409312 0.103348
0.293189 0.413591 0.106458
0.332590 0.417904 0.109603
0.372203 0.422239 0.112778
0.411974 0.426587 0.115983
0.451924 0.430977 0.118710
0.492437 0.435394 0.119860
0.533512 0.439678 0.120907
0.575138 0.443824 0.121852
0.617302 0.447826 0.122698
0.659995 0.451680 0.123448
0.703208 0.455382 0.124102
0.746933 0.458928 0.124664
0.791163 0.462313 0.125136
0.835890 0.465534 0.125521
0.881108 0.468586 0.125821
0.232977 0.456142 0.109388
0.268697 0.459968 0.112183
0.307995 0.464173 0.115276
0.347582 0.468402 0.118411
0.387368 0.472642 0.121587
0.427300 0.476886 0.124801
0.467342 0.481127 0.128056
0.507529 0.485401 0.130772
0.548262 0.489704 0.131703
0.589530 0.493858 0.132542
0.631321 0.497860 0.133291
0.673625 0.501704 0.133953
0.716435 0.505386 0.134530
0.759741 0.508901 0.135024
0.803537 0.512247 0.135437
0.847822 0.515423 0.135767
0.892600 0.518432 0.136012
0.246850 0.507118 0.117999
0.282720 0.510855 0.120799
0.322169 0.514954 0.123904
0.361896 0.519066 0.127062
0.401808 0.523180 0.130270
0.441852 0.527287 0.133526
0.481992 0.531382 0.136832
0.522203 0.535459 0.140188
0.562530 0.539559 0.142947
0.603390 0.543690 0.143712
0.644758 0.547658 0.144397
0.686627 0.551461 0.145002
0.728995 0.555098 0.145525
0.771864 0.558572 0.145962
0.815234 0.561884 0.146310
0.859108 0.565037 0.146565
0.903489 0.568031 0.146724
0.260008 0.558230 0.126466
0.295984 0.561850 0.129298
0.335539 0.565810 0.132448
0.375357 0.569773 0.135661
0.415347 0.573728 0.138933
0.455455 0.577666 0.142263
0.495645 0.581582 0.145653
0.535892 0.585469 0.149103
0.576180 0.589327 0.152612
0.616569 0.593208 0.155456
0.657505 0.597137 0.156081
0.698954 0.600909 0.156618
0.740916 0.604526 0.157063
0.783393 0.607989 0.157411
0.826386 0.611300 0.157661
0.869897 0.614461 0.157808
0.913929 0.617475 0.157849
0.272277 0.609356 0.134895
0.308317 0.612828 0.137789
0.347928 0.616618 0.141016
0.387790 0.620400 0.144316
0.427811 0.624164 0.147683
0.467944 0.627906 0.151114
0.508161 0.631626 0.154603
0.548445 0.635324 0.158146
0.588784 0.639002 0.161738
0.629169 0.642660 0.165378
0.669671 0.646358 0.168267
0.710749 0.650133 0.168703
0.752354 0.653762 0.169036
0.794487 0.657247 0.169263
0.837151 0.660590 0.169382
0.880347 0.663793 0.169387
0.924078 0.666858 0.169277
0.283483 0.660373 0.143395
0.319547 0.663672 0.146378
0.359183 0.667268 0.149704
0.399074 0.670860 0.153100
0.439137 0.674440 0.156556
0.479327 0.678007 0.160066
0.519615 0.681561 0.163624
0.559985 0.685102 0.167228
0.600424 0.688631 0.170871
0.640925 0.692151 0.174552
0.681481 0.695663 0.178266
0.722170 0.699231 0.181146
0.763466 0.702905 0.181335
0.805305 0.706445 0.181407
0.847688 0.709853 0.181361
0.890618 0.713130 0.181192
0.934097 0.716279 0.180897
0.293535 0.711217 0.152022
0.329644 0.714355 0.155079
0.369341 0.717784 0.158479
0.409309 0.721215 0.161940
0.449463 0.724643 0.165452
0.489758 0.728067 0.169009
0.530167 0.731487 0.172605
0.570671 0.734903 0.176236
0.611260 0.738317 0.179898
0.651925 0.741730 0.183587
0.692660 0.745145 0.187300
0.733462 0.748564 0.191033
0.774416 0.752057 0.193847
0.816009 0.755685 0.193732
0.858160 0.759190 0.193488
0.900873 0.762575 0.193111
0.944150 0.765842 0.192597
0.302558 0.761968 0.160685
0.338755 0.764974 0.163788
0.378562 0.768266 0.167230
0.418655 0.771568 0.170724
0.458948 0.774877 0.174259
0.499397 0.778190 0.177830
0.539975 0.781508 0.181431
0.580664 0.784832 0.185057
0.621452 0.788163 0.188705
0.662330 0.791503 0.192370
0.703294 0.794854 0.196049
0.744340 0.798218 0.199738
0.785466 0.801597 0.203433
0.826764 0.805069 0.206125
0.868734 0.808708 0.205753
0.911281 0.812241 0.205430
0.954403 0.815667 0.204965
0.310713 0.812730 0.169271
0.347042 0.815633 0.172392
0.387008 0.818820 0.175843
0.427273 0.822026 0.179337
0.467755 0.825247 0.182864
0.508408 0.828482 0.186417
0.549204 0.831731 0.189990
0.590126 0.834995 0.193578
0.631162 0.838275 0.197178
0.672304 0.841574 0.200786
0.713547 0.844893 0.204398
0.754895 0.848239 0.208221
0.796337 0.851613 0.212121
0.837870 0.855015 0.216015
0.879592 0.858529 0.218823
0.922017 0.862237 0.218234
0.965031 0.865848 0.217492
0.318165 0.863610 0.177667
0.354670 0.866439 0.180776
0.394842 0.869553 0.184205
0.435329 0.872695 0.187667
0.476048 0.875861 0.191153
0.516953 0.879050 0.194654
0.558017 0.882262 0.198166
0.599224 0.885498 0.201721
0.640575 0.888764 0.205531
0.682044 0.892058 0.209340
0.723625 0.895384 0.213144
0.765316 0.898744 0.216940
0.807114 0.902140 0.220724
0.849018 0.905575 0.224492
0.891028 0.909051 0.228241
0.933248 0.912656 0.230821
0.976205 0.916486 0.229769
0.325078 0.914717 0.185759
0.361802 0.917500 0.188826
0.402229 0.920573 0.192200
0.442988 0.923683 0.195598
0.484007 0.926826 0.199171
0.525235 0.930002 0.202879
0.566634 0.933212 0.206589
0.608188 0.936457 0.210297
0.649882 0.939739 0.213997
0.691711 0.943060 0.217687
0.733667 0.946421 0.221362
0.775749 0.949827 0.225018
0.817953 0.953278 0.228653
0.860278 0.956778 0.232261
0.902725 0.960330 0.235840
0.945294 0.963936 0.239386
0.988095 0.967689 0.241679
0.132782 0.119361 0.068960
0.166473 0.123021 0.072345
0.204062 0.126984 0.075910
0.242486 0.130906 0.079335
0.281666 0.134774 0.082612
0.321559 0.138580 0.085737
0.362136 0.142316 0.088708
0.403376 0.145977 0.091525
0.445265 0.149559 0.094188
0.487789 0.153056 0.096699
0.530936 0.156465 0.099059
0.574698 0.159780 0.101268
0.619067 0.162998 0.103329
0.664033 0.166116 0.105244
0.709591 0.169129 0.107014
0.755733 0.172033 0.108643
0.802453 0.174825 0.110131
0.145865 0.161691 0.080560
0.179664 0.165521 0.083864
0.217275 0.169711 0.087119
0.255707 0.173854 0.090239
0.294883 0.177935 0.093217
0.334760 0.181947 0.096051
0.375308 0.185882 0.098739
0.416507 0.189735 0.101280
0.458341 0.193499 0.103675
0.500797 0.197171 0.105925
0.543864 0.200746 0.108032
0.587533 0.204219 0.109998
0.631794 0.207587 0.111823
0.676641 0.210846 0.113510
0.722065 0.213991 0.115061
0.768060 0.217020 0.116479
0.814620 0.219928 0.117765
0.160617 0.208966 0.092473
0.194786 0.212869 0.095713
0.232467 0.217211 0.099087
0.270866 0.221568 0.101901
0.309995 0.225856 0.104580
0.349810 0.230066 0.107123
0.390282 0.234190 0.109527
0.431392 0.238223 0.111794
0.473122 0.242159 0.113923
0.515459 0.245994 0.115916
0.558393 0.249722 0.117775
0.601914 0.253340 0.119501
0.646014 0.256843 0.121096
0.690684 0.260228 0.122562
0.735917 0.263489 0.123901
0.781706 0.266624 0.125117
0.828045 0.269629 0.126210
0.175693 0.257243 0.103709
0.210214 0.261198 0.106816
0.248244 0.265577 0.110218
0.286640 0.270032 0.113395
0.325675 0.274497 0.115804
0.365382 0.278876 0.118083
0.405732 0.283160 0.120233
0.446704 0.287344 0.122254
0.488283 0.291423 0.124146
0.530454 0.295390 0.125911
0.573207 0.299242 0.127551
0.616533 0.302974 0.129067
0.660422 0.306581 0.130461
0.704866 0.310061 0.131736
0.749859 0.313408 0.132894
0.795394 0.316620 0.133936
0.841463 0.319691 0.134867
0.190907 0.306327 0.114334
0.225741 0.310304 0.117335
0.264103 0.314700 0.120628
0.302787 0.319149 0.123940
0.341743 0.323656 0.126962
0.381295 0.328173 0.129008
0.421474 0.332587 0.130933
0.462262 0.336892 0.132738
0.503640 0.341081 0.134424
0.545597 0.345150 0.135991
0.588121 0.349095 0.137442
0.631202 0.352909 0.138779
0.674832 0.356591 0.140003
0.719002 0.360134 0.141117
0.763706 0.363536 0.142124
0.808936 0.366792 0.143025
0.854686 0.369898 0.143823
0.206083 0.356060 0.124428
0.241190 0.360032 0.127351
0.279839 0.364413 0.130567
0.318798 0.368838 0.133810
0.357979 0.373293 0.137076
0.397374 0.377796 0.139988
0.437335 0.382308 0.141719
0.477889 0.386702 0.143339
0.519019 0.390971 0.144849
0.560713 0.395110 0.146249
0.602958 0.399116 0.147542
0.645746 0.402982 0.148731
0.689067 0.406705 0.149816
0.732913 0.410280 0.150801
0.777278 0.413704 0.151688
0.822155 0.416972 0.152479
0.867536 0.420081 0.153177
0.221049 0.406302 0.134085
0.256387 0.410240 0.136957
0.295276 0.414576 0.140127
0.334465 0.418945 0.143332
0.373862 0.423335 0.146569
0.413416 0.427738 0.149836
0.453142 0.432178 0.152690
0.493414 0.436629 0.154156
0.534247 0.440946 0.155521
0.575627 0.445125 0.156786
0.617545 0.449159 0.157953
0.659990 0.453044 0.159025
0.702953 0.456776 0.160004
0.746426 0.460351 0.160891
0.790402 0.463765 0.161690
0.834875 0.467013 0.162403
0.879836 0.470091 0.163032
0.235632 0.456921 0.143401
0.271159 0.460797 0.146252
0.310242 0.465055 0.149406
0.349613 0.469337 0.152604
0.389179 0.473630 0.155844
0.428890 0.477927 0.159124
0.468708 0.482219 0.162445
0.508664 0.486539 0.165292
0.549150 0.490872 0.166544
0.590169 0.495057 0.167705
0.631709 0.499087 0.168779
0.673761 0.502959 0.169766
0.716316 0.506668 0.170670
0.759366 0.510210 0.171492
0.802906 0.513582 0.172234
0.846936 0.516786 0.172893
0.891459 0.519822 0.173466
0.249659 0.507790 0.152479
0.285331 0.511575 0.155336
0.324563 0.515724 0.158506
0.364068 0.519887 0.161731
0.403757 0.524051 0.165005
0.443575 0.528207 0.168330
0.483488 0.532351 0.171705
0.523469 0.536475 0.175132
0.563558 0.540618 0.178025
0.604165 0.544776 0.179116
0.645278 0.548770 0.180127
0.686892 0.552599 0.181060
0.729006 0.556264 0.181909
0.771622 0.559766 0.182673
0.814740 0.563107 0.183346
0.858363 0.566290 0.183927
0.902494 0.569316 0.184412
0.262957 0.558786 0.161423
0.298732 0.562450 0.164316
0.338064 0.566458 0.167534
0.377657 0.570469 0.170816
0.417419 0.574471 0.174157
0.457297 0.578456 0.177559
0.497255 0.582417 0.181021
0.537268 0.586349 0.184544
0.577322 0.590253 0.188125
0.617475 0.594177 0.191104
0.658159 0.598134 0.192054
0.699358 0.601936 0.192915
0.741071 0.605583 0.193683
0.783299 0.609078 0.194355
0.826044 0.612421 0.194928
0.869308 0.615615 0.195398
0.913094 0.618663 0.195761
0.275351 0.609785 0.170341
0.311187 0.613299 0.173298
0.350571 0.617134 0.176596
0.390203 0.620961 0.179967
0.429993 0.624770 0.183407
0.469896 0.628558 0.186909
0.509883 0.632325 0.190468
0.549938 0.636072 0.194081
0.590048 0.639798 0.197744
0.630205 0.643507 0.201451
0.670475 0.647251 0.204472
0.711306 0.651058 0.205229
0.752666 0.654721 0.205883
0.794555 0.658240 0.206431
0.836975 0.661618 0.206869
0.879929 0.664857 0.207195
0.923418 0.667959 0.207404
0.286669 0.660665 0.179340
0.322527 0.664005 0.182387
0.361937 0.667647 0.185783
0.401602 0.671285 0.189248
0.441438 0.674914 0.192773
0.481402 0.678530 0.196352
0.521465 0.682134 0.199978
0.561609 0.685726 0.203649
0.601824 0.689308 0.207359
0.642101 0.692880 0.211106
0.682434 0.696446 0.214885
0.722896 0.700065 0.217892
0.763951 0.703775 0.218399
0.805550 0.707352 0.218789
0.847694 0.710797 0.219060
0.890386 0.714114 0.219208
0.933628 0.717303 0.219229
0.296838 0.711376 0.188463
0.332744 0.714557 0.191583
0.372220 0.718034 0.195049
0.411966 0.721515 0.198577
0.451897 0.724994 0.202155
0.491971 0.728471 0.205777
0.532158 0.731943 0.209438
0.572442 0.735413 0.213134
0.612810 0.738882 0.216860
0.653256 0.742352 0.220612
0.693772 0.745824 0.224387
0.734357 0.749300 0.228181
0.775089 0.752847 0.231119
0.816446 0.756515 0.231319
0.858363 0.760061 0.231389
0.900843 0.763488 0.231325
0.943887 0.766797 0.231125
0.305992 0.762003 0.197614
0.341991 0.765055 0.200776
0.381581 0.768398 0.204282
0.421455 0.771753 0.207839
0.461531 0.775116 0.211438
0.501763 0.778484 0.215072
0.542123 0.781858 0.218735
0.582596 0.785238 0.222423
0.623167 0.788627 0.226131
0.663831 0.792026 0.229856
0.704581 0.795436 0.233594
0.745414 0.798861 0.237342
0.786327 0.802303 0.241095
0.827409 0.805832 0.243907
0.869148 0.809512 0.243743
0.911463 0.813083 0.243434
0.954359 0.816546 0.242979
0.314295 0.812651 0.206678
0.350429 0.815602 0.209855
0.390181 0.818843 0.213368
0.430233 0.822105 0.216923
0.470502 0.825383 0.220510
0.510941 0.828675 0.224123
0.551524 0.831983 0.227755
0.592234 0.835306 0.231402
0.633059 0.838647 0.235060
0.673990 0.842008 0.238725
0.715023 0.845390 0.242393
0.756154 0.848796 0.246060
0.797381 0.852229 0.249724
0.838703 0.855690 0.253380
0.880213 0.859258 0.256008
0.922415 0.863005 0.255422
0.965211 0.866656 0.254678
0.321908 0.863427 0.215543
0.358222 0.866306 0.218706
0.398185 0.869477 0.222193
0.438463 0.872678 0.225714
0.478973 0.875903 0.229257
0.519669 0.879152 0.232815
0.560525 0.882426 0.236383
0.601522 0.885725 0.239957
0.642649 0.889051 0.243531
0.683898 0.892406 0.247103
0.725264 0.895793 0.250667
0.766743 0.899213 0.254221
0.808334 0.902670 0.257761
0.850034 0.906165 0.261284
0.891845 0.909702 0.264785
0.933865 0.913363 0.267174
0.976611 0.917234 0.266107
0.328998 0.914438 0.224095
0.365535 0.917275 0.227213
0.405758 0.920408 0.230643
0.446311 0.923579 0.234096
0.487111 0.926784 0.237562
0.528114 0.930023 0.241033
0.569291 0.933295 0.244505
0.610625 0.936603 0.247972
0.652104 0.939947 0.251430
0.693721 0.943330 0.254874
0.735470 0.946754 0.258302
0.777347 0.950221 0.261709
0.819351 0.953735 0.265092
0.861481 0.957297 0.268447
0.903735 0.960910 0.271771
0.946116 0.964578 0.275061
0.988728 0.968388 0.277152
0.134206 0.120747 0.102858
0.167799 0.124439 0.106451
0.205298 0.128424 0.110297
0.243629 0.132368 0.114007
0.282714 0.136257 0.117570
0.322510 0.140083 0.120984
0.362989 0.143839 0.124246
0.404129 0.147519 0.127356
0.445916 0.151119 0.130314
0.488336 0.154633 0.133121
0.531379 0.158057 0.135779
0.575034 0.161387 0.138287
0.619294 0.164619 0.140649
0.664150 0.167750 0.142866
0.709596 0.170775 0.144940
0.755625 0.173691 0.146874
0.802230 0.176493 0.148669
0.147450 0.163085 0.114634
0.181104 0.166965 0.118067
0.218485 0.171211 0.121642
0.256685 0.175410 0.125086
0.295626 0.179546 0.128391
0.335265 0.183613 0.131553
0.375573 0.187602 0.134571
0.416530 0.191507 0.137445
0.458120 0.195324 0.140175
0.500330 0.199047 0.142762
0.543149 0.202672 0.145207
0.586568 0.206195 0.147512
0.630577 0.209612 0.149678
0.675170 0.212918 0.151708
0.720339 0.216111 0.153603
0.766077 0.219185 0.155367
0.812378 0.222138 0.157000
0.162391 0.210334 0.126917
0.196483 0.214263 0.130288
0.233947 0.218673 0.133785
0.272108 0.223082 0.136925
0.310997 0.227423 0.139934
0.350570 0.231684 0.142809
0.390798 0.235859 0.145547
0.431661 0.239942 0.148149
0.473142 0.243927 0.150616
0.515229 0.247810 0.152949
0.557911 0.251586 0.155149
0.601177 0.255250 0.157218
0.645020 0.258799 0.159157
0.689431 0.262228 0.160969
0.734404 0.265533 0.162656
0.779931 0.268711 0.164220
0.826007 0.271758 0.165663
0.177641 0.258575 0.138537
0.212151 0.262524 0.141848
0.249963 0.266975 0.145305
0.288134 0.271495 0.148609
0.326924 0.276010 0.151350
0.366385 0.280437 0.153965
0.406485 0.284769 0.156452
0.447206 0.288999 0.158811
0.488531 0.293123 0.161044
0.530447 0.297136 0.163152
0.572943 0.301032 0.165136
0.616009 0.304807 0.166998
0.659637 0.308457 0.168740
0.703818 0.311978 0.170364
0.748546 0.315366 0.171872
0.793814 0.318617 0.173266
0.839615 0.321728 0.174550
0.193014 0.307612 0.149558
0.227904 0.311553 0.152835
0.266043 0.316018 0.156188
0.304502 0.320534 0.159560
0.343225 0.325103 0.162712
0.382525 0.329665 0.165097
0.422451 0.334124 0.167362
0.462982 0.338472 0.169509
0.504103 0.342704 0.171539
0.545799 0.346815 0.173452
0.588061 0.350800 0.175250
0.630878 0.354655 0.176936
0.674242 0.358376 0.178511
0.718144 0.361958 0.179977
0.762578 0.365397 0.181337
0.807537 0.368689 0.182594
0.853013 0.371831 0.183748
0.208336 0.357287 0.160061
0.243563 0.361193 0.163332
0.281984 0.365639 0.166611
0.320714 0.370129 0.169917
0.359662 0.374648 0.173248
0.398817 0.379208 0.176295
0.438520 0.383762 0.178370
0.478813 0.388196 0.180335
0.519680 0.392505 0.182192
0.561109 0.396683 0.183941
0.603087 0.400726 0.185585
0.645606 0.404629 0.187126
0.688656 0.408388 0.188565
0.732230 0.411999 0.189905
0.776321 0.415457 0.191149
0.820921 0.418758 0.192298
0.866023 0.421899 0.193356
0.223431 0.407461 0.170138
0.258955 0.411302 0.173432
0.297613 0.415699 0.176667
0.336566 0.420130 0.179939
0.375727 0.424581 0.183244
0.415041 0.429045 0.186580
0.454520 0.433539 0.189574
0.494526 0.438027 0.191388
0.535091 0.442381 0.193103
0.576202 0.446594 0.194720
0.617848 0.450663 0.196242
0.660019 0.454582 0.197669
0.702707 0.458347 0.199004
0.745903 0.461954 0.200250
0.789600 0.465399 0.201410
0.833791 0.468677 0.202484
0.878469 0.471785 0.203476
0.238127 0.458000 0.179886
0.273906 0.461748 0.183232
0.312754 0.466065 0.186455
0.351885 0.470406 0.189723
0.391210 0.474757 0.193034
0.430676 0.479110 0.196387
0.470248 0.483459 0.199781
0.509950 0.487830 0.202772
0.550163 0.492196 0.204377
0.590908 0.496412 0.205894
0.632171 0.500474 0.207324
0.673945 0.504377 0.208670
0.716219 0.508115 0.209934
0.758987 0.511686 0.211118
0.802245 0.515088 0.212222
0.845994 0.518321 0.213242
0.890238 0.521390 0.214176
0.252251 0.508779 0.189409
0.288243 0.512405 0.192835
0.327234 0.516610 0.196076
0.366495 0.520828 0.199373
0.405937 0.525046 0.202722
0.445506 0.529257 0.206122
0.485168 0.533454 0.209574
0.524895 0.537631 0.213079
0.564724 0.541820 0.216121
0.605051 0.546006 0.217570
0.645884 0.550029 0.218941
0.687217 0.553888 0.220233
0.729053 0.557583 0.221442
0.771390 0.561117 0.222564
0.814231 0.564491 0.223596
0.857578 0.567707 0.224535
0.901434 0.570767 0.225377
0.265631 0.559673 0.198809
0.301792 0.563148 0.202344
0.340879 0.567208 0.205637
0.380223 0.571272 0.208994
0.419733 0.575325 0.212414
0.459358 0.579360 0.215894
0.499060 0.583371 0.219435
0.538816 0.587354 0.223038
0.578614 0.591310 0.226699
0.618506 0.595280 0.229826
0.658914 0.599269 0.231132
0.699837 0.603104 0.232350
0.741276 0.606785 0.233474
0.783231 0.610314 0.234502
0.825704 0.613693 0.235430
0.868697 0.616924 0.236254
0.912212 0.620009 0.236972
0.278091 0.610560 0.208195
0.314379 0.613853 0.211868
0.353514 0.617737 0.215243
0.392893 0.621613 0.218694
0.432429 0.625473 0.222212
0.472078 0.629312 0.225792
0.511813 0.633132 0.229430
0.551615 0.636932 0.233119
0.591474 0.640713 0.236858
0.631380 0.644477 0.240641
0.671395 0.648272 0.243806
0.711956 0.652115 0.244916
0.753047 0.655814 0.245923
0.794667 0.659372 0.246823
0.836820 0.662789 0.247613
0.879507 0.666067 0.248290
0.922732 0.669210 0.248850
0.289460 0.661318 0.217673
0.325840 0.664408 0.221507
0.365002 0.668101 0.224980
0.404418 0.671791 0.228521
0.444006 0.675472 0.232122
0.483721 0.679143 0.235775
0.523536 0.682802 0.239476
0.563433 0.686451 0.243221
0.603401 0.690090 0.247004
0.643432 0.693722 0.250823
0.683520 0.697347 0.254673
0.723734 0.701021 0.257820
0.764524 0.704771 0.258676
0.805859 0.708389 0.259416
0.847740 0.711877 0.260036
0.890171 0.715237 0.260532
0.933153 0.718470 0.260901
0.299687 0.711911 0.227270
0.336192 0.714817 0.231245
0.375424 0.718348 0.234785
0.414926 0.721884 0.238386
0.454613 0.725419 0.242036
0.494443 0.728953 0.245731
0.534387 0.732484 0.249463
0.574428 0.736014 0.253229
0.614555 0.739544 0.257025
0.654759 0.743075 0.260846
0.695036 0.746610 0.264689
0.735381 0.750150 0.268551
0.775870 0.753757 0.271624
0.816969 0.757469 0.272170
0.858628 0.761061 0.272586
0.900850 0.764534 0.272867
0.943639 0.767891 0.273012
0.308917 0.762431 0.236884
0.345589 0.765182 0.240971
0.384940 0.768582 0.244547
0.424576 0.771996 0.248175
0.464412 0.775418 0.251843
0.504404 0.778846 0.255545
0.544527 0.782282 0.259277
0.584761 0.785725 0.263032
0.625096 0.789178 0.266807
0.665523 0.792642 0.270598
0.706038 0.796119 0.274401
0.746637 0.799611 0.278212
0.787317 0.803120 0.282029
0.828160 0.806714 0.284972
0.869647 0.810443 0.285150
0.911711 0.814063 0.285184
0.954355 0.817577 0.285070
0.317311 0.812983 0.246403
0.354194 0.815608 0.250573
0.393712 0.818909 0.254153
0.433530 0.822232 0.257775
0.473564 0.825572 0.261428
0.513769 0.828928 0.265106
0.554118 0.832301 0.268803
0.594595 0.835690 0.272514
0.635188 0.839099 0.276236
0.675888 0.842527 0.279963
0.716690 0.845979 0.283693
0.757592 0.849456 0.287421
0.798590 0.852960 0.291145
0.839685 0.856494 0.294860
0.880963 0.860129 0.297616
0.922918 0.863930 0.297368
0.965468 0.867634 0.296963
0.325033 0.863673 0.255712
0.362171 0.866201 0.259935
0.401905 0.869435 0.263487
0.441953 0.872699 0.267071
0.482233 0.875990 0.270677
0.522700 0.879307 0.274298
0.563326 0.882648 0.277928
0.604095 0.886017 0.281562
0.644995 0.889413 0.285197
0.686017 0.892840 0.288828
0.727158 0.896299 0.292451
0.768412 0.899793 0.296063
0.809779 0.903324 0.299660
0.851257 0.906895 0.303238
0.892846 0.910509 0.306794
0.934640 0.914242 0.309306
0.977146 0.918170 0.308575
0.332248 0.914610 0.264696
0.369685 0.917069 0.268944
0.409682 0.920268 0.272435
0.450011 0.923507 0.275949
0.490586 0.926781 0.279475
0.531363 0.930090 0.283006
0.572316 0.933433 0.286536
0.613427 0.936813 0.290060
0.654683 0.940231 0.293575
0.696078 0.943688 0.297076
0.737606 0.947188 0.300559
0.779264 0.950732 0.304021
0.821049 0.954324 0.307457
0.862961 0.957965 0.310865
0.904999 0.961658 0.314241
0.947164 0.965406 0.317581
0.989557 0.969293 0.319792
0.135681 0.122101 0.137425
0.169361 0.125802 0.140897
0.206763 0.129829 0.144848
0.245096 0.133769 0.148818
0.284182 0.137653 0.152645
0.323978 0.141473 0.156324
0.364454 0.145222 0.159853
0.405592 0.148894 0.163232
0.447374 0.152484 0.166461
0.489788 0.155988 0.169540
0.532823 0.159401 0.172471
0.576469 0.162719 0.175255
0.620719 0.165939 0.177894
0.665563 0.169055 0.180389
0.710996 0.172065 0.182742
0.757009 0.174965 0.184957
