resources/luts/quiet-earth.cube
# Generated by FotoReady. Released under the project GPL-3.0-or-later license.
TITLE "quiet-earth"
LUT_3D_SIZE 5
DOMAIN_MIN 0 0 0
DOMAIN_MAX 1 1 1
0.131572 0.118120 0.037804
0.281261 0.133323 0.050322
0.445719 0.147903 0.060704
0.620408 0.161149 0.068625
0.804709 0.172796 0.074185
0.188799 0.305288 0.081656
0.340435 0.322379 0.094009
0.503256 0.339643 0.100233
0.675402 0.355004 0.104547
0.856239 0.368176 0.107080
0.246850 0.507118 0.117999
0.401808 0.523180 0.130270
0.562530 0.539559 0.142947
0.728995 0.555098 0.145525
0.903489 0.568031 0.146724
0.293535 0.711217 0.152022
0.449463 0.724643 0.165452
0.611260 0.738317 0.179898
0.774416 0.752057 0.193847
0.944150 0.765842 0.192597
0.325078 0.914717 0.185759
0.484007 0.926826 0.199171
0.649882 0.939739 0.213997
0.817953 0.953278 0.228653
0.988095 0.967689 0.241679
0.137130 0.123426 0.172734
0.285666 0.139062 0.187912
0.448846 0.153861 0.202808
0.622155 0.167268 0.215346
0.804975 0.179017 0.225614
0.196267 0.310649 0.219474
0.346353 0.328160 0.233328
0.505164 0.346113 0.244916
0.673169 0.362109 0.254708
0.849747 0.375859 0.262814
0.255310 0.511665 0.261631
0.410457 0.527179 0.277326
0.567187 0.544364 0.291493
0.729256 0.560368 0.299717
0.899408 0.573823 0.306545
0.302094 0.714339 0.302125
0.460221 0.726401 0.321012
0.618204 0.741007 0.336570
0.777578 0.755727 0.351853
0.943273 0.770235 0.356029
0.334308 0.916784 0.341993
0.497746 0.926909 0.362544
0.660040 0.940943 0.377110
0.824630 0.955657 0.391433
0.991385 0.971271 0.404319
0.142632 0.128400 0.320875
0.293786 0.143797 0.334148
0.454839 0.159460 0.349517
0.627985 0.172662 0.366530
0.810546 0.184141 0.381367
0.200389 0.317291 0.363688
0.353223 0.334496 0.373379
0.510424 0.352629 0.388031
0.676712 0.368558 0.402838
0.851466 0.382176 0.416055
0.261455 0.517480 0.407864
0.417924 0.532648 0.421332
0.572608 0.549986 0.437371
0.730123 0.566487 0.451460
0.895784 0.580507 0.464127
0.306903 0.719218 0.453697
0.467754 0.730421 0.471686
0.626102 0.744490 0.490845
0.781568 0.760250 0.507498
0.943088 0.775533 0.517302
0.338495 0.921200 0.498453
0.506325 0.930122 0.519273
0.671471 0.942959 0.539410
0.832490 0.958944 0.554607
0.995722 0.975877 0.568595
0.147611 0.132808 0.479553
0.302822 0.147442 0.491634
0.465232 0.163282 0.503772
0.633916 0.178145 0.519163
0.816184 0.189330 0.538633
0.202783 0.323657 0.518296
0.359704 0.340225 0.522884
0.519253 0.357819 0.535800
0.682865 0.374373 0.551276
0.857018 0.387493 0.569330
0.262421 0.524497 0.559057
0.421504 0.539170 0.567659
0.578673 0.555902 0.579558
0.734284 0.572401 0.596931
0.898122 0.586288 0.614750
0.311684 0.724101 0.606800
0.472723 0.735564 0.620536
0.632579 0.749404 0.637155
0.786329 0.765551 0.655468
0.943666 0.781636 0.670934
0.342755 0.925688 0.656421
0.511075 0.935071 0.672785
0.679412 0.947343 0.691538
0.841267 0.963068 0.710109
1.000000 0.981355 0.725187
0.152027 0.136614 0.648500
0.311290 0.150459 0.659401
0.477826 0.165417 0.670372
0.646448 0.180899 0.681240
0.821858 0.194560 0.696929
0.204494 0.329363 0.683215
0.365496 0.345269 0.682689
0.528868 0.361779 0.694639
0.693404 0.378233 0.707089
0.862504 0.392783 0.723679
0.260249 0.531463 0.720775
0.423133 0.545295 0.724176
0.584195 0.561100 0.730976
0.741987 0.576903 0.746726
0.903076 0.591415 0.765210
0.308525 0.730900 0.765210
0.472339 0.741954 0.773955
0.635175 0.755429 0.785317
0.791871 0.771230 0.799136
0.947736 0.787609 0.817612
0.347087 0.930242 0.815393
0.515931 0.940108 0.827252
0.684905 0.952945 0.841254
0.848726 0.968739 0.856922
1.000000 0.987713 0.873375
