resources/luts/quiet-earth.cube
# Generated by FotoReady. Released under the project GPL-3.0-or-later license.
TITLE "quiet-earth"
LUT_3D_SIZE 9
DOMAIN_MIN 0 0 0
DOMAIN_MAX 1 1 1
0.131572 0.118120 0.037804
0.203241 0.125640 0.044206
0.281261 0.133323 0.050322
0.362156 0.140761 0.055824
0.445719 0.147903 0.060704
0.531830 0.154710 0.064967
0.620408 0.161149 0.068625
0.711386 0.167187 0.071692
0.804709 0.172796 0.074185
0.158942 0.207802 0.060628
0.231164 0.215922 0.067089
0.309124 0.224471 0.071987
0.389853 0.232712 0.076329
0.473142 0.240591 0.080113
0.558870 0.248067 0.083347
0.646954 0.255104 0.086044
0.737327 0.261669 0.088221
0.829933 0.267731 0.089895
0.188799 0.305288 0.081656
0.262378 0.313542 0.087849
0.340435 0.322379 0.094009
0.420624 0.331228 0.097365
0.503256 0.339643 0.100233
0.588211 0.347581 0.102622
0.675402 0.355004 0.104547
0.764764 0.361880 0.106027
0.856239 0.368176 0.107080
0.218563 0.405426 0.100528
0.293189 0.413591 0.106458
0.372203 0.422239 0.112778
0.451924 0.430977 0.118710
0.533512 0.439678 0.120907
0.617302 0.447826 0.122698
0.703208 0.455382 0.124102
0.791163 0.462313 0.125136
0.881108 0.468586 0.125821
0.246850 0.507118 0.117999
0.322169 0.514954 0.123904
0.401808 0.523180 0.130270
0.481992 0.531382 0.136832
0.562530 0.539559 0.142947
0.644758 0.547658 0.144397
0.728995 0.555098 0.145525
0.815234 0.561884 0.146310
0.903489 0.568031 0.146724
0.272277 0.609356 0.134895
0.347928 0.616618 0.141016
0.427811 0.624164 0.147683
0.508161 0.631626 0.154603
0.588784 0.639002 0.161738
0.669671 0.646358 0.168267
0.752354 0.653762 0.169036
0.837151 0.660590 0.169382
0.924078 0.666858 0.169277
0.293535 0.711217 0.152022
0.369341 0.717784 0.158479
0.449463 0.724643 0.165452
0.530167 0.731487 0.172605
0.611260 0.738317 0.179898
0.692660 0.745145 0.187300
0.774416 0.752057 0.193847
0.858160 0.759190 0.193488
0.944150 0.765842 0.192597
0.310713 0.812730 0.169271
0.387008 0.818820 0.175843
0.467755 0.825247 0.182864
0.549204 0.831731 0.189990
0.631162 0.838275 0.197178
0.713547 0.844893 0.204398
0.796337 0.851613 0.212121
0.879592 0.858529 0.218823
0.965031 0.865848 0.217492
0.325078 0.914717 0.185759
0.402229 0.920573 0.192200
0.484007 0.926826 0.199171
0.566634 0.933212 0.206589
0.649882 0.939739 0.213997
0.733667 0.946421 0.221362
0.817953 0.953278 0.228653
0.902725 0.960330 0.235840
0.988095 0.967689 0.241679
0.134206 0.120747 0.102858
0.205298 0.128424 0.110297
0.282714 0.136257 0.117570
0.362989 0.143839 0.124246
0.445916 0.151119 0.130314
0.531379 0.158057 0.135779
0.619294 0.164619 0.140649
0.709596 0.170775 0.144940
0.802230 0.176493 0.148669
0.162391 0.210334 0.126917
0.233947 0.218673 0.133785
0.310997 0.227423 0.139934
0.390798 0.235859 0.145547
0.473142 0.243927 0.150616
0.557911 0.251586 0.155149
0.645020 0.258799 0.159157
0.734404 0.265533 0.162656
0.826007 0.271758 0.165663
0.193014 0.307612 0.149558
0.266043 0.316018 0.156188
0.343225 0.325103 0.162712
0.422451 0.334124 0.167362
0.504103 0.342704 0.171539
0.588061 0.350800 0.175250
0.674242 0.358376 0.178511
0.762578 0.365397 0.181337
0.853013 0.371831 0.183748
0.223431 0.407461 0.170138
0.297613 0.415699 0.176667
0.375727 0.424581 0.183244
0.454520 0.433539 0.189574
0.535091 0.442381 0.193103
0.617848 0.450663 0.196242
0.702707 0.458347 0.199004
0.789600 0.465399 0.201410
0.878469 0.471785 0.203476
0.252251 0.508779 0.189409
0.327234 0.516610 0.196076
0.405937 0.525046 0.202722
0.485168 0.533454 0.209574
0.564724 0.541820 0.216121
0.645884 0.550029 0.218941
0.729053 0.557583 0.221442
0.814231 0.564491 0.223596
0.901434 0.570767 0.225377
0.278091 0.610560 0.208195
0.353514 0.617737 0.215243
0.432429 0.625473 0.222212
0.511813 0.633132 0.229430
0.591474 0.640713 0.236858
0.671395 0.648272 0.243806
0.753047 0.655814 0.245923
0.836820 0.662789 0.247613
0.922732 0.669210 0.248850
0.299687 0.711911 0.227270
0.375424 0.718348 0.234785
0.454613 0.725419 0.242036
0.534387 0.732484 0.249463
0.614555 0.739544 0.257025
0.695036 0.746610 0.264689
0.775870 0.753757 0.271624
0.858628 0.761061 0.272586
0.943639 0.767891 0.273012
0.317311 0.812983 0.246403
0.393712 0.818909 0.254153
0.473564 0.825572 0.261428
0.554118 0.832301 0.268803
0.635188 0.839099 0.276236
0.716690 0.845979 0.283693
0.798590 0.852960 0.291145
0.880963 0.860129 0.297616
0.965468 0.867634 0.296963
0.332248 0.914610 0.264696
0.409682 0.920268 0.272435
0.490586 0.926781 0.279475
0.572316 0.933433 0.286536
0.654683 0.940231 0.293575
0.737606 0.947188 0.300559
0.821049 0.954324 0.307457
0.904999 0.961658 0.314241
0.989557 0.969293 0.319792
0.137130 0.123426 0.172734
0.208440 0.131165 0.179840
0.285666 0.139062 0.187912
0.365935 0.146617 0.195657
0.448846 0.153861 0.202808
0.534280 0.160757 0.209368
0.622155 0.167268 0.215346
0.712405 0.173365 0.220756
0.804975 0.179017 0.225614
0.165273 0.213379 0.196024
0.237132 0.221734 0.202462
0.313520 0.230620 0.209775
0.392661 0.239173 0.216647
0.474330 0.247350 0.222992
0.558408 0.255111 0.228813
0.644813 0.262418 0.234122
0.733479 0.269240 0.238934
0.824349 0.275545 0.243266
0.196267 0.310649 0.219474
0.269933 0.318875 0.226305
0.346353 0.328160 0.233328
0.424554 0.337360 0.239351
0.505164 0.346113 0.244916
0.588063 0.354375 0.250031
0.673169 0.362109 0.254708
0.760416 0.369281 0.258963
0.849747 0.375859 0.262814
0.226651 0.410465 0.241161
0.302105 0.418234 0.248585
0.379619 0.427226 0.255734
0.457425 0.436413 0.262488
0.536916 0.445402 0.267432
0.618576 0.453824 0.271999
0.702321 0.461641 0.276204
0.788085 0.468818 0.280064
0.875812 0.475322 0.283596
0.255310 0.511665 0.261631
0.332204 0.518733 0.269893
0.410457 0.527179 0.277326
0.488674 0.535801 0.284487
0.567187 0.544364 0.291493
0.647214 0.552690 0.295765
0.729256 0.560368 0.299717
0.813316 0.567407 0.303320
0.899408 0.573823 0.306545
0.280856 0.613238 0.281710
0.358832 0.619359 0.291055
0.437461 0.627010 0.299019
0.515824 0.634880 0.306549
0.594470 0.642680 0.314285
0.673373 0.650458 0.321674
0.753936 0.658149 0.325217
0.836629 0.665280 0.328330
0.921469 0.671867 0.330985
0.302094 0.714339 0.302125
0.381090 0.719465 0.312600
0.460221 0.726401 0.321012
0.539013 0.733702 0.328726
0.618204 0.741007 0.336570
0.697716 0.748328 0.344510
0.777578 0.755727 0.351853
0.859294 0.763214 0.354211
0.943273 0.770235 0.356029
0.319479 0.815240 0.322521
0.399858 0.819607 0.333889
0.479881 0.826084 0.342492
0.559492 0.833075 0.350129
0.639624 0.840144 0.357817
0.720196 0.847304 0.365524
0.801173 0.854573 0.373219
0.882621 0.862030 0.380066
0.966133 0.869752 0.380778
0.334308 0.916784 0.341993
0.416441 0.920634 0.354011
0.497746 0.926909 0.362544
0.578572 0.933849 0.369841
0.660040 0.940943 0.377110
0.742071 0.948207 0.384318
0.824630 0.955657 0.391433
0.907705 0.963315 0.398426
0.991385 0.971271 0.404319
0.139943 0.125981 0.245456
0.212240 0.133546 0.252267
0.289071 0.141748 0.259330
0.368933 0.149438 0.267696
0.451823 0.156644 0.275942
0.537224 0.163494 0.283610
0.625055 0.169952 0.290709
0.715249 0.175987 0.297250
0.807750 0.181568 0.303251
0.167563 0.216469 0.267637
0.240446 0.224700 0.272891
0.317031 0.233617 0.279847
0.395913 0.242207 0.287548
0.477524 0.250323 0.295011
0.561533 0.258013 0.301965
0.647857 0.265242 0.308419
0.736429 0.271978 0.314387
0.827195 0.278188 0.319886
0.198945 0.313874 0.290316
0.273031 0.322120 0.296002
0.349738 0.331387 0.302550
0.427217 0.340689 0.309788
0.507108 0.349522 0.316667
0.589274 0.357857 0.323109
0.673633 0.365657 0.329125
0.760118 0.372887 0.334732
0.848673 0.379515 0.339947
0.229899 0.413497 0.312827
0.305424 0.421345 0.319215
0.383535 0.430128 0.326533
0.460518 0.439480 0.333831
0.538914 0.448615 0.340205
0.619463 0.457176 0.346217
0.702081 0.465124 0.351879
0.786703 0.472425 0.357209
0.873276 0.479048 0.362221
0.258381 0.514568 0.334516
0.335309 0.521691 0.341766
0.414798 0.529633 0.350069
0.492359 0.538327 0.357856
0.569816 0.547088 0.365327
0.648703 0.555533 0.371064
0.729612 0.563337 0.376478
0.812546 0.570511 0.381539
0.897521 0.577071 0.386219
0.283619 0.615924 0.355908
0.361593 0.622077 0.364264
0.442114 0.628940 0.373789
0.520023 0.636804 0.382143
0.597649 0.644829 0.390186
0.675528 0.652829 0.398018
0.754996 0.660673 0.402996
0.836603 0.667966 0.407541
0.920365 0.674722 0.411625
0.304501 0.716776 0.377670
0.383528 0.721955 0.387135
0.465270 0.727858 0.397764
0.543845 0.735101 0.406474
0.622055 0.742656 0.414599
0.700593 0.750236 0.422814
0.779477 0.757892 0.430567
0.860146 0.765566 0.434331
0.943087 0.772783 0.437551
0.321658 0.817514 0.399332
0.402104 0.821958 0.409666
0.485459 0.827155 0.421142
0.565092 0.834033 0.429948
0.644281 0.841379 0.437892
0.723918 0.848824 0.445848
0.803968 0.856387 0.453785
0.884486 0.864136 0.461008
0.967000 0.872080 0.463096
0.336391 0.918982 0.419984
0.418629 0.922934 0.430944
0.503989 0.927682 0.443009
0.585074 0.934456 0.451649
0.665639 0.941852 0.459148
0.746774 0.949426 0.466578
0.828445 0.957197 0.473909
0.910641 0.965183 0.481111
0.993441 0.973466 0.487347
0.142632 0.128400 0.320875
0.215918 0.135789 0.327390
0.293786 0.143797 0.334148
0.372584 0.152045 0.340840
0.454839 0.159460 0.349517
0.540203 0.166261 0.358302
0.627985 0.172662 0.366530
0.718118 0.178632 0.374213
0.810546 0.184141 0.381367
0.169713 0.219419 0.341948
0.243623 0.227522 0.346013
0.321209 0.236221 0.352688
0.399617 0.245096 0.359366
0.480746 0.253320 0.367473
0.564682 0.260937 0.375568
0.650920 0.268085 0.383176
0.739395 0.274731 0.390310
0.830050 0.280844 0.396986
0.200389 0.317291 0.363688
0.275477 0.325396 0.368066
0.353223 0.334496 0.373379
0.430854 0.343792 0.380285
0.510424 0.352629 0.388031
0.592478 0.360866 0.395641
0.676712 0.368558 0.402838
0.763060 0.375672 0.409637
0.851466 0.382176 0.416055
0.232196 0.416794 0.385341
0.308108 0.424634 0.390602
0.386618 0.433400 0.396735
0.463844 0.442698 0.403575
0.541458 0.451899 0.411212
0.621229 0.460503 0.418586
0.703056 0.468487 0.425625
0.786871 0.475816 0.432343
0.872634 0.482466 0.438748
0.261455 0.517480 0.407864
0.338414 0.524657 0.414098
0.417924 0.532648 0.421332
0.496035 0.541095 0.429313
0.572608 0.549986 0.437371
0.650351 0.558553 0.444578
0.730123 0.566487 0.451460
0.811929 0.573800 0.457986
0.895784 0.580507 0.464127
0.286368 0.618608 0.430585
0.364342 0.624793 0.437946
0.444872 0.631696 0.446412
0.524018 0.639051 0.455630
0.601007 0.647158 0.464301
0.677858 0.655384 0.472574
0.756229 0.663384 0.478994
0.836747 0.670842 0.484979
0.919430 0.677772 0.490497
0.306903 0.719218 0.453697
0.385964 0.724452 0.462143
0.467754 0.730421 0.471686
0.548285 0.736909 0.481915
0.626102 0.744490 0.490845
0.703663 0.752333 0.499335
0.781568 0.760250 0.507498
0.861188 0.768115 0.512673
0.943088 0.775533 0.517302
0.323844 0.819799 0.476623
0.404361 0.824323 0.485914
0.487802 0.829612 0.496278
0.570113 0.835489 0.507260
0.649152 0.842805 0.516188
0.727852 0.850541 0.524392
0.806973 0.858402 0.532570
0.886560 0.866446 0.540169
0.968073 0.874616 0.543639
0.338495 0.921200 0.498453
0.420839 0.925256 0.508346
0.506325 0.930122 0.519273
0.590812 0.935648 0.530748
0.671471 0.942959 0.539410
0.751709 0.950849 0.547062
0.832490 0.958944 0.554607
0.913805 0.967264 0.562017
0.995722 0.975877 0.568595
0.145190 0.130678 0.398920
0.219466 0.137886 0.405141
0.298372 0.145696 0.411596
0.378205 0.153737 0.417989
0.458716 0.161967 0.424323
0.543212 0.169053 0.433338
0.630940 0.175395 0.442704
0.721008 0.181297 0.451536
0.813359 0.186729 0.459850
0.171717 0.222222 0.418889
0.246655 0.230193 0.421761
0.325243 0.238669 0.428156
0.404650 0.247313 0.434560
0.484626 0.256078 0.440977
0.567847 0.263879 0.449518
0.653996 0.270943 0.458288
0.742368 0.277496 0.466596
0.832909 0.283507 0.474457
0.201669 0.320554 0.439693
0.277761 0.328515 0.442761
0.356547 0.337444 0.446835
0.435139 0.346482 0.453493
0.514181 0.355570 0.460239
0.595686 0.363883 0.468524
0.679790 0.371465 0.476909
0.765997 0.378460 0.484908
0.854249 0.384837 0.492538
0.232617 0.420435 0.460489
0.309495 0.428106 0.464464
0.389018 0.436687 0.469241
0.467243 0.445778 0.474864
0.544961 0.454936 0.482199
0.624349 0.463509 0.490480
0.706007 0.471357 0.498733
0.789642 0.478541 0.506676
0.875229 0.485049 0.514308
0.263199 0.520740 0.482074
0.340508 0.527880 0.487202
0.420379 0.535825 0.493272
0.498841 0.544218 0.500087
0.575613 0.553019 0.507708
0.652540 0.561633 0.516206
0.731524 0.569606 0.524466
0.812552 0.576966 0.532367
0.895640 0.583727 0.539878
0.289099 0.621287 0.505637
0.367075 0.627505 0.511997
0.447618 0.634451 0.519394
0.526788 0.641857 0.527527
0.604354 0.649734 0.536366
0.680365 0.658122 0.545200
0.757638 0.666283 0.553066
0.837066 0.673909 0.560493
0.918667 0.681015 0.567450
0.309298 0.721660 0.530096
0.388398 0.726952 0.537516
0.470239 0.732990 0.545965
0.550833 0.739555 0.555083
0.629947 0.746661 0.564835
0.706926 0.754621 0.573925
0.783851 0.762803 0.582496
0.862421 0.770863 0.589088
0.943280 0.778483 0.595129
0.326035 0.822093 0.554284
0.406627 0.826700 0.562525
0.490159 0.832083 0.571769
0.572572 0.838064 0.581613
0.653631 0.844659 0.592020
0.731997 0.852454 0.601006
0.810189 0.860618 0.609424
0.888845 0.868963 0.617398
0.969356 0.877362 0.622253
0.340616 0.923436 0.577289
0.423072 0.927599 0.586106
0.508687 0.932585 0.595888
0.593316 0.938240 0.606199
0.676719 0.944585 0.616997
0.756872 0.952477 0.625615
0.836764 0.960901 0.633374
0.917198 0.969558 0.640989
0.998233 0.978507 0.647908
0.147611 0.132808 0.479553
0.222878 0.139834 0.485482
0.302822 0.147442 0.491634
0.383690 0.155271 0.497729
0.465232 0.163282 0.503772
0.547297 0.171440 0.509775
0.633916 0.178145 0.519163
0.723914 0.183977 0.529152
0.816184 0.189330 0.538633
0.173570 0.224870 0.498422
0.249536 0.232708 0.500100
0.329126 0.240959 0.506217
0.409532 0.249367 0.512347
0.490501 0.257887 0.518497
0.571884 0.266486 0.524679
0.657080 0.273811 0.533691
0.745346 0.280269 0.543180
0.835768 0.286176 0.552233
0.202783 0.323657 0.518296
0.279877 0.331470 0.520050
0.359704 0.340225 0.522884
0.439256 0.349002 0.529294
0.519253 0.357819 0.535800
0.599544 0.366639 0.542416
0.682865 0.374373 0.551276
0.768925 0.381247 0.560482
0.857018 0.387493 0.569330
0.232854 0.423908 0.538240
0.310699 0.431408 0.540926
0.391234 0.439799 0.544346
0.470457 0.448681 0.548749
0.549091 0.457542 0.555869
0.627897 0.466329 0.563178
0.708940 0.474219 0.572141
0.792393 0.481257 0.581316
0.877808 0.487625 0.590175
0.262421 0.524497 0.559057
0.340660 0.531441 0.562920
0.421504 0.539170 0.567659
0.500937 0.547339 0.573137
0.578673 0.555902 0.579558
0.655687 0.564456 0.587763
0.734284 0.572401 0.596931
0.815167 0.579640 0.606038
0.898122 0.586288 0.614750
0.290115 0.624399 0.581603
0.368424 0.630565 0.586866
0.449329 0.637464 0.593096
0.528877 0.644830 0.600043
0.606835 0.652673 0.607680
0.683103 0.661006 0.616032
0.759611 0.669250 0.625160
0.838304 0.676951 0.633936
0.919181 0.684141 0.642238
0.311684 0.724101 0.606800
0.390826 0.729454 0.613188
0.472723 0.735564 0.620536
0.553385 0.742209 0.628535
0.632579 0.749404 0.637155
0.710193 0.757169 0.646369
0.786329 0.765551 0.655468
0.863848 0.773809 0.663479
0.943666 0.781636 0.670934
0.328230 0.824395 0.632245
0.408902 0.829087 0.639429
0.492528 0.834568 0.647546
0.575048 0.840655 0.656246
0.656226 0.847365 0.665494
0.735951 0.854721 0.675260
0.813617 0.863038 0.684249
0.891341 0.871686 0.692597
0.970850 0.880319 0.698839
0.342755 0.925688 0.656421
0.425327 0.929961 0.664156
0.511075 0.935071 0.672785
0.595850 0.940858 0.681925
0.679412 0.947343 0.691538
0.761648 0.954551 0.701594
0.841267 0.963068 0.710109
0.920820 0.972067 0.717929
1.000000 0.981355 0.725187
0.149892 0.134788 0.562751
0.226148 0.141627 0.568389
0.307129 0.149031 0.574240
0.389033 0.156646 0.580040
0.471603 0.164433 0.585793
0.554692 0.172359 0.591513
0.638191 0.180395 0.597217
0.726834 0.186670 0.607015
0.819018 0.191941 0.617671
0.175268 0.227362 0.580525
0.252261 0.235062 0.581007
0.332852 0.243084 0.586847
0.414256 0.251253 0.592707
0.496218 0.259526 0.598591
0.578586 0.267868 0.604514
0.661254 0.276249 0.610495
0.748325 0.283046 0.620016
0.838623 0.288847 0.630269
0.203726 0.326594 0.599474
0.281822 0.334258 0.599914
0.362688 0.342834 0.601506
0.443200 0.351347 0.607670
0.524150 0.359890 0.613937
0.605388 0.368427 0.620321
0.686805 0.376926 0.626840
0.771841 0.384030 0.636315
0.859771 0.390142 0.646388
0.232904 0.427208 0.618573
0.311714 0.434533 0.619968
0.393261 0.442732 0.622029
0.473483 0.451401 0.625212
0.553030 0.459961 0.632119
0.632743 0.468438 0.639222
0.712513 0.476800 0.646542
0.795124 0.483965 0.656216
0.880370 0.490196 0.666304
0.261439 0.528073 0.638628
0.340607 0.534817 0.641225
0.422423 0.542329 0.644630
0.502827 0.550270 0.648770
0.581534 0.558596 0.653985
0.659456 0.566842 0.661983
0.737482 0.575006 0.670165
0.817775 0.582313 0.679957
0.900601 0.588850 0.689872
0.287969 0.628166 0.660494
0.367195 0.634127 0.664498
0.449084 0.640814 0.669387
0.529636 0.647974 0.674973
0.608615 0.655619 0.681234
0.685910 0.663748 0.688339
0.762564 0.671968 0.697132
0.840921 0.679679 0.706781
0.921708 0.686785 0.716259
0.311994 0.727084 0.684470
0.391512 0.732412 0.689731
0.473818 0.738502 0.695878
0.554904 0.745134 0.702658
0.634536 0.752325 0.710043
0.712603 0.760094 0.718008
0.789057 0.768456 0.726579
0.865864 0.776835 0.735820
0.945001 0.784775 0.744595
0.330430 0.826705 0.710460
0.411184 0.831485 0.716581
0.494909 0.837067 0.723565
0.577540 0.843262 0.731114
0.658842 0.850090 0.739196
0.738703 0.857571 0.747784
0.817063 0.865731 0.756853
0.894051 0.874617 0.765695
0.972560 0.883486 0.773327
0.344912 0.927957 0.735800
0.427604 0.932342 0.742448
0.513490 0.937579 0.749918
0.598415 0.943501 0.757881
0.682141 0.950130 0.766301
0.764552 0.957490 0.775151
0.845589 0.965605 0.784405
0.924674 0.974793 0.792765
1.000000 0.984423 0.800361
0.152027 0.136614 0.648500
0.229273 0.143264 0.653848
0.311290 0.150459 0.659401
0.394227 0.157857 0.664907
0.477826 0.165417 0.670372
0.561935 0.173107 0.675811
0.646448 0.180899 0.681240
0.731279 0.188765 0.686681
0.821858 0.194560 0.696929
0.176806 0.229692 0.665184
0.254826 0.237252 0.664470
0.336417 0.245042 0.670035
0.418818 0.252969 0.675625
0.501771 0.260990 0.681246
0.585123 0.269072 0.686913
0.668767 0.277183 0.692644
0.752616 0.285297 0.698460
0.841473 0.291517 0.708531
0.204494 0.329363 0.683215
0.283592 0.336873 0.682339
0.365496 0.345269 0.682689
0.446966 0.353514 0.688609
0.528868 0.361779 0.694639
0.611050 0.370029 0.700792
0.693404 0.378233 0.707089
0.775843 0.386361 0.713549
0.862504 0.392783 0.723679
0.232763 0.430331 0.701475
0.312538 0.437479 0.701579
0.395095 0.445482 0.702279
0.476313 0.453935 0.704242
0.556774 0.462191 0.710937
0.637391 0.470355 0.717837
0.718059 0.478395 0.724959
0.798722 0.486302 0.732304
0.882915 0.492759 0.742661
0.260249 0.531463 0.720775
0.340345 0.538006 0.722105
0.423133 0.545295 0.724176
0.504510 0.553008 0.726975
0.584195 0.561100 0.730976
0.663032 0.569039 0.738764
0.741987 0.576903 0.746726
0.821048 0.584711 0.754838
0.903076 0.591415 0.765210
0.285606 0.631745 0.741963
0.365756 0.637501 0.744702
0.448635 0.643979 0.748244
0.530197 0.650935 0.752464
0.610205 0.658383 0.757341
0.688534 0.666311 0.763193
0.766158 0.674258 0.771740
0.844000 0.682226 0.780360
0.924246 0.689439 0.790484
0.308525 0.730900 0.765210
0.389004 0.736047 0.769182
0.472339 0.741954 0.773955
0.554475 0.748409 0.779342
0.635175 0.755429 0.785317
0.714327 0.763035 0.791859
0.791871 0.771230 0.799136
0.868884 0.779622 0.808002
0.947736 0.787609 0.817612
0.330189 0.829666 0.789706
0.411363 0.834447 0.794669
0.495543 0.840038 0.800419
0.578645 0.846249 0.806716
0.660432 0.853101 0.813529
0.740791 0.860614 0.820835
0.819664 0.868814 0.828610
0.897031 0.877718 0.836878
0.974882 0.886745 0.845708
0.347087 0.930242 0.815393
0.429903 0.934742 0.820948
0.515931 0.940108 0.827252
0.601012 0.946169 0.834032
0.684905 0.952945 0.841254
0.767496 0.960460 0.848892
0.848726 0.968739 0.856922
0.928563 0.977807 0.865319
1.000000 0.987713 0.873375
