resources/luts/silver-bypass.cube
# Generated by FotoReady. Released under the project GPL-3.0-or-later license.
TITLE "silver-bypass"
LUT_3D_SIZE 17
DOMAIN_MIN 0 0 0
DOMAIN_MAX 1 1 1
0.000853 0.012825 0.032575
0.000853 0.012825 0.032575
0.000853 0.012825 0.032575
0.000853 0.012825 0.032575
0.025283 0.021997 0.041467
0.065151 0.035700 0.054877
0.108477 0.049081 0.068044
0.155104 0.062010 0.080838
0.204973 0.074413 0.093182
0.258064 0.086239 0.105022
0.314369 0.097455 0.116318
0.373894 0.108031 0.127035
0.436644 0.117945 0.137146
0.502631 0.127179 0.146624
0.536281 0.131466 0.151047
0.536281 0.131466 0.151047
0.536281 0.131466 0.151047
0.000853 0.012825 0.032575
0.000853 0.012825 0.032575
0.000853 0.012825 0.032575
0.000853 0.012825 0.032575
0.025283 0.021997 0.041467
0.065151 0.035700 0.054877
0.108477 0.049081 0.068044
0.155104 0.062010 0.080838
0.204973 0.074413 0.093182
0.258064 0.086239 0.105022
0.314369 0.097455 0.116318
0.373894 0.108031 0.127035
0.436644 0.117945 0.137146
0.502631 0.127179 0.146624
0.536281 0.131466 0.151047
0.536281 0.131466 0.151047
0.536281 0.131466 0.151047
0.000853 0.012825 0.032575
0.000853 0.012825 0.032575
0.000853 0.012825 0.032575
0.000853 0.012825 0.032575
0.025283 0.021997 0.041467
0.065151 0.035700 0.054877
0.108477 0.049081 0.068044
0.155104 0.062010 0.080838
0.204973 0.074413 0.093182
0.258064 0.086239 0.105022
0.314369 0.097455 0.116318
0.373894 0.108031 0.127035
0.436644 0.117945 0.137146
0.502631 0.127179 0.146624
0.536281 0.131466 0.151047
0.536281 0.131466 0.151047
0.536281 0.131466 0.151047
0.000853 0.012825 0.032575
0.000853 0.012825 0.032575
0.000853 0.012825 0.032575
0.000853 0.012825 0.032575
0.025479 0.022068 0.041537
0.065361 0.035768 0.054944
0.108699 0.049146 0.068109
0.155339 0.062072 0.080899
0.205221 0.074471 0.093240
0.258325 0.086294 0.105077
0.314644 0.097506 0.116370
0.374182 0.108079 0.127084
0.436946 0.117990 0.137192
0.502946 0.127220 0.146667
0.536281 0.131466 0.151047
0.536281 0.131466 0.151047
0.536281 0.131466 0.151047
0.040767 0.070343 0.069895
0.040767 0.070343 0.069895
0.040767 0.070343 0.069895
0.040841 0.070451 0.069964
0.066871 0.080526 0.079763
0.106135 0.095212 0.093079
0.148812 0.109626 0.105994
0.194764 0.123611 0.118502
0.243934 0.137091 0.130525
0.296302 0.150015 0.142010
0.351864 0.162345 0.152914
0.410622 0.174052 0.163203
0.472584 0.185114 0.172848
0.537761 0.195511 0.181821
0.569288 0.200186 0.185799
0.569288 0.200186 0.185799
0.569288 0.200186 0.185799
0.089214 0.143912 0.116034
0.089214 0.143912 0.116034
0.089214 0.143912 0.116034
0.089285 0.144022 0.116101
0.117314 0.154223 0.126420
0.156938 0.168877 0.140745
0.198613 0.183818 0.153149
0.243549 0.198373 0.164776
0.291692 0.212429 0.175885
0.343022 0.225934 0.186423
0.397537 0.238851 0.196349
0.455242 0.251148 0.205628
0.516144 0.262804 0.214231
0.580255 0.273797 0.222132
0.609818 0.278539 0.225449
0.609818 0.278539 0.225449
0.609818 0.278539 0.225449
0.136720 0.220541 0.161990
0.136720 0.220541 0.161990
0.136720 0.220541 0.161990
0.136787 0.220653 0.162056
0.166928 0.230973 0.172853
0.207877 0.245415 0.187084
0.249825 0.260225 0.201707
0.293703 0.275312 0.212904
0.340793 0.289958 0.222999
0.391061 0.304058 0.232490
0.444506 0.317574 0.241334
0.501132 0.330475 0.249500
0.560950 0.342737 0.256957
0.623971 0.354341 0.263680
0.651573 0.359122 0.266335
0.651573 0.359122 0.266335
0.651573 0.359122 0.266335
0.182830 0.299769 0.207112
0.182830 0.299769 0.207112
0.182830 0.299769 0.207112
0.182895 0.299884 0.207175
0.215246 0.310313 0.218397
0.257542 0.324539 0.232457
0.300868 0.339129 0.246882
0.344921 0.353981 0.261565
0.390907 0.369158 0.271315
0.440097 0.383862 0.279659
0.492454 0.397986 0.287324
0.547985 0.411500 0.294276
0.606701 0.424378 0.300486
0.668614 0.436601 0.305929
0.694277 0.441395 0.307934
0.694277 0.441395 0.307934
0.694277 0.441395 0.307934
0.227292 0.381372 0.250903
0.227292 0.381372 0.250903
0.227292 0.381372 0.250903
0.227353 0.381488 0.250964
0.262012 0.392016 0.262549
0.305670 0.406024 0.276357
0.350390 0.420389 0.290500
0.395859 0.435014 0.304874
0.441918 0.449847 0.319420
0.489963 0.465078 0.327505
0.541220 0.479817 0.333891
0.595643 0.493951 0.339529
0.653243 0.507452 0.344393
0.714035 0.520301 0.348468
0.737790 0.525078 0.349852
0.737790 0.525078 0.349852
0.737790 0.525078 0.349852
0.269936 0.465214 0.292931
0.269936 0.465214 0.292931
0.269936 0.465214 0.292931
0.269994 0.465332 0.292988
0.307052 0.475948 0.304864
0.352087 0.489735 0.318338
0.398214 0.503874 0.332115
0.445113 0.518269 0.346093
0.492619 0.532869 0.360213
0.540629 0.547643 0.374439
0.590705 0.562903 0.380672
0.644009 0.577661 0.384948
0.700484 0.591791 0.388462
0.760144 0.605272 0.391205
0.782026 0.610001 0.392053
0.782026 0.610001 0.392053
0.782026 0.610001 0.392053
0.310641 0.551210 0.332790
0.310641 0.551210 0.332790
0.310641 0.551210 0.332790
0.310696 0.551331 0.332843
0.350245 0.562023 0.344930
0.396666 0.575586 0.357985
0.444213 0.589496 0.371317
0.492553 0.603659 0.384840
0.541518 0.618023 0.398509
0.591001 0.632560 0.412304
0.640930 0.647248 0.426209
0.693019 0.662517 0.430621
0.748360 0.677280 0.432860
0.806879 0.691397 0.434347
0.826928 0.696048 0.434744
0.826928 0.696048 0.434744
0.826928 0.696048 0.434744
0.349311 0.639301 0.370114
0.349311 0.639301 0.370114
0.349311 0.639301 0.370114
0.349363 0.639423 0.370163
0.391493 0.650179 0.382413
0.439311 0.663517 0.395047
0.488286 0.677197 0.407971
0.538079 0.691124 0.421103
0.588512 0.705251 0.434402
0.639478 0.719547 0.447847
0.690903 0.733993 0.461425
0.742732 0.748573 0.475132
0.796826 0.763837 0.477826
0.854196 0.778593 0.478136
0.872456 0.783135 0.478165
0.872456 0.783135 0.478165
0.872456 0.783135 0.478165
0.385872 0.729442 0.404877
0.385872 0.729442 0.404877
0.385872 0.729442 0.404877
0.385920 0.729567 0.404923
0.430721 0.740374 0.417381
0.479943 0.753484 0.429672
0.530357 0.766931 0.442269
0.581609 0.780622 0.455093
0.633521 0.794509 0.468104
0.685979 0.808562 0.481283
0.738907 0.822763 0.494620
0.792251 0.837097 0.508108
0.845969 0.851552 0.521746
0.902062 0.866797 0.522837
0.918578 0.871198 0.522577
0.918578 0.871198 0.522577
0.918578 0.871198 0.522577
0.420258 0.821601 0.437298
0.420258 0.821601 0.437298
0.420258 0.821601 0.437298
0.420303 0.821728 0.437341
0.467863 0.832574 0.450065
0.518499 0.845455 0.462093
0.570357 0.858667 0.474445
0.623079 0.872118 0.487043
0.676476 0.885763 0.499851
0.730434 0.899572 0.512850
0.784875 0.913525 0.526030
0.839742 0.927609 0.539386
0.894992 0.941813 0.552916
0.950591 0.956128 0.566622
0.965272 0.960184 0.568251
0.965272 0.960184 0.568251
0.965272 0.960184 0.568251
0.430863 0.851714 0.447283
0.430863 0.851714 0.447283
0.430863 0.851714 0.447283
0.430863 0.851714 0.447283
0.479446 0.862076 0.459993
0.530300 0.874287 0.471761
0.582363 0.886815 0.483855
0.635272 0.899576 0.496201
0.688840 0.912525 0.508763
0.742950 0.925635 0.521522
0.797523 0.938888 0.534469
0.852502 0.952269 0.547598
0.907843 0.965769 0.560909
0.963512 0.979380 0.574400
0.977166 0.982724 0.577726
0.977166 0.982724 0.577726
0.977166 0.982724 0.577726
0.430863 0.851714 0.447283
0.430863 0.851714 0.447283
0.430863 0.851714 0.447283
0.430863 0.851714 0.447283
0.479446 0.862076 0.459993
0.530300 0.874287 0.471761
0.582363 0.886815 0.483855
0.635272 0.899576 0.496201
0.688840 0.912525 0.508763
0.742950 0.925635 0.521522
0.797523 0.938888 0.534469
0.852502 0.952269 0.547598
0.907843 0.965769 0.560909
0.963512 0.979380 0.574400
0.977166 0.982724 0.577726
0.977166 0.982724 0.577726
0.977166 0.982724 0.577726
0.430863 0.851714 0.447283
0.430863 0.851714 0.447283
0.430863 0.851714 0.447283
0.430863 0.851714 0.447283
0.479446 0.862076 0.459993
0.530300 0.874287 0.471761
0.582363 0.886815 0.483855
0.635272 0.899576 0.496201
0.688840 0.912525 0.508763
0.742950 0.925635 0.521522
0.797523 0.938888 0.534469
0.852502 0.952269 0.547598
0.907843 0.965769 0.560909
0.963512 0.979380 0.574400
0.977166 0.982724 0.577726
0.977166 0.982724 0.577726
0.977166 0.982724 0.577726
0.000853 0.012825 0.032575
0.000853 0.012825 0.032575
0.000853 0.012825 0.032575
0.000853 0.012825 0.032575
0.025283 0.021997 0.041467
0.065151 0.035700 0.054877
0.108477 0.049081 0.068044
0.155104 0.062010 0.080838
0.204973 0.074413 0.093182
0.258064 0.086239 0.105022
0.314369 0.097455 0.116318
0.373894 0.108031 0.127035
0.436644 0.117945 0.137146
0.502631 0.127179 0.146624
0.536281 0.131466 0.151047
0.536281 0.131466 0.151047
0.536281 0.131466 0.151047
0.000853 0.012825 0.032575
0.000853 0.012825 0.032575
0.000853 0.012825 0.032575
0.000853 0.012825 0.032575
0.025283 0.021997 0.041467
0.065151 0.035700 0.054877
0.108477 0.049081 0.068044
0.155104 0.062010 0.080838
0.204973 0.074413 0.093182
0.258064 0.086239 0.105022
0.314369 0.097455 0.116318
0.373894 0.108031 0.127035
0.436644 0.117945 0.137146
0.502631 0.127179 0.146624
0.536281 0.131466 0.151047
0.536281 0.131466 0.151047
0.536281 0.131466 0.151047
0.000853 0.012825 0.032575
0.000853 0.012825 0.032575
0.000853 0.012825 0.032575
0.000853 0.012825 0.032575
0.025283 0.021997 0.041467
0.065151 0.035700 0.054877
0.108477 0.049081 0.068044
0.155104 0.062010 0.080838
0.204973 0.074413 0.093182
0.258064 0.086239 0.105022
0.314369 0.097455 0.116318
0.373894 0.108031 0.127035
0.436644 0.117945 0.137146
0.502631 0.127179 0.146624
0.536281 0.131466 0.151047
0.536281 0.131466 0.151047
0.536281 0.131466 0.151047
0.000853 0.012825 0.032575
0.000853 0.012825 0.032575
0.000853 0.012825 0.032575
0.000853 0.012825 0.032575
0.025479 0.022068 0.041537
0.065361 0.035768 0.054944
0.108699 0.049146 0.068109
0.155339 0.062072 0.080899
0.205221 0.074471 0.093240
0.258325 0.086294 0.105077
0.314644 0.097506 0.116370
0.374182 0.108079 0.127084
0.436946 0.117990 0.137192
0.502946 0.127220 0.146667
0.536281 0.131466 0.151047
0.536281 0.131466 0.151047
0.536281 0.131466 0.151047
0.040767 0.070343 0.069895
0.040767 0.070343 0.069895
0.040767 0.070343 0.069895
0.040841 0.070451 0.069964
0.066871 0.080526 0.079763
0.106135 0.095212 0.093079
0.148812 0.109626 0.105994
0.194764 0.123611 0.118502
0.243934 0.137091 0.130525
0.296302 0.150015 0.142010
0.351864 0.162345 0.152914
0.410622 0.174052 0.163203
0.472584 0.185114 0.172848
0.537761 0.195511 0.181821
0.569288 0.200186 0.185799
0.569288 0.200186 0.185799
0.569288 0.200186 0.185799
0.089214 0.143912 0.116034
0.089214 0.143912 0.116034
0.089214 0.143912 0.116034
0.089285 0.144022 0.116101
0.117314 0.154223 0.126420
0.156938 0.168877 0.140745
0.198613 0.183818 0.153149
0.243549 0.198373 0.164776
0.291692 0.212429 0.175885
0.343022 0.225934 0.186423
0.397537 0.238851 0.196349
0.455242 0.251148 0.205628
0.516144 0.262804 0.214231
0.580255 0.273797 0.222132
0.609818 0.278539 0.225449
0.609818 0.278539 0.225449
0.609818 0.278539 0.225449
0.136720 0.220541 0.161990
0.136720 0.220541 0.161990
0.136720 0.220541 0.161990
0.136787 0.220653 0.162056
0.166928 0.230973 0.172853
0.207877 0.245415 0.187084
0.249825 0.260225 0.201707
0.293703 0.275312 0.212904
0.340793 0.289958 0.222999
0.391061 0.304058 0.232490
0.444506 0.317574 0.241334
0.501132 0.330475 0.249500
0.560950 0.342737 0.256957
0.623971 0.354341 0.263680
0.651573 0.359122 0.266335
0.651573 0.359122 0.266335
0.651573 0.359122 0.266335
0.182830 0.299769 0.207112
0.182830 0.299769 0.207112
0.182830 0.299769 0.207112
0.182895 0.299884 0.207175
0.215246 0.310313 0.218397
0.257542 0.324539 0.232457
0.300868 0.339129 0.246882
0.344921 0.353981 0.261565
0.390907 0.369158 0.271315
0.440097 0.383862 0.279659
0.492454 0.397986 0.287324
0.547985 0.411500 0.294276
0.606701 0.424378 0.300486
0.668614 0.436601 0.305929
0.694277 0.441395 0.307934
0.694277 0.441395 0.307934
0.694277 0.441395 0.307934
0.227292 0.381372 0.250903
0.227292 0.381372 0.250903
0.227292 0.381372 0.250903
0.227353 0.381488 0.250964
0.262012 0.392016 0.262549
0.305670 0.406024 0.276357
0.350390 0.420389 0.290500
0.395859 0.435014 0.304874
0.441918 0.449847 0.319420
0.489963 0.465078 0.327505
0.541220 0.479817 0.333891
0.595643 0.493951 0.339529
0.653243 0.507452 0.344393
0.714035 0.520301 0.348468
0.737790 0.525078 0.349852
0.737790 0.525078 0.349852
0.737790 0.525078 0.349852
0.269936 0.465214 0.292931
0.269936 0.465214 0.292931
0.269936 0.465214 0.292931
0.269994 0.465332 0.292988
0.307052 0.475948 0.304864
0.352087 0.489735 0.318338
0.398214 0.503874 0.332115
0.445113 0.518269 0.346093
0.492619 0.532869 0.360213
0.540629 0.547643 0.374439
0.590705 0.562903 0.380672
0.644009 0.577661 0.384948
0.700484 0.591791 0.388462
0.760144 0.605272 0.391205
0.782026 0.610001 0.392053
0.782026 0.610001 0.392053
0.782026 0.610001 0.392053
0.310641 0.551210 0.332790
0.310641 0.551210 0.332790
0.310641 0.551210 0.332790
0.310696 0.551331 0.332843
0.350245 0.562023 0.344930
0.396666 0.575586 0.357985
0.444213 0.589496 0.371317
0.492553 0.603659 0.384840
0.541518 0.618023 0.398509
0.591001 0.632560 0.412304
0.640930 0.647248 0.426209
0.693019 0.662517 0.430621
0.748360 0.677280 0.432860
0.806879 0.691397 0.434347
0.826928 0.696048 0.434744
0.826928 0.696048 0.434744
0.826928 0.696048 0.434744
0.349311 0.639301 0.370114
0.349311 0.639301 0.370114
0.349311 0.639301 0.370114
0.349363 0.639423 0.370163
0.391493 0.650179 0.382413
0.439311 0.663517 0.395047
0.488286 0.677197 0.407971
0.538079 0.691124 0.421103
0.588512 0.705251 0.434402
0.639478 0.719547 0.447847
0.690903 0.733993 0.461425
0.742732 0.748573 0.475132
0.796826 0.763837 0.477826
0.854196 0.778593 0.478136
0.872456 0.783135 0.478165
0.872456 0.783135 0.478165
0.872456 0.783135 0.478165
0.385872 0.729442 0.404877
0.385872 0.729442 0.404877
0.385872 0.729442 0.404877
0.385920 0.729567 0.404923
0.430721 0.740374 0.417381
0.479943 0.753484 0.429672
0.530357 0.766931 0.442269
0.581609 0.780622 0.455093
0.633521 0.794509 0.468104
0.685979 0.808562 0.481283
0.738907 0.822763 0.494620
0.792251 0.837097 0.508108
0.845969 0.851552 0.521746
0.902062 0.866797 0.522837
0.918578 0.871198 0.522577
0.918578 0.871198 0.522577
0.918578 0.871198 0.522577
0.420258 0.821601 0.437298
0.420258 0.821601 0.437298
0.420258 0.821601 0.437298
0.420303 0.821728 0.437341
0.467863 0.832574 0.450065
0.518499 0.845455 0.462093
0.570357 0.858667 0.474445
0.623079 0.872118 0.487043
0.676476 0.885763 0.499851
0.730434 0.899572 0.512850
0.784875 0.913525 0.526030
0.839742 0.927609 0.539386
0.894992 0.941813 0.552916
0.950591 0.956128 0.566622
0.965272 0.960184 0.568251
0.965272 0.960184 0.568251
0.965272 0.960184 0.568251
0.430863 0.851714 0.447283
0.430863 0.851714 0.447283
0.430863 0.851714 0.447283
0.430863 0.851714 0.447283
0.479446 0.862076 0.459993
0.530300 0.874287 0.471761
0.582363 0.886815 0.483855
0.635272 0.899576 0.496201
0.688840 0.912525 0.508763
0.742950 0.925635 0.521522
0.797523 0.938888 0.534469
0.852502 0.952269 0.547598
0.907843 0.965769 0.560909
0.963512 0.979380 0.574400
0.977166 0.982724 0.577726
0.977166 0.982724 0.577726
0.977166 0.982724 0.577726
0.430863 0.851714 0.447283
0.430863 0.851714 0.447283
0.430863 0.851714 0.447283
0.430863 0.851714 0.447283
0.479446 0.862076 0.459993
0.530300 0.874287 0.471761
0.582363 0.886815 0.483855
0.635272 0.899576 0.496201
0.688840 0.912525 0.508763
0.742950 0.925635 0.521522
0.797523 0.938888 0.534469
0.852502 0.952269 0.547598
0.907843 0.965769 0.560909
0.963512 0.979380 0.574400
0.977166 0.982724 0.577726
0.977166 0.982724 0.577726
0.977166 0.982724 0.577726
0.430863 0.851714 0.447283
0.430863 0.851714 0.447283
0.430863 0.851714 0.447283
0.430863 0.851714 0.447283
0.479446 0.862076 0.459993
0.530300 0.874287 0.471761
0.582363 0.886815 0.483855
0.635272 0.899576 0.496201
0.688840 0.912525 0.508763
0.742950 0.925635 0.521522
0.797523 0.938888 0.534469
0.852502 0.952269 0.547598
0.907843 0.965769 0.560909
0.963512 0.979380 0.574400
0.977166 0.982724 0.577726
0.977166 0.982724 0.577726
0.977166 0.982724 0.577726
0.000853 0.012825 0.032575
0.000853 0.012825 0.032575
0.000853 0.012825 0.032575
0.000853 0.012825 0.032575
0.025283 0.021997 0.041467
0.065151 0.035700 0.054877
0.108477 0.049081 0.068044
0.155104 0.062010 0.080838
0.204973 0.074413 0.093182
0.258064 0.086239 0.105022
0.314369 0.097455 0.116318
0.373894 0.108031 0.127035
0.436644 0.117945 0.137146
0.502631 0.127179 0.146624
0.536281 0.131466 0.151047
0.536281 0.131466 0.151047
0.536281 0.131466 0.151047
0.000853 0.012825 0.032575
0.000853 0.012825 0.032575
0.000853 0.012825 0.032575
0.000853 0.012825 0.032575
0.025283 0.021997 0.041467
0.065151 0.035700 0.054877
0.108477 0.049081 0.068044
0.155104 0.062010 0.080838
0.204973 0.074413 0.093182
0.258064 0.086239 0.105022
0.314369 0.097455 0.116318
0.373894 0.108031 0.127035
0.436644 0.117945 0.137146
0.502631 0.127179 0.146624
0.536281 0.131466 0.151047
0.536281 0.131466 0.151047
0.536281 0.131466 0.151047
0.000853 0.012825 0.032575
0.000853 0.012825 0.032575
0.000853 0.012825 0.032575
0.000853 0.012825 0.032575
0.025283 0.021997 0.041467
0.065151 0.035700 0.054877
0.108477 0.049081 0.068044
0.155104 0.062010 0.080838
0.204973 0.074413 0.093182
0.258064 0.086239 0.105022
0.314369 0.097455 0.116318
0.373894 0.108031 0.127035
0.436644 0.117945 0.137146
0.502631 0.127179 0.146624
0.536281 0.131466 0.151047
0.536281 0.131466 0.151047
0.536281 0.131466 0.151047
0.000853 0.012825 0.032575
0.000853 0.012825 0.032575
0.000853 0.012825 0.032575
0.000853 0.012825 0.032575
0.025479 0.022068 0.041537
0.065361 0.035768 0.054944
0.108699 0.049146 0.068109
0.155339 0.062072 0.080899
0.205221 0.074471 0.093240
0.258325 0.086294 0.105077
0.314644 0.097506 0.116370
0.374182 0.108079 0.127084
0.436946 0.117990 0.137192
0.502946 0.127220 0.146667
0.536281 0.131466 0.151047
0.536281 0.131466 0.151047
0.536281 0.131466 0.151047
0.040767 0.070343 0.069895
0.040767 0.070343 0.069895
0.040767 0.070343 0.069895
0.040841 0.070451 0.069964
0.066871 0.080526 0.079763
0.106135 0.095212 0.093079
0.148812 0.109626 0.105994
0.194764 0.123611 0.118502
0.243934 0.137091 0.130525
0.296302 0.150015 0.142010
0.351864 0.162345 0.152914
0.410622 0.174052 0.163203
0.472584 0.185114 0.172848
0.537761 0.195511 0.181821
0.569288 0.200186 0.185799
0.569288 0.200186 0.185799
0.569288 0.200186 0.185799
0.089214 0.143912 0.116034
0.089214 0.143912 0.116034
0.089214 0.143912 0.116034
0.089285 0.144022 0.116101
0.117314 0.154223 0.126420
0.156938 0.168877 0.140745
0.198613 0.183818 0.153149
0.243549 0.198373 0.164776
0.291692 0.212429 0.175885
0.343022 0.225934 0.186423
0.397537 0.238851 0.196349
0.455242 0.251148 0.205628
0.516144 0.262804 0.214231
0.580255 0.273797 0.222132
0.609818 0.278539 0.225449
0.609818 0.278539 0.225449
0.609818 0.278539 0.225449
0.136720 0.220541 0.161990
0.136720 0.220541 0.161990
0.136720 0.220541 0.161990
0.136787 0.220653 0.162056
0.166928 0.230973 0.172853
0.207877 0.245415 0.187084
0.249825 0.260225 0.201707
0.293703 0.275312 0.212904
0.340793 0.289958 0.222999
0.391061 0.304058 0.232490
0.444506 0.317574 0.241334
0.501132 0.330475 0.249500
0.560950 0.342737 0.256957
0.623971 0.354341 0.263680
0.651573 0.359122 0.266335
0.651573 0.359122 0.266335
0.651573 0.359122 0.266335
0.182830 0.299769 0.207112
0.182830 0.299769 0.207112
0.182830 0.299769 0.207112
0.182895 0.299884 0.207175
0.215246 0.310313 0.218397
0.257542 0.324539 0.232457
0.300868 0.339129 0.246882
0.344921 0.353981 0.261565
0.390907 0.369158 0.271315
0.440097 0.383862 0.279659
0.492454 0.397986 0.287324
0.547985 0.411500 0.294276
0.606701 0.424378 0.300486
0.668614 0.436601 0.305929
0.694277 0.441395 0.307934
0.694277 0.441395 0.307934
0.694277 0.441395 0.307934
0.227292 0.381372 0.250903
0.227292 0.381372 0.250903
0.227292 0.381372 0.250903
0.227353 0.381488 0.250964
0.262012 0.392016 0.262549
0.305670 0.406024 0.276357
0.350390 0.420389 0.290500
0.395859 0.435014 0.304874
0.441918 0.449847 0.319420
0.489963 0.465078 0.327505
0.541220 0.479817 0.333891
0.595643 0.493951 0.339529
0.653243 0.507452 0.344393
0.714035 0.520301 0.348468
0.737790 0.525078 0.349852
0.737790 0.525078 0.349852
0.737790 0.525078 0.349852
0.269936 0.465214 0.292931
0.269936 0.465214 0.292931
0.269936 0.465214 0.292931
0.269994 0.465332 0.292988
0.307052 0.475948 0.304864
0.352087 0.489735 0.318338
0.398214 0.503874 0.332115
0.445113 0.518269 0.346093
0.492619 0.532869 0.360213
0.540629 0.547643 0.374439
0.590705 0.562903 0.380672
0.644009 0.577661 0.384948
0.700484 0.591791 0.388462
0.760144 0.605272 0.391205
0.782026 0.610001 0.392053
0.782026 0.610001 0.392053
0.782026 0.610001 0.392053
0.310641 0.551210 0.332790
0.310641 0.551210 0.332790
0.310641 0.551210 0.332790
0.310696 0.551331 0.332843
0.350245 0.562023 0.344930
0.396666 0.575586 0.357985
0.444213 0.589496 0.371317
0.492553 0.603659 0.384840
0.541518 0.618023 0.398509
0.591001 0.632560 0.412304
0.640930 0.647248 0.426209
0.693019 0.662517 0.430621
0.748360 0.677280 0.432860
0.806879 0.691397 0.434347
0.826928 0.696048 0.434744
0.826928 0.696048 0.434744
0.826928 0.696048 0.434744
0.349311 0.639301 0.370114
0.349311 0.639301 0.370114
0.349311 0.639301 0.370114
0.349363 0.639423 0.370163
0.391493 0.650179 0.382413
0.439311 0.663517 0.395047
0.488286 0.677197 0.407971
0.538079 0.691124 0.421103
0.588512 0.705251 0.434402
0.639478 0.719547 0.447847
0.690903 0.733993 0.461425
0.742732 0.748573 0.475132
0.796826 0.763837 0.477826
0.854196 0.778593 0.478136
0.872456 0.783135 0.478165
0.872456 0.783135 0.478165
0.872456 0.783135 0.478165
0.385872 0.729442 0.404877
0.385872 0.729442 0.404877
0.385872 0.729442 0.404877
0.385920 0.729567 0.404923
0.430721 0.740374 0.417381
0.479943 0.753484 0.429672
0.530357 0.766931 0.442269
0.581609 0.780622 0.455093
0.633521 0.794509 0.468104
0.685979 0.808562 0.481283
0.738907 0.822763 0.494620
0.792251 0.837097 0.508108
0.845969 0.851552 0.521746
0.902062 0.866797 0.522837
0.918578 0.871198 0.522577
0.918578 0.871198 0.522577
0.918578 0.871198 0.522577
0.420258 0.821601 0.437298
0.420258 0.821601 0.437298
0.420258 0.821601 0.437298
0.420303 0.821728 0.437341
0.467863 0.832574 0.450065
0.518499 0.845455 0.462093
0.570357 0.858667 0.474445
0.623079 0.872118 0.487043
0.676476 0.885763 0.499851
0.730434 0.899572 0.512850
0.784875 0.913525 0.526030
0.839742 0.927609 0.539386
0.894992 0.941813 0.552916
0.950591 0.956128 0.566622
0.965272 0.960184 0.568251
0.965272 0.960184 0.568251
0.965272 0.960184 0.568251
0.430863 0.851714 0.447283
0.430863 0.851714 0.447283
0.430863 0.851714 0.447283
0.430863 0.851714 0.447283
0.479446 0.862076 0.459993
0.530300 0.874287 0.471761
0.582363 0.886815 0.483855
0.635272 0.899576 0.496201
0.688840 0.912525 0.508763
0.742950 0.925635 0.521522
0.797523 0.938888 0.534469
0.852502 0.952269 0.547598
0.907843 0.965769 0.560909
0.963512 0.979380 0.574400
0.977166 0.982724 0.577726
0.977166 0.982724 0.577726
0.977166 0.982724 0.577726
0.430863 0.851714 0.447283
0.430863 0.851714 0.447283
0.430863 0.851714 0.447283
0.430863 0.851714 0.447283
0.479446 0.862076 0.459993
0.530300 0.874287 0.471761
0.582363 0.886815 0.483855
0.635272 0.899576 0.496201
0.688840 0.912525 0.508763
0.742950 0.925635 0.521522
0.797523 0.938888 0.534469
0.852502 0.952269 0.547598
0.907843 0.965769 0.560909
0.963512 0.979380 0.574400
0.977166 0.982724 0.577726
0.977166 0.982724 0.577726
0.977166 0.982724 0.577726
0.430863 0.851714 0.447283
0.430863 0.851714 0.447283
0.430863 0.851714 0.447283
0.430863 0.851714 0.447283
0.479446 0.862076 0.459993
0.530300 0.874287 0.471761
0.582363 0.886815 0.483855
0.635272 0.899576 0.496201
0.688840 0.912525 0.508763
0.742950 0.925635 0.521522
0.797523 0.938888 0.534469
0.852502 0.952269 0.547598
0.907843 0.965769 0.560909
0.963512 0.979380 0.574400
0.977166 0.982724 0.577726
0.977166 0.982724 0.577726
0.977166 0.982724 0.577726
0.000853 0.012825 0.032575
0.000853 0.012825 0.032575
0.000853 0.012825 0.032575
0.000853 0.012825 0.032575
0.025302 0.022004 0.041474
0.065173 0.035707 0.054884
0.108500 0.049088 0.068051
0.155128 0.062016 0.080844
0.204998 0.074418 0.093188
0.258090 0.086245 0.105028
0.314397 0.097460 0.116323
0.373923 0.108036 0.127040
0.436675 0.117950 0.137151
0.502663 0.127183 0.146628
0.536281 0.131466 0.151047
0.536281 0.131466 0.151047
