resources/luts/silver-fade.cube
TITLE "silver-fade"
LUT_3D_SIZE 6
DOMAIN_MIN 0 0 0
DOMAIN_MAX 1 1 1
0.039200 0.039600 0.041200
0.082728 0.083572 0.086949
0.144085 0.145556 0.151437
0.204313 0.206398 0.214737
0.263873 0.266566 0.277336
0.322957 0.326253 0.339435
0.141853 0.143300 0.149090
0.202111 0.204173 0.212422
0.261691 0.264361 0.275043
0.320791 0.324064 0.337158
0.379518 0.383390 0.398881
0.437941 0.442409 0.460284
0.259509 0.262157 0.272749
0.318624 0.321875 0.334880
0.377363 0.381214 0.396616
0.435796 0.440243 0.458031
0.493971 0.499012 0.519174
0.551923 0.557555 0.580082
0.375208 0.379036 0.394351
0.433651 0.438076 0.455776
0.491835 0.496854 0.516929
0.549795 0.555405 0.577845
0.607557 0.613757 0.638555
0.665144 0.671931 0.699080
0.489699 0.494696 0.514683
0.547666 0.553254 0.575608
0.605435 0.611613 0.636325
0.663028 0.669794 0.696856
0.720462 0.727813 0.757220
0.777750 0.785686 0.817431
0.603313 0.609470 0.634095
0.660912 0.667656 0.694632
0.718351 0.725682 0.755002
0.775645 0.783560 0.815219
0.832805 0.841303 0.875295
0.889842 0.898922 0.935242
0.043310 0.043752 0.045520
0.106313 0.107398 0.111738
0.167146 0.168852 0.175674
0.227087 0.229404 0.238673
0.286449 0.289372 0.301064
0.345383 0.348907 0.363004
0.164927 0.166610 0.173341
0.224893 0.227188 0.236367
0.284274 0.287174 0.298777
0.343221 0.346723 0.360733
0.401826 0.405926 0.422327
0.460146 0.464841 0.483623
0.282098 0.284976 0.296490
0.341059 0.344539 0.358460
0.399675 0.403753 0.420066
0.458005 0.462678 0.481372
0.516091 0.521357 0.542422
0.573966 0.579822 0.603250
0.397524 0.401580 0.417806
0.455863 0.460515 0.479122
0.513958 0.519203 0.540181
0.571840 0.577675 0.601015
0.629533 0.635957 0.661652
0.687057 0.694068 0.722111
0.511825 0.517048 0.537938
0.569714 0.575527 0.598781
0.627414 0.633816 0.659425
0.684944 0.691933 0.719890
0.742321 0.749895 0.780194
0.799557 0.807716 0.840351
0.625294 0.631675 0.657197
0.682830 0.689798 0.717669
0.740212 0.747766 0.777978
0.797454 0.805591 0.838140
0.854565 0.863286 0.898166
0.911557 0.920859 0.958066
0.067850 0.068542 0.071311
0.129647 0.130970 0.136262
0.190082 0.192022 0.199780
0.249778 0.252327 0.262522
0.308964 0.312117 0.324727
0.367759 0.371512 0.386522
0.187874 0.189791 0.197459
0.247592 0.250119 0.260224
0.306794 0.309925 0.322447
0.365602 0.369333 0.384255
0.424092 0.428420 0.445730
0.482316 0.487238 0.506924
0.304624 0.307732 0.320166
0.363445 0.367153 0.381988
0.421946 0.426251 0.443473
0.480178 0.485078 0.504677
0.538181 0.543672 0.565639
0.595981 0.602062 0.626388
0.419798 0.424082 0.441217
0.478040 0.482918 0.502430
0.536050 0.541520 0.563400
0.593858 0.599917 0.624157
0.651484 0.658132 0.684723
0.708949 0.716183 0.745120
0.533920 0.539368 0.561161
0.591734 0.597772 0.621925
0.649367 0.655994 0.682498
0.706837 0.714050 0.742900
0.764159 0.771957 0.803147
0.821345 0.829726 0.863250
0.647250 0.653855 0.680273
0.704726 0.711917 0.740681
0.762053 0.769829 0.800933
0.819243 0.827603 0.861042
0.876309 0.885250 0.921018
0.933257 0.942780 0.980872
0.091661 0.092596 0.096337
0.152800 0.154359 0.160596
0.212914 0.215086 0.223777
0.272396 0.275176 0.286294
0.331422 0.334804 0.348331
0.390090 0.394070 0.409992
0.210715 0.212865 0.221465
0.270217 0.272974 0.284003
0.329257 0.332617 0.346056
0.387937 0.391896 0.407730
0.446321 0.450875 0.469092
0.504453 0.509600 0.530190
0.327092 0.330430 0.343781
0.385784 0.389720 0.405467
0.444177 0.448710 0.466839
0.502318 0.507444 0.527947
0.560241 0.565957 0.588824
0.617970 0.624276 0.649499
0.442034 0.446544 0.464587
0.500183 0.505287 0.525703
0.558113 0.563808 0.586588
0.615849 0.622134 0.647270
0.673412 0.680284 0.707770
0.730819 0.738276 0.768105
0.555986 0.561659 0.584352
0.613728 0.619991 0.645041
0.671297 0.678147 0.705547
0.728709 0.736145 0.765888
0.785978 0.793998 0.826079
0.843115 0.851718 0.886131
0.669182 0.676011 0.703324
0.726600 0.734014 0.763671
0.783873 0.791872 0.823867
0.841015 0.849597 0.883924
0.898035 0.907198 0.943853
0.954941 0.964685 1.000000
0.115140 0.116315 0.121014
0.175811 0.177605 0.184781
0.235655 0.238060 0.247678
0.294949 0.297958 0.309997
0.353829 0.357439 0.371881
0.412378 0.416586 0.433418
0.233464 0.235847 0.245376
0.292775 0.295763 0.307713
0.351669 0.355257 0.369611
0.410229 0.414415 0.431159
0.468512 0.473293 0.492416
0.526558 0.531931 0.553424
0.349508 0.353075 0.367340
0.408080 0.412244 0.428900
0.466373 0.471131 0.490167
0.524427 0.529778 0.551183
0.582273 0.588214 0.611981
0.639934 0.646464 0.672584
0.464232 0.468969 0.487918
0.522295 0.527624 0.548942
0.580148 0.586068 0.609747
0.637816 0.644324 0.670357
0.695317 0.702412 0.730793
0.752668 0.760348 0.791069
0.578023 0.583921 0.607514
0.635697 0.642184 0.668131
0.693205 0.700278 0.728572
0.750560 0.758219 0.788854
0.807777 0.816020 0.848991
0.864867 0.873692 0.908993
0.691092 0.698144 0.726351
0.748453 0.756090 0.786639
0.805675 0.813896 0.846781
0.862769 0.871573 0.906788
0.919744 0.929129 0.966670
0.976609 0.986575 1.000000
0.138399 0.139811 0.145460
0.198705 0.200733 0.208843
0.258318 0.260954 0.271497
0.317441 0.320681 0.333637
0.376187 0.380026 0.395381
0.434626 0.439061 0.456801
0.256134 0.258748 0.269202
0.315273 0.318491 0.331359
0.374032 0.377849 0.393115
0.432481 0.436894 0.454546
0.490670 0.495677 0.515704
0.548634 0.554232 0.576625
0.371876 0.375671 0.390849
0.430336 0.434727 0.452292
0.488533 0.493518 0.513458
0.546505 0.552081 0.574388
0.604278 0.610444 0.635109
0.661874 0.668628 0.695643
0.486396 0.491360 0.511212
0.544376 0.549931 0.572150
0.602156 0.608300 0.632878
0.659758 0.666490 0.693419
0.717200 0.724519 0.753792
0.774497 0.782400 0.814012
0.600033 0.606156 0.630647
0.657642 0.664353 0.691195
0.715090 0.722387 0.751574
0.772391 0.780273 0.811799
0.829559 0.838023 0.871883
0.886602 0.895649 0.931837
0.712979 0.720254 0.749355
0.770286 0.778146 0.809586
0.827458 0.835901 0.869675
0.884505 0.893531 0.929633
0.941438 0.951044 0.989470
0.980000 0.990000 1.000000
