resources/luts/silver-bypass.cube
# Generated by FotoReady. Released under the project GPL-3.0-or-later license.
TITLE "silver-bypass"
LUT_3D_SIZE 5
DOMAIN_MIN 0 0 0
DOMAIN_MAX 1 1 1
0.000853 0.012825 0.032575
0.025283 0.021997 0.041467
0.204973 0.074413 0.093182
0.436644 0.117945 0.137146
0.536281 0.131466 0.151047
0.040767 0.070343 0.069895
0.066871 0.080526 0.079763
0.243934 0.137091 0.130525
0.472584 0.185114 0.172848
0.569288 0.200186 0.185799
0.227292 0.381372 0.250903
0.262012 0.392016 0.262549
0.441918 0.449847 0.319420
0.653243 0.507452 0.344393
0.737790 0.525078 0.349852
0.385872 0.729442 0.404877
0.430721 0.740374 0.417381
0.633521 0.794509 0.468104
0.845969 0.851552 0.521746
0.918578 0.871198 0.522577
0.430863 0.851714 0.447283
0.479446 0.862076 0.459993
0.688840 0.912525 0.508763
0.907843 0.965769 0.560909
0.977166 0.982724 0.577726
0.004723 0.016564 0.054837
0.029560 0.025764 0.063855
0.208867 0.078078 0.120954
0.440332 0.121375 0.171261
0.539707 0.134781 0.187657
0.044790 0.074514 0.092900
0.071299 0.084747 0.102694
0.244889 0.142019 0.159982
0.469503 0.190832 0.209809
0.564436 0.206196 0.225678
0.231633 0.385719 0.282302
0.269375 0.395363 0.296613
0.446379 0.454013 0.357233
0.652400 0.512703 0.390529
0.734843 0.530694 0.399135
0.390295 0.733950 0.446092
0.441986 0.742372 0.465039
0.642965 0.796820 0.521466
0.850159 0.855474 0.578301
0.920698 0.875483 0.582251
0.435242 0.856049 0.492326
0.492218 0.863286 0.513013
0.700070 0.913910 0.568101
0.913599 0.968821 0.623571
0.980995 0.986293 0.641567
0.022788 0.033955 0.199937
0.051278 0.042440 0.208418
0.229751 0.095703 0.261513
0.457885 0.137886 0.335563
0.555989 0.150547 0.361427
0.059720 0.094193 0.235534
0.090300 0.104003 0.240718
0.266358 0.161022 0.296208
0.487847 0.208665 0.369764
0.581512 0.223308 0.394822
0.250070 0.405390 0.424006
0.288839 0.415495 0.433951
0.467682 0.474157 0.491474
0.651848 0.536634 0.554019
0.726116 0.555808 0.573048
0.408164 0.752098 0.612837
0.460878 0.761046 0.626896
0.680534 0.808689 0.698309
0.868329 0.872645 0.762577
0.931054 0.893863 0.775676
0.452289 0.872938 0.667457
0.510324 0.880720 0.683010
0.742507 0.922286 0.758773
0.936927 0.982382 0.821989
0.997221 1.000000 0.841704
0.037726 0.048213 0.402626
0.070136 0.055924 0.410512
0.269989 0.103619 0.458804
0.479345 0.153934 0.510579
0.573033 0.167074 0.542934
0.071293 0.110879 0.435529
0.106237 0.120230 0.435742
0.303575 0.171842 0.485179
0.509847 0.226224 0.539787
0.599397 0.241254 0.571343
0.242389 0.430509 0.606705
0.286136 0.440055 0.610907
0.488121 0.495170 0.637896
0.674873 0.557388 0.697905
0.746565 0.576395 0.724175
0.424938 0.771618 0.787629
0.478912 0.781076 0.796426
0.701480 0.830632 0.843066
0.891203 0.894602 0.904515
0.946224 0.916976 0.926862
0.470132 0.890635 0.850377
0.529283 0.898997 0.860459
0.763452 0.942735 0.911616
0.964672 1.000000 0.978009
1.000000 1.000000 0.999868
0.042032 0.052285 0.486439
0.075843 0.059703 0.493632
0.282932 0.105419 0.538572
0.499528 0.153748 0.586869
0.580398 0.171927 0.605147
0.074360 0.115771 0.516783
0.110845 0.124942 0.514775
0.315265 0.174652 0.560525
0.528593 0.227105 0.611621
0.606806 0.246582 0.630579
0.239071 0.437829 0.676726
0.284505 0.447159 0.678617
0.493791 0.501024 0.694521
0.687227 0.561391 0.751077
0.753698 0.582388 0.770973
0.415901 0.781052 0.846493
0.471688 0.790261 0.852965
0.701131 0.838591 0.889515
0.897690 0.901331 0.940922
0.952949 0.923526 0.962266
0.475292 0.895757 0.903205
0.534801 0.904263 0.911352
0.769388 0.948487 0.954415
0.971013 1.000000 1.000000
1.000000 1.000000 1.000000
