resources/luts/silver-bypass.cube
# Generated by FotoReady. Released under the project GPL-3.0-or-later license.
TITLE "silver-bypass"
LUT_3D_SIZE 9
DOMAIN_MIN 0 0 0
DOMAIN_MAX 1 1 1
0.000853 0.012825 0.032575
0.000853 0.012825 0.032575
0.025283 0.021997 0.041467
0.108477 0.049081 0.068044
0.204973 0.074413 0.093182
0.314369 0.097455 0.116318
0.436644 0.117945 0.137146
0.536281 0.131466 0.151047
0.536281 0.131466 0.151047
0.000853 0.012825 0.032575
0.000853 0.012825 0.032575
0.025283 0.021997 0.041467
0.108477 0.049081 0.068044
0.204973 0.074413 0.093182
0.314369 0.097455 0.116318
0.436644 0.117945 0.137146
0.536281 0.131466 0.151047
0.536281 0.131466 0.151047
0.040767 0.070343 0.069895
0.040767 0.070343 0.069895
0.066871 0.080526 0.079763
0.148812 0.109626 0.105994
0.243934 0.137091 0.130525
0.351864 0.162345 0.152914
0.472584 0.185114 0.172848
0.569288 0.200186 0.185799
0.569288 0.200186 0.185799
0.136720 0.220541 0.161990
0.136720 0.220541 0.161990
0.166928 0.230973 0.172853
0.249825 0.260225 0.201707
0.340793 0.289958 0.222999
0.444506 0.317574 0.241334
0.560950 0.342737 0.256957
0.651573 0.359122 0.266335
0.651573 0.359122 0.266335
0.227292 0.381372 0.250903
0.227292 0.381372 0.250903
0.262012 0.392016 0.262549
0.350390 0.420389 0.290500
0.441918 0.449847 0.319420
0.541220 0.479817 0.333891
0.653243 0.507452 0.344393
0.737790 0.525078 0.349852
0.737790 0.525078 0.349852
0.310641 0.551210 0.332790
0.310641 0.551210 0.332790
0.350245 0.562023 0.344930
0.444213 0.589496 0.371317
0.541518 0.618023 0.398509
0.640930 0.647248 0.426209
0.748360 0.677280 0.432860
0.826928 0.696048 0.434744
0.826928 0.696048 0.434744
0.385872 0.729442 0.404877
0.385872 0.729442 0.404877
0.430721 0.740374 0.417381
0.530357 0.766931 0.442269
0.633521 0.794509 0.468104
0.738907 0.822763 0.494620
0.845969 0.851552 0.521746
0.918578 0.871198 0.522577
0.918578 0.871198 0.522577
0.430863 0.851714 0.447283
0.430863 0.851714 0.447283
0.479446 0.862076 0.459993
0.582363 0.886815 0.483855
0.688840 0.912525 0.508763
0.797523 0.938888 0.534469
0.907843 0.965769 0.560909
0.977166 0.982724 0.577726
0.977166 0.982724 0.577726
0.430863 0.851714 0.447283
0.430863 0.851714 0.447283
0.479446 0.862076 0.459993
0.582363 0.886815 0.483855
0.688840 0.912525 0.508763
0.797523 0.938888 0.534469
0.907843 0.965769 0.560909
0.977166 0.982724 0.577726
0.977166 0.982724 0.577726
0.000853 0.012825 0.032575
0.000853 0.012825 0.032575
0.025283 0.021997 0.041467
0.108477 0.049081 0.068044
0.204973 0.074413 0.093182
0.314369 0.097455 0.116318
0.436644 0.117945 0.137146
0.536281 0.131466 0.151047
0.536281 0.131466 0.151047
0.000853 0.012825 0.032575
0.000853 0.012825 0.032575
0.025283 0.021997 0.041467
0.108477 0.049081 0.068044
0.204973 0.074413 0.093182
0.314369 0.097455 0.116318
0.436644 0.117945 0.137146
0.536281 0.131466 0.151047
0.536281 0.131466 0.151047
0.040767 0.070343 0.069895
0.040767 0.070343 0.069895
0.066871 0.080526 0.079763
0.148812 0.109626 0.105994
0.243934 0.137091 0.130525
0.351864 0.162345 0.152914
0.472584 0.185114 0.172848
0.569288 0.200186 0.185799
0.569288 0.200186 0.185799
0.136720 0.220541 0.161990
0.136720 0.220541 0.161990
0.166928 0.230973 0.172853
0.249825 0.260225 0.201707
0.340793 0.289958 0.222999
0.444506 0.317574 0.241334
0.560950 0.342737 0.256957
0.651573 0.359122 0.266335
0.651573 0.359122 0.266335
0.227292 0.381372 0.250903
0.227292 0.381372 0.250903
0.262012 0.392016 0.262549
0.350390 0.420389 0.290500
0.441918 0.449847 0.319420
0.541220 0.479817 0.333891
0.653243 0.507452 0.344393
0.737790 0.525078 0.349852
0.737790 0.525078 0.349852
0.310641 0.551210 0.332790
0.310641 0.551210 0.332790
0.350245 0.562023 0.344930
0.444213 0.589496 0.371317
0.541518 0.618023 0.398509
0.640930 0.647248 0.426209
0.748360 0.677280 0.432860
0.826928 0.696048 0.434744
0.826928 0.696048 0.434744
0.385872 0.729442 0.404877
0.385872 0.729442 0.404877
0.430721 0.740374 0.417381
0.530357 0.766931 0.442269
0.633521 0.794509 0.468104
0.738907 0.822763 0.494620
0.845969 0.851552 0.521746
0.918578 0.871198 0.522577
0.918578 0.871198 0.522577
0.430863 0.851714 0.447283
0.430863 0.851714 0.447283
0.479446 0.862076 0.459993
0.582363 0.886815 0.483855
0.688840 0.912525 0.508763
0.797523 0.938888 0.534469
0.907843 0.965769 0.560909
0.977166 0.982724 0.577726
0.977166 0.982724 0.577726
0.430863 0.851714 0.447283
0.430863 0.851714 0.447283
0.479446 0.862076 0.459993
0.582363 0.886815 0.483855
0.688840 0.912525 0.508763
0.797523 0.938888 0.534469
0.907843 0.965769 0.560909
0.977166 0.982724 0.577726
0.977166 0.982724 0.577726
0.004723 0.016564 0.054837
0.004723 0.016564 0.054837
0.029560 0.025764 0.063855
0.112462 0.052852 0.092856
0.208867 0.078078 0.120954
0.318164 0.101007 0.147195
0.440332 0.121375 0.171261
0.539707 0.134781 0.187657
0.539707 0.134781 0.187657
0.004723 0.016564 0.054837
0.004723 0.016564 0.054837
0.029560 0.025764 0.063855
0.112462 0.052852 0.092856
0.208867 0.078078 0.120954
0.318164 0.101007 0.147195
0.440332 0.121375 0.171261
0.539707 0.134781 0.187657
0.539707 0.134781 0.187657
0.044790 0.074514 0.092900
0.044790 0.074514 0.092900
0.071299 0.084747 0.102694
0.151608 0.114189 0.131954
0.244889 0.142019 0.159982
0.350858 0.167657 0.186043
0.469503 0.190832 0.209809
0.564436 0.206196 0.225678
0.564436 0.206196 0.225678
0.140994 0.224785 0.188968
0.140994 0.224785 0.188968
0.172713 0.234814 0.201013
0.254340 0.264435 0.231575
0.342959 0.294671 0.256489
0.444178 0.322799 0.278804
0.558006 0.348498 0.298571
0.646527 0.365256 0.311023
0.646527 0.365256 0.311023
0.231633 0.385719 0.282302
0.231633 0.385719 0.282302
0.269375 0.395363 0.296613
0.357103 0.423842 0.327068
0.446379 0.454013 0.357233
0.543098 0.484522 0.375686
0.652400 0.512703 0.390529
0.734843 0.530694 0.399135
0.734843 0.530694 0.399135
0.315033 0.555646 0.368918
0.315033 0.555646 0.368918
0.359434 0.564756 0.385468
0.453385 0.592065 0.415172
0.548342 0.621325 0.443718
0.645283 0.651319 0.472831
0.749900 0.681924 0.483876
0.826370 0.701049 0.489007
0.826370 0.701049 0.489007
0.390295 0.733950 0.446092
0.390295 0.733950 0.446092
0.441986 0.742372 0.465039
0.542246 0.768490 0.494125
0.642965 0.796820 0.521466
0.745782 0.825863 0.549550
0.850159 0.855474 0.578301
0.920698 0.875483 0.582251
0.920698 0.875483 0.582251
0.435242 0.856049 0.492326
0.435242 0.856049 0.492326
0.492218 0.863286 0.513013
0.596143 0.887420 0.541622
0.700070 0.913910 0.568101
0.806074 0.941089 0.595442
0.913599 0.968821 0.623571
0.980995 0.986293 0.641567
0.980995 0.986293 0.641567
0.435242 0.856049 0.492326
0.435242 0.856049 0.492326
0.492218 0.863286 0.513013
0.596143 0.887420 0.541622
0.700070 0.913910 0.568101
0.806074 0.941089 0.595442
0.913599 0.968821 0.623571
0.980995 0.986293 0.641567
0.980995 0.986293 0.641567
0.014065 0.025572 0.120187
0.014065 0.025572 0.120187
0.040686 0.034424 0.128944
0.123242 0.061886 0.155980
0.218333 0.087063 0.189162
0.327214 0.109558 0.221646
0.448959 0.129487 0.252022
0.547707 0.142525 0.273091
0.547707 0.142525 0.273091
0.014065 0.025572 0.120187
0.014065 0.025572 0.120187
0.040686 0.034424 0.128944
0.123242 0.061886 0.155980
0.218333 0.087063 0.189162
0.327214 0.109558 0.221646
0.448959 0.129487 0.252022
0.547707 0.142525 0.273091
0.547707 0.142525 0.273091
0.052602 0.084642 0.157051
0.052602 0.084642 0.157051
0.081099 0.094670 0.164596
0.162556 0.123941 0.192897
0.254782 0.151624 0.226217
0.360314 0.176843 0.258449
0.478517 0.199593 0.288451
0.572826 0.214601 0.308856
0.572826 0.214601 0.308856
0.150351 0.234769 0.252368
0.150351 0.234769 0.252368
0.182607 0.244999 0.262419
0.265073 0.274581 0.291571
0.348736 0.305675 0.323242
0.444808 0.334656 0.352935
0.553417 0.361218 0.380164
0.637926 0.378545 0.397896
0.637926 0.378545 0.397896
0.241199 0.395250 0.351807
0.241199 0.395250 0.351807
0.279366 0.405141 0.364008
0.371393 0.432149 0.396971
0.456432 0.463441 0.429121
0.547603 0.494950 0.454594
0.651248 0.524113 0.476960
0.729509 0.542728 0.490747
0.729509 0.542728 0.490747
0.324209 0.564873 0.444633
0.324209 0.564873 0.444633
0.369074 0.574235 0.458909
0.471270 0.598502 0.495026
0.562714 0.628593 0.526275
0.654548 0.660026 0.556790
0.753540 0.691645 0.575012
0.825973 0.711364 0.585199
0.825973 0.711364 0.585199
0.399077 0.742867 0.528067
0.399077 0.742867 0.528067
0.451270 0.751546 0.544624
0.563776 0.773028 0.584187
0.661718 0.801895 0.615030
0.759427 0.832378 0.644582
0.858625 0.863447 0.674840
0.925308 0.884053 0.683305
0.925308 0.884053 0.683305
0.443619 0.864346 0.578433
0.443619 0.864346 0.578433
0.501115 0.871850 0.596608
0.619875 0.890316 0.638293
0.721459 0.917170 0.668717
0.822312 0.945806 0.697487
0.924612 0.975014 0.727084
0.988503 0.993344 0.745927
0.988503 0.993344 0.745927
0.443619 0.864346 0.578433
0.443619 0.864346 0.578433
0.501115 0.871850 0.596608
0.619875 0.890316 0.638293
0.721459 0.917170 0.668717
0.822312 0.945806 0.697487
0.924612 0.975014 0.727084
0.988503 0.993344 0.745927
0.988503 0.993344 0.745927
0.022788 0.033955 0.199937
0.022788 0.033955 0.199937
0.051278 0.042440 0.208418
0.138953 0.068569 0.234322
0.229751 0.095703 0.261513
0.336577 0.118412 0.298669
0.457885 0.137886 0.335563
0.555989 0.150547 0.361427
0.555989 0.150547 0.361427
0.022788 0.033955 0.199937
0.022788 0.033955 0.199937
0.051278 0.042440 0.208418
0.138953 0.068569 0.234322
0.229751 0.095703 0.261513
0.336577 0.118412 0.298669
0.457885 0.137886 0.335563
0.555989 0.150547 0.361427
0.555989 0.150547 0.361427
0.059720 0.094193 0.235534
0.059720 0.094193 0.235534
0.090300 0.104003 0.240718
0.176869 0.131997 0.267374
0.266358 0.161022 0.296208
0.370101 0.186356 0.333321
0.487847 0.208665 0.369764
0.581512 0.223308 0.394822
0.581512 0.223308 0.394822
0.152860 0.246339 0.326848
0.152860 0.246339 0.326848
0.187344 0.256328 0.334356
0.275351 0.285062 0.356281
0.360205 0.315980 0.386872
0.455175 0.344801 0.422070
0.563327 0.370923 0.455672
0.647226 0.387885 0.477872
0.647226 0.387885 0.477872
0.250070 0.405390 0.424006
0.250070 0.405390 0.424006
0.288839 0.415495 0.433951
0.381774 0.442905 0.460874
0.467682 0.474157 0.491474
0.553612 0.506575 0.523991
0.651848 0.536634 0.554019
0.726116 0.555808 0.573048
0.726116 0.555808 0.573048
0.333704 0.574425 0.522913
0.333704 0.574425 0.522913
0.379051 0.584050 0.534809
0.481743 0.608829 0.564966
0.577738 0.637360 0.598890
0.665077 0.669983 0.631495
0.758254 0.702649 0.657144
0.826543 0.722979 0.672524
0.826543 0.722979 0.672524
0.408164 0.752098 0.612837
0.408164 0.752098 0.612837
0.460878 0.761046 0.626896
0.573882 0.783039 0.660564
0.680534 0.808689 0.698309
0.774484 0.840068 0.730755
0.868329 0.872645 0.762577
0.931054 0.893863 0.775676
0.931054 0.893863 0.775676
0.452289 0.872938 0.667457
0.452289 0.872938 0.667457
0.510324 0.880720 0.683010
0.629560 0.899706 0.718786
0.742507 0.922286 0.758773
0.840026 0.951648 0.790869
0.936927 0.982382 0.821989
0.997221 1.000000 0.841704
0.997221 1.000000 0.841704
0.452289 0.872938 0.667457
0.452289 0.872938 0.667457
0.510324 0.880720 0.683010
0.629560 0.899706 0.718786
0.742507 0.922286 0.758773
0.840026 0.951648 0.790869
0.936927 0.982382 0.821989
0.997221 1.000000 0.841704
0.997221 1.000000 0.841704
0.030705 0.041532 0.294035
0.030705 0.041532 0.294035
0.061128 0.049636 0.302224
0.154023 0.074406 0.326968
0.250216 0.100134 0.352941
0.348490 0.126502 0.379788
0.466997 0.146466 0.420815
0.564445 0.158744 0.451533
0.564445 0.158744 0.451533
0.030705 0.041532 0.294035
0.030705 0.041532 0.294035
0.061128 0.049636 0.302224
0.154023 0.074406 0.326968
0.250216 0.100134 0.352941
0.348490 0.126502 0.379788
0.466997 0.146466 0.420815
0.564445 0.158744 0.451533
0.564445 0.158744 0.451533
0.065978 0.102970 0.328309
0.065978 0.102970 0.328309
0.098710 0.112555 0.331046
0.190491 0.139245 0.356017
0.285334 0.166889 0.383537
0.382158 0.195237 0.411918
0.497374 0.217935 0.452706
0.590384 0.232208 0.482472
0.590384 0.232208 0.482472
0.154417 0.257176 0.415520
0.154417 0.257176 0.415520
0.191204 0.266915 0.420394
0.284861 0.294783 0.434943
0.375101 0.324353 0.463722
0.467135 0.354602 0.494104
0.573446 0.380838 0.532672
0.656724 0.397431 0.559392
0.656724 0.397431 0.559392
0.246769 0.418354 0.508217
0.246769 0.418354 0.508217
0.287994 0.428184 0.515331
0.386580 0.454728 0.534813
0.478328 0.485085 0.557701
0.565473 0.517324 0.589021
0.662578 0.547214 0.624691
0.736261 0.566020 0.648098
0.736261 0.566020 0.648098
0.341926 0.584574 0.603193
0.341926 0.584574 0.603193
0.387937 0.594424 0.612589
0.491548 0.619615 0.636564
0.588490 0.648571 0.664117
0.676719 0.681154 0.695174
0.764465 0.714760 0.728193
0.828847 0.735628 0.748758
0.828847 0.735628 0.748758
0.417440 0.761527 0.699322
0.417440 0.761527 0.699322
0.470688 0.770751 0.710807
0.584199 0.793266 0.738469
0.691376 0.819456 0.770025
0.790041 0.849214 0.805366
0.879221 0.883027 0.839437
0.937939 0.904863 0.857227
0.937939 0.904863 0.857227
0.461142 0.881716 0.758264
0.461142 0.881716 0.758264
0.519730 0.889785 0.771115
0.639451 0.909302 0.800871
0.752899 0.932429 0.834654
0.857807 0.959106 0.872325
0.950460 0.990908 0.906113
1.000000 1.000000 0.926713
1.000000 1.000000 0.926713
0.461142 0.881716 0.758264
0.461142 0.881716 0.758264
0.519730 0.889785 0.771115
0.639451 0.909302 0.800871
0.752899 0.932429 0.834654
0.857807 0.959106 0.872325
0.950460 0.990908 0.906113
1.000000 1.000000 0.926713
1.000000 1.000000 0.926713
0.037726 0.048213 0.402626
0.037726 0.048213 0.402626
0.070136 0.055924 0.410512
0.168325 0.079315 0.434072
0.269989 0.103619 0.458804
0.373842 0.128534 0.484365
0.479345 0.153934 0.510579
0.573033 0.167074 0.542934
0.573033 0.167074 0.542934
0.037726 0.048213 0.402626
0.037726 0.048213 0.402626
0.070136 0.055924 0.410512
0.168325 0.079315 0.434072
0.269989 0.103619 0.458804
0.373842 0.128534 0.484365
0.479345 0.153934 0.510579
0.573033 0.167074 0.542934
0.573033 0.167074 0.542934
0.071293 0.110879 0.435529
0.071293 0.110879 0.435529
0.106237 0.120230 0.435742
0.203304 0.145600 0.458999
0.303575 0.171842 0.485179
0.405934 0.198761 0.512171
0.509847 0.226224 0.539787
0.599397 0.241254 0.571343
0.599397 0.241254 0.571343
0.154965 0.267173 0.518556
0.154965 0.267173 0.518556
0.194116 0.276654 0.520718
0.293503 0.303644 0.527780
0.389204 0.331847 0.554715
0.486774 0.360666 0.583642
0.585831 0.390055 0.613017
0.666372 0.407131 0.642023
0.666372 0.407131 0.642023
0.242389 0.430509 0.606705
0.242389 0.430509 0.606705
0.286136 0.440055 0.610907
0.390451 0.465721 0.622836
0.488121 0.495170 0.637896
0.580836 0.526014 0.667263
0.674873 0.557388 0.697905
0.746565 0.576395 0.724175
0.746565 0.576395 0.724175
0.332523 0.598927 0.696822
0.332523 0.598927 0.696822
0.381214 0.608467 0.703112
0.490554 0.632779 0.719528
0.593419 0.660828 0.739288
0.687687 0.692484 0.762419
0.776666 0.725909 0.794311
0.839819 0.746690 0.818360
0.839819 0.746690 0.818360
0.424938 0.771618 0.787629
0.424938 0.771618 0.787629
0.478912 0.781076 0.796426
0.593348 0.804010 0.817893
0.701480 0.830632 0.843066
0.801120 0.860831 0.871917
0.891203 0.894602 0.904515
0.946224 0.916976 0.926862
0.946224 0.916976 0.926862
0.470132 0.890635 0.850377
0.470132 0.890635 0.850377
0.529283 0.898997 0.860459
0.649495 0.919051 0.884118
0.763452 0.942735 0.911616
0.868878 0.969977 0.942895
0.964672 1.000000 0.978009
1.000000 1.000000 0.999868
1.000000 1.000000 0.999868
0.470132 0.890635 0.850377
0.470132 0.890635 0.850377
0.529283 0.898997 0.860459
0.649495 0.919051 0.884118
0.763452 0.942735 0.911616
0.868878 0.969977 0.942895
0.964672 1.000000 0.978009
1.000000 1.000000 0.999868
1.000000 1.000000 0.999868
0.042032 0.052285 0.486439
0.042032 0.052285 0.486439
0.075843 0.059703 0.493632
0.177627 0.082111 0.515541
0.282932 0.105419 0.538572
0.390420 0.129337 0.562403
0.499528 0.153748 0.586869
0.580398 0.171927 0.605147
0.580398 0.171927 0.605147
0.042032 0.052285 0.486439
0.042032 0.052285 0.486439
0.075843 0.059703 0.493632
0.177627 0.082111 0.515541
0.282932 0.105419 0.538572
0.390420 0.129337 0.562403
0.499528 0.153748 0.586869
0.580398 0.171927 0.605147
0.580398 0.171927 0.605147
0.074360 0.115771 0.516783
0.074360 0.115771 0.516783
0.110845 0.124942 0.514775
0.211443 0.149379 0.536065
0.315265 0.174652 0.560525
0.421167 0.200603 0.585770
0.528593 0.227105 0.611621
0.606806 0.246582 0.630579
0.606806 0.246582 0.630579
0.154781 0.273308 0.594255
0.154781 0.273308 0.594255
0.195548 0.282591 0.594148
0.298667 0.308954 0.595545
0.397848 0.336224 0.620538
0.498865 0.364089 0.647783
0.601338 0.392530 0.675462
0.673660 0.412802 0.695019
0.673660 0.412802 0.695019
0.239071 0.437829 0.676726
0.239071 0.437829 0.676726
0.284505 0.447159 0.678617
0.392450 0.472204 0.685048
0.493791 0.501024 0.694521
0.589875 0.530949 0.722019
0.687227 0.561391 0.751077
0.753698 0.582388 0.770973
0.753698 0.582388 0.770973
0.326243 0.607351 0.761148
0.326243 0.607351 0.761148
0.376689 0.616658 0.765104
0.489555 0.640355 0.776242
0.595983 0.667780 0.790667
0.693800 0.698813 0.808481
0.786012 0.731341 0.838693
0.846766 0.752977 0.859281
0.846766 0.752977 0.859281
0.415901 0.781052 0.846493
0.415901 0.781052 0.846493
0.471688 0.790261 0.852965
0.589545 0.812586 0.869412
0.701131 0.838591 0.889515
0.804208 0.868173 0.913318
0.897690 0.901331 0.940922
0.952949 0.923526 0.962266
0.952949 0.923526 0.962266
0.475292 0.895757 0.903205
0.475292 0.895757 0.903205
0.534801 0.904263 0.911352
0.655223 0.924560 0.930983
0.769388 0.948487 0.954415
0.875019 0.975969 0.981648
0.971013 1.000000 1.000000
1.000000 1.000000 1.000000
1.000000 1.000000 1.000000
0.475292 0.895757 0.903205
0.475292 0.895757 0.903205
0.534801 0.904263 0.911352
0.655223 0.924560 0.930983
0.769388 0.948487 0.954415
0.875019 0.975969 0.981648
0.971013 1.000000 1.000000
1.000000 1.000000 1.000000
1.000000 1.000000 1.000000
0.042032 0.052285 0.486439
0.042032 0.052285 0.486439
0.075843 0.059703 0.493632
0.177627 0.082111 0.515541
0.282932 0.105419 0.538572
0.390420 0.129337 0.562403
0.499528 0.153748 0.586869
0.580398 0.171927 0.605147
0.580398 0.171927 0.605147
0.042032 0.052285 0.486439
0.042032 0.052285 0.486439
0.075843 0.059703 0.493632
0.177627 0.082111 0.515541
0.282932 0.105419 0.538572
0.390420 0.129337 0.562403
0.499528 0.153748 0.586869
0.580398 0.171927 0.605147
0.580398 0.171927 0.605147
0.074360 0.115771 0.516783
0.074360 0.115771 0.516783
0.110845 0.124942 0.514775
0.211443 0.149379 0.536065
0.315265 0.174652 0.560525
0.421167 0.200603 0.585770
0.528593 0.227105 0.611621
0.606806 0.246582 0.630579
0.606806 0.246582 0.630579
0.154781 0.273308 0.594255
0.154781 0.273308 0.594255
0.195548 0.282591 0.594148
0.298667 0.308954 0.595545
0.397848 0.336224 0.620538
0.498865 0.364089 0.647783
0.601338 0.392530 0.675462
0.673660 0.412802 0.695019
0.673660 0.412802 0.695019
0.239071 0.437829 0.676726
0.239071 0.437829 0.676726
0.284505 0.447159 0.678617
0.392450 0.472204 0.685048
0.493791 0.501024 0.694521
0.589875 0.530949 0.722019
0.687227 0.561391 0.751077
0.753698 0.582388 0.770973
0.753698 0.582388 0.770973
0.326243 0.607351 0.761148
0.326243 0.607351 0.761148
0.376689 0.616658 0.765104
0.489555 0.640355 0.776242
0.595983 0.667780 0.790667
0.693800 0.698813 0.808481
0.786012 0.731341 0.838693
0.846766 0.752977 0.859281
0.846766 0.752977 0.859281
0.415901 0.781052 0.846493
0.415901 0.781052 0.846493
0.471688 0.790261 0.852965
0.589545 0.812586 0.869412
0.701131 0.838591 0.889515
0.804208 0.868173 0.913318
0.897690 0.901331 0.940922
0.952949 0.923526 0.962266
0.952949 0.923526 0.962266
0.475292 0.895757 0.903205
0.475292 0.895757 0.903205
0.534801 0.904263 0.911352
0.655223 0.924560 0.930983
0.769388 0.948487 0.954415
0.875019 0.975969 0.981648
0.971013 1.000000 1.000000
1.000000 1.000000 1.000000
1.000000 1.000000 1.000000
0.475292 0.895757 0.903205
0.475292 0.895757 0.903205
0.534801 0.904263 0.911352
0.655223 0.924560 0.930983
0.769388 0.948487 0.954415
0.875019 0.975969 0.981648
0.971013 1.000000 1.000000
1.000000 1.000000 1.000000
1.000000 1.000000 1.000000
