resources/luts/silver-fade.cube
TITLE "silver-fade"
LUT_3D_SIZE 16
DOMAIN_MIN 0 0 0
DOMAIN_MAX 1 1 1
0.039200 0.039600 0.041200
0.040048 0.040457 0.042092
0.061781 0.062412 0.064933
0.082728 0.083572 0.086949
0.103364 0.104419 0.108638
0.123799 0.125062 0.130115
0.144085 0.145556 0.151437
0.164254 0.165930 0.172634
0.184325 0.186206 0.193729
0.204313 0.206398 0.214737
0.224228 0.226516 0.235669
0.244080 0.246570 0.256533
0.263873 0.266566 0.277336
0.283614 0.286508 0.298084
0.303308 0.306403 0.318783
0.322957 0.326253 0.339435
0.061002 0.061624 0.064114
0.081964 0.082800 0.086146
0.102609 0.103656 0.107844
0.123050 0.124306 0.129328
0.143341 0.144804 0.150655
0.163514 0.165182 0.171856
0.183588 0.185462 0.192955
0.203579 0.205656 0.213966
0.223497 0.225777 0.234900
0.243350 0.245833 0.255766
0.263146 0.265831 0.276572
0.282889 0.285776 0.297322
0.302584 0.305672 0.318022
0.322235 0.325523 0.338676
0.341845 0.345334 0.359286
0.361417 0.365105 0.379857
0.101853 0.102893 0.107050
0.122301 0.123549 0.128541
0.142597 0.144052 0.149872
0.162774 0.164434 0.171078
0.182851 0.184717 0.192180
0.202845 0.204915 0.213194
0.222765 0.225038 0.234131
0.242621 0.245097 0.255000
0.262419 0.265096 0.275807
0.282163 0.285043 0.296560
0.301860 0.304941 0.317261
0.321513 0.324794 0.337917
0.341125 0.344605 0.358529
0.360698 0.364379 0.379101
0.380236 0.384116 0.399636
0.399740 0.403819 0.420135
0.141853 0.143300 0.149090
0.162033 0.163687 0.170300
0.182114 0.183972 0.191406
0.202111 0.204173 0.212422
0.222034 0.224299 0.233362
0.241892 0.244360 0.254233
0.261691 0.264361 0.275043
0.281438 0.284310 0.295797
0.301137 0.304209 0.316501
0.320791 0.324064 0.337158
0.340404 0.343877 0.357771
0.359979 0.363652 0.378345
0.379518 0.383390 0.398881
0.399023 0.403095 0.419381
0.418497 0.422767 0.439849
0.437941 0.442409 0.460284
0.181377 0.183228 0.190631
0.201376 0.203431 0.211651
0.221302 0.223560 0.232593
0.241162 0.243623 0.253466
0.260964 0.263627 0.274278
0.280712 0.283577 0.295034
0.300413 0.303478 0.315740
0.320068 0.323334 0.336398
0.339683 0.343149 0.357014
0.359259 0.362925 0.377589
0.378799 0.382665 0.398126
0.398306 0.402370 0.418628
0.417781 0.422044 0.439096
0.437226 0.441687 0.459533
0.456642 0.461302 0.479940
0.476031 0.480889 0.500319
0.220570 0.222821 0.231824
0.240432 0.242886 0.252699
0.260236 0.262892 0.273514
0.279987 0.282844 0.294272
0.299689 0.302747 0.314979
0.319346 0.322605 0.335639
0.338962 0.342421 0.356256
0.358540 0.362198 0.376832
0.378081 0.381939 0.397371
0.397589 0.401646 0.417874
0.417065 0.421321 0.438344
0.436511 0.440965 0.458782
0.455928 0.460581 0.479190
0.475319 0.480169 0.499570
0.494683 0.499731 0.519922
0.514023 0.519268 0.540248
0.259509 0.262157 0.272749
0.279261 0.282111 0.293509
0.298965 0.302015 0.314218
0.318624 0.321875 0.334880
0.338241 0.341693 0.355498
0.357820 0.361471 0.376076
0.377363 0.381214 0.396616
0.396872 0.400922 0.417120
0.416349 0.420598 0.437591
0.435796 0.440243 0.458031
0.455214 0.459860 0.478440
0.474606 0.479449 0.498820
0.493971 0.499012 0.519174
0.513312 0.518550 0.539501
0.532629 0.538064 0.559804
0.551923 0.557555 0.580082
0.298241 0.301284 0.313457
0.317901 0.321145 0.334121
0.337520 0.340964 0.354740
0.357100 0.360744 0.375320
0.376645 0.380488 0.395861
0.396155 0.400197 0.416367
0.415633 0.419874 0.436839
0.435081 0.439521 0.457279
0.454501 0.459138 0.477689
0.473893 0.478728 0.498071
0.493259 0.498292 0.518425
0.512601 0.517831 0.538754
0.531919 0.537346 0.559057
0.551214 0.556838 0.579337
0.570487 0.576308 0.599594
0.589739 0.595757 0.619828
0.336799 0.340236 0.353983
0.356381 0.360017 0.374563
0.375926 0.379762 0.395106
0.395438 0.399473 0.415613
0.414917 0.419151 0.436086
0.434366 0.438798 0.456528
0.453787 0.458417 0.476939
0.473180 0.478008 0.497322
0.492547 0.497573 0.517677
0.511890 0.517113 0.538006
0.531208 0.536629 0.558311
0.550504 0.556122 0.578591
0.569778 0.575592 0.598849
0.589032 0.595042 0.619084
0.608264 0.614471 0.639298
0.627478 0.633881 0.659492
0.375208 0.379036 0.394351
0.394720 0.398748 0.414859
0.414201 0.418427 0.435334
0.433651 0.438076 0.455776
0.453073 0.457696 0.476189
0.472467 0.477288 0.496572
0.491835 0.496854 0.516929
0.511178 0.516394 0.537259
0.530498 0.535911 0.557564
0.549795 0.555405 0.577845
0.569070 0.574876 0.598104
0.588324 0.594327 0.618340
0.607557 0.613757 0.638555
0.626771 0.633167 0.658750
0.645967 0.652558 0.678924
0.665144 0.671931 0.699080
0.413485 0.417704 0.434581
0.432936 0.437354 0.455025
0.452359 0.456975 0.475438
0.471754 0.476568 0.495823
0.491123 0.496134 0.516180
0.510467 0.515676 0.536511
0.529788 0.535194 0.556818
0.549085 0.554688 0.577100
0.568361 0.574161 0.597359
0.587616 0.593612 0.617596
0.606850 0.613042 0.637812
0.626065 0.632453 0.658007
0.645261 0.651845 0.678182
0.664439 0.671219 0.698339
0.683599 0.690574 0.718476
0.702742 0.709913 0.738596
0.451645 0.456253 0.474688
0.471041 0.475847 0.495073
0.490411 0.495415 0.515432
0.509756 0.514958 0.535764
0.529077 0.534476 0.556071
0.548376 0.553971 0.576354
0.567652 0.573445 0.596614
0.586908 0.592896 0.616852
0.606143 0.612328 0.637068
0.625358 0.631740 0.657264
0.644555 0.651132 0.677441
0.663734 0.670506 0.697597
0.682894 0.689863 0.717736
0.702038 0.709202 0.737856
0.721165 0.728524 0.757959
0.740276 0.747830 0.778045
0.489699 0.494696 0.514683
0.509045 0.514239 0.535016
0.528367 0.533758 0.555324
0.547666 0.553254 0.575608
0.566943 0.572729 0.595869
0.586200 0.592181 0.616108
0.605435 0.611613 0.636325
0.624652 0.631026 0.656522
0.643849 0.650419 0.676699
0.663028 0.669794 0.696856
0.682190 0.689151 0.716995
0.701334 0.708491 0.737116
0.720462 0.727813 0.757220
0.739573 0.747120 0.777307
0.758669 0.766411 0.797377
0.777750 0.785686 0.817431
0.527656 0.533041 0.554578
0.546956 0.552538 0.574862
0.566235 0.572012 0.595124
0.585492 0.591466 0.615364
0.604728 0.610899 0.635582
0.623945 0.630312 0.655779
0.643143 0.649706 0.675957
0.662323 0.669081 0.696115
0.681485 0.688439 0.716255
0.700630 0.707779 0.736376
0.719758 0.727103 0.756481
0.738871 0.746410 0.776568
0.757967 0.765702 0.796639
0.777049 0.784978 0.816694
0.796115 0.804239 0.836733
0.815167 0.823485 0.856757
0.565526 0.571296 0.594379
0.584783 0.590751 0.614619
0.604021 0.610184 0.634838
0.623239 0.629598 0.655036
0.642437 0.648993 0.675215
0.661618 0.668369 0.695374
0.680780 0.687727 0.715514
0.699926 0.707068 0.735637
0.719055 0.726392 0.755741
0.738168 0.745700 0.775829
0.757265 0.764992 0.795901
0.776347 0.784269 0.815956
0.795414 0.803530 0.835996
0.814467 0.822777 0.856021
0.833505 0.842010 0.876031
0.852530 0.861229 0.896027
0.603313 0.609470 0.634095
0.622532 0.628884 0.654294
0.641731 0.648280 0.674473
0.660912 0.667656 0.694632
0.680076 0.687015 0.714774
0.699222 0.706357 0.734897
0.718351 0.725682 0.755002
0.737465 0.744990 0.775091
0.756563 0.764283 0.795163
0.775645 0.783560 0.815219
0.794713 0.802822 0.835259
0.813766 0.822070 0.855285
0.832805 0.841303 0.875295
0.851830 0.860523 0.895291
0.870843 0.879729 0.915273
0.889842 0.898922 0.935242
0.039200 0.039600 0.041200
0.048529 0.049025 0.051005
0.069817 0.070529 0.073379
0.090625 0.091549 0.095248
0.111175 0.112310 0.116848
0.131549 0.132891 0.138261
0.151788 0.153337 0.159532
0.171917 0.173671 0.180688
0.191955 0.193914 0.201749
0.211914 0.214077 0.222726
0.231804 0.234170 0.243631
0.251633 0.254200 0.264471
0.271406 0.274175 0.285253
0.291128 0.294099 0.305982
0.310805 0.313976 0.326662
0.330438 0.333810 0.347297
0.069044 0.069749 0.072567
0.089864 0.090781 0.094449
0.110423 0.111549 0.116057
0.130802 0.132137 0.137476
0.151045 0.152586 0.158752
0.171178 0.172925 0.179912
0.191219 0.193171 0.200975
0.211181 0.213336 0.221956
0.231074 0.233432 0.242863
0.250904 0.253464 0.263705
0.270679 0.273441 0.284489
0.290404 0.293367 0.305220
0.310082 0.313246 0.325902
0.329717 0.333081 0.346539
0.349312 0.352876 0.367134
0.368870 0.372634 0.387690
0.109670 0.110789 0.115265
0.130055 0.131382 0.136690
0.150303 0.151836 0.157971
0.170439 0.172179 0.179135
0.190484 0.192427 0.200202
0.210448 0.212596 0.221185
0.230343 0.232693 0.242095
0.250176 0.252729 0.262940
0.269953 0.272707 0.283726
0.289679 0.292635 0.304458
0.309358 0.312515 0.325142
0.328995 0.332352 0.345780
0.348592 0.352149 0.366377
0.368151 0.371908 0.386935
0.387676 0.391632 0.407455
0.407168 0.411323 0.427942
0.149560 0.151086 0.157190
0.169700 0.171432 0.178358
0.189748 0.191684 0.199429
0.209715 0.211855 0.220415
0.229612 0.231955 0.241327
0.249447 0.251992 0.262174
0.269226 0.271973 0.282962
0.288954 0.291902 0.303696
0.308635 0.311784 0.324382
0.328273 0.331623 0.345022
0.347871 0.351421 0.365620
0.367432 0.371182 0.386179
0.386958 0.390907 0.406701
0.406451 0.410599 0.427189
0.425914 0.430260 0.447644
0.445346 0.449891 0.468068
0.189012 0.190940 0.198655
0.208982 0.211114 0.219644
0.228881 0.231217 0.240559
0.248718 0.251256 0.261408
0.268499 0.271239 0.282198
0.288229 0.291170 0.302935
0.307912 0.311054 0.323622
0.327552 0.330894 0.344263
0.347151 0.350694 0.364863
0.366713 0.370455 0.385423
0.386241 0.390182 0.405947
0.405735 0.409875 0.426436
0.425198 0.429537 0.446892
0.444632 0.449169 0.467317
0.464038 0.468773 0.487713
0.483417 0.488350 0.508081
0.228150 0.230478 0.239791
0.247990 0.250520 0.260642
0.267772 0.270505 0.281434
0.287504 0.290438 0.302173
0.307189 0.310323 0.322861
0.326830 0.330165 0.343505
0.346431 0.349966 0.364106
0.365994 0.369729 0.384668
0.385523 0.389457 0.405192
0.405018 0.409151 0.425682
0.424483 0.428814 0.446140
0.443918 0.448447 0.466566
0.463324 0.468052 0.486963
0.482705 0.487630 0.507332
0.502060 0.507183 0.527675
0.521390 0.526711 0.547992
0.267046 0.269771 0.280670
0.286779 0.289705 0.301411
0.306465 0.309592 0.322101
0.326108 0.329436 0.342746
0.345710 0.349238 0.363349
0.365275 0.369003 0.383912
0.384805 0.388732 0.404438
0.404302 0.408427 0.424929
0.423767 0.428091 0.445388
0.443203 0.447725 0.465815
0.462611 0.467331 0.486214
0.481992 0.486910 0.506584
0.501348 0.506464 0.526927
0.520680 0.525993 0.547245
0.539988 0.545498 0.567538
0.559274 0.564981 0.587808
0.305742 0.308862 0.321341
0.325386 0.328706 0.341987
0.344990 0.348510 0.362591
0.364556 0.368276 0.383156
0.384087 0.388006 0.403683
0.403585 0.407703 0.424176
0.423052 0.427368 0.444636
0.442488 0.447004 0.465064
0.461897 0.466611 0.485464
0.481280 0.486191 0.505835
0.500636 0.505745 0.526179
0.519969 0.525275 0.546498
0.539278 0.544781 0.566792
0.558565 0.564264 0.587063
0.577830 0.583726 0.607311
0.597074 0.603167 0.627537
0.344269 0.347782 0.361834
0.363837 0.367550 0.382400
0.383369 0.387281 0.402929
0.402868 0.406979 0.423423
0.422336 0.426645 0.443884
0.441774 0.446282 0.464313
0.461184 0.465890 0.484714
0.480567 0.485471 0.505086
0.499925 0.505026 0.525431
0.519258 0.524556 0.545751
0.538568 0.544063 0.566046
0.557855 0.563548 0.586317
0.577121 0.583010 0.606566
0.596367 0.602452 0.626794
0.615592 0.621874 0.647000
0.634799 0.641276 0.667186
0.382651 0.386556 0.402174
0.402151 0.406255 0.422669
0.421620 0.425922 0.443131
0.441059 0.445560 0.463562
0.460470 0.465169 0.483964
0.479854 0.484751 0.504337
0.499213 0.504307 0.524683
0.518547 0.523838 0.545004
0.537858 0.543346 0.565300
0.557146 0.562831 0.585572
0.576413 0.582295 0.605822
0.595659 0.601737 0.626050
0.614885 0.621160 0.646257
0.634092 0.640563 0.666444
0.653281 0.659947 0.686611
0.672451 0.679313 0.706760
0.420904 0.425199 0.442379
0.440345 0.444838 0.462811
0.459757 0.464448 0.483214
0.479142 0.484031 0.503588
0.498501 0.503588 0.523935
0.517836 0.523120 0.544256
0.537148 0.542629 0.564553
0.556437 0.562115 0.584827
0.575705 0.581579 0.605077
0.594951 0.601022 0.625306
0.614178 0.620446 0.645514
0.633386 0.639849 0.665702
0.652575 0.659234 0.685870
0.671746 0.678601 0.706019
0.690900 0.697950 0.726150
0.710036 0.717282 0.746263
0.459043 0.463727 0.482464
0.478429 0.483311 0.502839
0.497789 0.502869 0.523187
0.517125 0.522402 0.543509
0.536438 0.541912 0.563807
0.555728 0.561398 0.584081
0.574996 0.580863 0.604333
0.594244 0.600307 0.624562
0.613471 0.619731 0.644771
0.632680 0.639136 0.664959
0.651869 0.658521 0.685128
0.671041 0.677888 0.705278
0.690195 0.697238 0.725409
0.709333 0.716571 0.745523
0.728454 0.735887 0.765620
0.747559 0.755187 0.785699
0.497078 0.502150 0.522439
0.516414 0.521684 0.542762
0.535728 0.541194 0.563061
0.555018 0.560682 0.583336
0.574288 0.580148 0.603588
0.593536 0.599593 0.623818
0.612764 0.619017 0.644028
0.631973 0.638422 0.664217
0.651164 0.657808 0.684386
0.670336 0.677176 0.704537
0.689491 0.696527 0.724669
0.708629 0.715860 0.744783
0.727750 0.735176 0.764880
0.746856 0.754477 0.784961
0.765946 0.773762 0.805025
0.785021 0.793032 0.825073
0.535018 0.540477 0.562314
0.554309 0.559965 0.582590
0.573579 0.579432 0.602843
0.592828 0.598878 0.623075
0.612057 0.618303 0.643285
0.631267 0.637709 0.663475
0.650458 0.657095 0.683645
0.669631 0.676464 0.703796
0.688786 0.695815 0.723929
0.707925 0.715149 0.744044
0.727047 0.734466 0.764141
0.746153 0.753767 0.784222
0.765244 0.773053 0.804287
0.784320 0.792323 0.824336
0.803381 0.811579 0.844370
0.822428 0.830820 0.864388
0.572871 0.578716 0.602099
0.592120 0.598162 0.622331
0.611350 0.617588 0.642542
0.630561 0.636995 0.662732
0.649752 0.656382 0.682903
0.668926 0.675752 0.703055
0.688082 0.695103 0.723188
0.707221 0.714438 0.743304
0.726344 0.733756 0.763402
0.745451 0.753057 0.783484
0.764542 0.772343 0.803549
0.783618 0.791614 0.823599
0.802680 0.810870 0.843633
0.821727 0.830112 0.863652
0.840760 0.849340 0.883656
0.859780 0.868554 0.903647
0.610643 0.616874 0.641798
0.629854 0.636281 0.661990
0.649047 0.655670 0.682161
0.668221 0.675039 0.702314
0.687378 0.694392 0.722448
0.706517 0.713727 0.742564
0.725641 0.733045 0.762663
0.744748 0.752348 0.782745
0.763840 0.771634 0.802811
0.782917 0.790906 0.822861
0.801979 0.810162 0.842896
0.821027 0.829404 0.862916
0.840060 0.848633 0.882921
0.859081 0.867847 0.902911
0.878088 0.887048 0.922888
0.897082 0.906236 0.942852
0.039200 0.039600 0.041200
0.056734 0.057313 0.059629
0.077789 0.078582 0.081758
0.098485 0.099490 0.103509
0.118961 0.120175 0.125031
0.139280 0.140701 0.146386
0.159474 0.161102 0.167611
0.179567 0.181399 0.188729
0.199574 0.201610 0.209756
0.219505 0.221745 0.230705
0.239371 0.241814 0.251584
0.259178 0.261822 0.272401
0.278931 0.281777 0.293162
0.298636 0.301683 0.313872
0.318295 0.321543 0.334535
0.337913 0.341361 0.355154
0.077022 0.077808 0.080951
0.097728 0.098725 0.102714
0.118211 0.119417 0.124242
0.138535 0.139948 0.145603
0.158733 0.160353 0.166832
0.178829 0.180654 0.187953
0.198839 0.200868 0.208984
0.218773 0.221006 0.229935
0.238641 0.241076 0.250817
0.258450 0.261087 0.271636
0.278205 0.281044 0.292399
0.297911 0.300951 0.313111
0.317573 0.320813 0.333775
0.337192 0.340633 0.354396
0.356773 0.360414 0.374976
0.376318 0.380158 0.395518
0.117461 0.118659 0.123453
0.137789 0.139195 0.144819
0.157992 0.159604 0.166053
0.178092 0.179909 0.187178
0.198104 0.200126 0.208212
0.218041 0.220266 0.229166
0.237912 0.240339 0.250050
0.257722 0.260352 0.270871
0.277479 0.280311 0.291636
0.297187 0.300220 0.312350
0.316850 0.320083 0.333016
0.336471 0.339905 0.353638
0.356054 0.359687 0.374220
0.375600 0.379432 0.394763
0.395112 0.399143 0.415270
0.414592 0.418822 0.435744
0.157251 0.158855 0.165274
0.177354 0.179164 0.186403
0.197369 0.199383 0.207439
0.217309 0.219526 0.228396
0.237182 0.239602 0.249283
0.256995 0.259617 0.270106
0.276753 0.279577 0.290873
0.296463 0.299488 0.311589
0.316128 0.319353 0.332256
0.335750 0.339176 0.352880
0.355334 0.358960 0.373463
0.374881 0.378706 0.394008
0.394394 0.398419 0.414516
0.413875 0.418099 0.434991
0.433326 0.437748 0.455435
0.452748 0.457368 0.475848
0.196634 0.198641 0.206667
0.216577 0.218787 0.227626
0.236452 0.238864 0.248515
0.256267 0.258882 0.269341
0.276027 0.278844 0.290110
0.295739 0.298757 0.310828
0.315405 0.318623 0.331497
0.335029 0.338448 0.352122
0.354614 0.358232 0.372707
0.374163 0.377981 0.393253
0.393677 0.397694 0.413763
0.413159 0.417375 0.434239
0.432611 0.437025 0.454683
0.452034 0.456647 0.475097
0.471430 0.476240 0.495482
0.490799 0.495807 0.515840
0.235722 0.238127 0.247748
0.255539 0.258146 0.268576
0.275301 0.278111 0.289347
0.295014 0.298025 0.310066
0.314682 0.317893 0.330737
0.334308 0.337719 0.351364
0.353894 0.357505 0.371950
0.373444 0.377255 0.392497
0.392960 0.396969 0.413009
0.412443 0.416652 0.433486
0.431896 0.436303 0.453931
0.451320 0.455925 0.474347
0.470717 0.475520 0.494733
0.490087 0.495088 0.515092
0.509433 0.514631 0.535424
0.528754 0.534150 0.555732
0.274575 0.277377 0.288584
0.294290 0.297293 0.309305
0.313959 0.317163 0.329978
0.333586 0.336990 0.350606
0.353174 0.356778 0.371193
0.372725 0.376529 0.391742
0.392242 0.396245 0.412255
0.411727 0.415928 0.432733
0.431181 0.435581 0.453180
0.450606 0.455204 0.473596
0.470003 0.474799 0.493983
0.489375 0.494369 0.514343
0.508721 0.513912 0.534677
0.528044 0.533432 0.554985
0.547344 0.552929 0.575269
0.566621 0.572403 0.595530
0.313236 0.316433 0.329218
0.332865 0.336262 0.349848
0.352454 0.356051 0.370437
0.372007 0.375803 0.390987
0.391525 0.395520 0.411501
0.411011 0.415205 0.431980
0.430466 0.434858 0.452428
0.449892 0.454483 0.472845
0.469290 0.474079 0.493234
0.488663 0.493649 0.513594
0.508010 0.513194 0.533929
0.527333 0.532714 0.554238
0.546634 0.552212 0.574523
0.565912 0.571687 0.594785
0.585170 0.591141 0.615025
0.604407 0.610574 0.635244
0.351734 0.355323 0.369680
0.371288 0.375077 0.390231
0.390807 0.394795 0.410747
0.410294 0.414481 0.431228
0.429750 0.434136 0.451676
0.449178 0.453761 0.472095
0.468577 0.473359 0.492484
0.487950 0.492930 0.512846
0.507299 0.512475 0.533181
0.526623 0.531997 0.553491
0.545924 0.551495 0.573778
0.565203 0.570971 0.594040
0.584462 0.590425 0.614281
0.603699 0.609859 0.634500
0.622917 0.629274 0.654699
0.642116 0.648669 0.674877
0.390090 0.394070 0.409992
0.409578 0.413757 0.430475
0.429035 0.433413 0.450925
0.448463 0.453040 0.471344
0.467864 0.472638 0.491735
0.487238 0.492210 0.512097
0.506587 0.511757 0.532434
0.525912 0.531279 0.552745
0.545215 0.550778 0.573032
0.564495 0.570255 0.593295
0.583753 0.589710 0.613537
0.602992 0.609145 0.633757
0.622211 0.628560 0.653956
0.641410 0.647955 0.674135
0.660592 0.667333 0.694295
0.679755 0.686692 0.714437
0.428320 0.432691 0.450173
0.447749 0.452318 0.470593
0.467151 0.471918 0.490985
0.486526 0.491490 0.511349
0.505876 0.511038 0.531686
0.525202 0.530561 0.551998
0.544505 0.550061 0.572286
0.563786 0.569539 0.592550
0.583045 0.588995 0.612793
0.602284 0.608430 0.633013
0.621504 0.627846 0.653213
0.640704 0.647242 0.673393
0.659886 0.666620 0.693554
0.679051 0.685980 0.713696
0.698198 0.705322 0.733820
0.717328 0.724648 0.753927
0.466437 0.471197 0.490235
0.485814 0.490771 0.510600
0.505164 0.510319 0.530938
0.524491 0.529843 0.551251
0.543795 0.549344 0.571540
0.563077 0.568822 0.591805
0.582337 0.588279 0.612048
0.601577 0.607716 0.632270
0.620797 0.627132 0.652471
0.639998 0.646529 0.672651
0.659181 0.665907 0.692813
0.678346 0.685268 0.712955
0.697494 0.704611 0.733080
0.716625 0.723937 0.753187
0.735740 0.743247 0.773277
0.754839 0.762541 0.793351
0.504453 0.509600 0.530190
0.523781 0.529125 0.550504
0.543085 0.548627 0.570794
0.562368 0.568106 0.591060
0.581629 0.587564 0.611304
0.600870 0.607001 0.631526
0.620090 0.626418 0.651728
0.639292 0.645816 0.671909
0.658476 0.665195 0.692071
0.677641 0.684556 0.712215
0.696790 0.703900 0.732340
0.715921 0.723227 0.752448
0.735037 0.742537 0.772538
0.754136 0.761832 0.792613
0.773221 0.781111 0.812671
0.792290 0.800375 0.832713
0.542376 0.547910 0.570048
0.561659 0.567390 0.590315
0.580921 0.586848 0.610559
0.600162 0.606286 0.630783
0.619384 0.625704 0.650985
0.638586 0.645102 0.671167
0.657770 0.664482 0.691330
0.676936 0.683844 0.711474
0.696085 0.703188 0.731600
0.715218 0.722516 0.751708
0.734334 0.741827 0.771800
0.753434 0.761122 0.791874
0.772519 0.780402 0.811933
0.791589 0.799666 0.831976
0.810644 0.818916 0.852004
0.829686 0.838152 0.872017
0.580212 0.586133 0.609815
0.599455 0.605571 0.630039
0.618677 0.624990 0.650242
0.637880 0.644389 0.670425
0.657065 0.663770 0.690588
0.676232 0.683132 0.710733
0.695381 0.702477 0.730860
0.714514 0.721805 0.750969
0.733631 0.741117 0.771061
0.752731 0.760412 0.791136
0.771817 0.779693 0.811195
0.790888 0.798958 0.831239
0.809944 0.818208 0.851267
0.828986 0.837445 0.871281
0.848014 0.856667 0.891280
0.867029 0.875876 0.911265
0.617970 0.624276 0.649499
0.637174 0.643676 0.669683
0.656359 0.663057 0.689847
0.675527 0.682420 0.709992
0.694677 0.701766 0.730120
0.713811 0.721094 0.750229
0.732928 0.740407 0.770322
0.752029 0.759703 0.790398
0.771115 0.778984 0.810458
0.790186 0.798249 0.830502
0.809243 0.817500 0.850531
0.828285 0.836737 0.870545
0.847314 0.855960 0.890544
0.866329 0.875169 0.910530
0.885331 0.894365 0.930501
0.904321 0.913548 0.950460
0.043310 0.043752 0.045520
0.064821 0.065482 0.068128
0.085711 0.086586 0.090084
0.106313 0.107398 0.111738
0.126725 0.128018 0.133190
0.146993 0.148492 0.154492
0.167146 0.168852 0.175674
0.187204 0.189115 0.196756
0.207181 0.209295 0.217752
0.227087 0.229404 0.238673
0.246929 0.249449 0.259528
0.266715 0.269437 0.280323
0.286449 0.289372 0.301064
0.306136 0.309260 0.321756
0.325780 0.329104 0.342401
0.345383 0.348907 0.363004
0.084949 0.085815 0.089283
0.105559 0.106636 0.110945
0.125976 0.127262 0.132404
0.146249 0.147741 0.153711
0.166406 0.168104 0.174897
0.186468 0.188371 0.195982
0.206448 0.208554 0.216981
0.226356 0.228666 0.237905
0.246201 0.248713 0.258762
0.265988 0.268702 0.279559
0.285724 0.288640 0.300302
0.305413 0.308529 0.320995
0.325058 0.328375 0.341642
0.344662 0.348179 0.362247
0.364229 0.367946 0.382812
0.383761 0.387677 0.403340
0.125228 0.126506 0.131617
0.145505 0.146990 0.152929
0.165667 0.167357 0.174119
0.185731 0.187627 0.195208
0.205714 0.207813 0.216210
0.225625 0.227927 0.237136
0.245472 0.247976 0.257996
0.265261 0.267968 0.278795
0.284999 0.287907 0.299540
0.304689 0.307798 0.320235
0.324336 0.327645 0.340884
0.343942 0.347451 0.361490
0.363510 0.367219 0.382056
0.383043 0.386951 0.402586
0.402542 0.406650 0.423080
0.422011 0.426317 0.443542
0.164927 0.166610 0.173341
0.184995 0.186883 0.194433
0.204980 0.207072 0.215438
0.224893 0.227188 0.236367
0.244742 0.247240 0.257229
0.264534 0.267233 0.278031
0.284274 0.287174 0.298777
0.303966 0.307067 0.319474
0.323614 0.326916 0.340125
0.343221 0.346723 0.360733
0.362791 0.366493 0.381300
0.382325 0.386226 0.401831
0.401826 0.405926 0.422327
0.421295 0.425594 0.442790
0.440734 0.445232 0.463221
0.460146 0.464841 0.483623
0.204246 0.206330 0.214667
0.224162 0.226449 0.235599
0.244013 0.246503 0.256463
0.263807 0.266499 0.277266
0.283548 0.286442 0.298015
0.303242 0.306336 0.318714
0.322892 0.326187 0.339366
0.342501 0.345995 0.359975
0.362071 0.365766 0.380544
0.381607 0.385501 0.401077
0.401109 0.405202 0.421573
0.420579 0.424871 0.442037
0.440020 0.444510 0.462470
0.459432 0.464120 0.482873
0.478818 0.483704 0.503247
0.498178 0.503261 0.523595
0.243284 0.245766 0.255696
0.263080 0.265764 0.276502
0.282823 0.285709 0.297253
0.302518 0.305605 0.317953
0.322170 0.325457 0.338607
0.341780 0.345267 0.359218
0.361352 0.365039 0.379788
0.380889 0.384775 0.400322
0.400392 0.404477 0.420820
0.419863 0.424148 0.441285
0.439305 0.443788 0.461719
0.458719 0.463399 0.482123
0.478105 0.482984 0.502498
0.497466 0.502542 0.522847
0.516802 0.522076 0.543170
0.536115 0.541586 0.563468
0.282098 0.284976 0.296490
0.301795 0.304874 0.317192
0.321447 0.324727 0.337848
0.341059 0.344539 0.358460
0.360633 0.364313 0.379032
0.380171 0.384050 0.399567
0.399675 0.403753 0.420066
0.419148 0.423425 0.440533
0.438590 0.443066 0.460967
0.458005 0.462678 0.481372
0.477392 0.482264 0.501749
0.496754 0.501823 0.522099
0.516091 0.521357 0.542422
0.535405 0.540868 0.562721
0.554696 0.560356 0.582997
0.573966 0.579822 0.603250
0.320725 0.323998 0.337089
0.340338 0.343811 0.357702
0.359913 0.363586 0.378276
0.379452 0.383324 0.398812
0.398958 0.403029 0.419313
0.418432 0.422701 0.439780
