resources/luts/soft-matte.cube
TITLE "soft-matte"
LUT_3D_SIZE 6
DOMAIN_MIN 0 0 0
DOMAIN_MAX 1 1 1
0.087826 0.087826 0.087826
0.266186 0.090711 0.090711
0.437915 0.093588 0.093588
0.606547 0.096458 0.096458
0.773127 0.099320 0.099320
0.938171 0.102176 0.102176
0.093483 0.268781 0.093483
0.271474 0.271474 0.096353
0.443082 0.274166 0.099215
0.611641 0.276857 0.102071
0.778167 0.279546 0.104921
0.943171 0.282234 0.107765
0.099110 0.442986 0.099110
0.276758 0.445617 0.101966
0.448247 0.448247 0.104816
0.616733 0.450876 0.107661
0.783207 0.453505 0.110499
0.948169 0.456134 0.113332
0.104712 0.614044 0.104712
0.282036 0.616637 0.107556
0.453409 0.619230 0.110395
0.621822 0.621822 0.113228
0.788245 0.624414 0.116057
0.953166 0.627006 0.118880
0.110291 0.783018 0.110291
0.287309 0.785584 0.113124
0.458568 0.788150 0.115953
0.626910 0.790716 0.118776
0.793281 0.793281 0.121595
0.958163 0.795846 0.124410
0.115849 0.950434 0.115849
0.292578 0.952979 0.118673
0.463724 0.955524 0.121492
0.631997 0.958069 0.124307
0.798316 0.960613 0.127117
0.963158 0.963158 0.129924
0.088927 0.088927 0.264518
0.267213 0.091809 0.267213
0.438919 0.094683 0.269907
0.607537 0.097550 0.272600
0.774106 0.100410 0.275291
0.939142 0.103264 0.277981
0.094578 0.269808 0.269808
0.272501 0.272501 0.272501
0.444086 0.275192 0.275192
0.612630 0.277882 0.277882
0.779146 0.280571 0.280571
0.944141 0.283258 0.283258
0.100200 0.443989 0.275093
0.277783 0.446619 0.277783
0.449250 0.449250 0.280472
0.617721 0.451879 0.283159
0.784185 0.454508 0.285846
0.949140 0.457135 0.288531
0.105797 0.615033 0.280373
0.283060 0.617626 0.283060
0.454411 0.620218 0.285747
0.622811 0.622811 0.288432
0.789223 0.625402 0.291116
0.954137 0.627994 0.293798
0.111372 0.783996 0.285648
0.288333 0.786563 0.288333
0.459569 0.789129 0.291017
0.627898 0.791694 0.293700
0.794259 0.794259 0.296381
0.959133 0.796824 0.299062
0.116926 0.951404 0.290918
0.293601 0.953949 0.293601
0.464726 0.956494 0.296283
0.632984 0.959039 0.298963
0.799294 0.961583 0.301642
0.964128 0.964128 0.304320
0.090027 0.090027 0.434657
0.268241 0.092906 0.437290
0.439923 0.095777 0.439923
0.608526 0.098641 0.442554
0.775085 0.101499 0.445185
0.940113 0.104350 0.447816
0.095672 0.270835 0.439826
0.273527 0.273527 0.442458
0.445089 0.276218 0.445089
0.613619 0.278907 0.447719
0.780125 0.281596 0.450349
0.945112 0.284282 0.452978
0.101289 0.444992 0.444992
0.278808 0.447622 0.447622
0.450252 0.450252 0.450252
0.618710 0.452881 0.452881
0.785164 0.455510 0.455510
0.950110 0.458137 0.458137
0.106881 0.616021 0.450155
0.284085 0.618614 0.452784
0.455413 0.621207 0.455413
0.623799 0.623799 0.458041
0.790201 0.626390 0.460668
0.955107 0.628982 0.463294
0.112452 0.784975 0.455316
0.289357 0.787541 0.457944
0.460571 0.790107 0.460571
0.628886 0.792672 0.463197
0.795237 0.795237 0.465823
0.960103 0.797802 0.468448
0.118002 0.952375 0.460474
0.294624 0.954920 0.463101
0.465727 0.957465 0.465727
0.633972 0.960009 0.468352
0.800272 0.962554 0.470976
0.965098 0.965098 0.473600
0.091125 0.091125 0.601730
0.269268 0.094002 0.604325
0.440926 0.096870 0.606920
0.609515 0.099732 0.609515
0.776064 0.102587 0.612109
0.941084 0.105435 0.614703
0.096765 0.271862 0.606825
0.274553 0.274553 0.609420
0.446092 0.277243 0.612014
0.614608 0.279932 0.614608
0.781104 0.282620 0.617201
0.946083 0.285307 0.619794
0.102377 0.445995 0.611918
0.279833 0.448625 0.614512
0.451255 0.451255 0.617105
0.619698 0.453883 0.619698
0.786142 0.456512 0.622291
0.951081 0.459139 0.624882
0.107965 0.617010 0.617010
0.285109 0.619603 0.619603
0.456415 0.622195 0.622195
0.624787 0.624787 0.624787
0.791179 0.627378 0.627378
0.956077 0.629969 0.629969
0.113531 0.785953 0.622100
0.290380 0.788519 0.624692
0.461572 0.791085 0.627283
0.629874 0.793650 0.629874
0.796215 0.796215 0.632465
0.961073 0.798780 0.635055
0.119078 0.953345 0.627188
0.295646 0.955890 0.629779
0.466728 0.958435 0.632369
0.634959 0.960979 0.634959
0.801249 0.963524 0.637549
0.966067 0.966067 0.640138
0.092223 0.092223 0.766770
0.270295 0.095096 0.769339
0.441929 0.097962 0.771907
0.610504 0.100821 0.774475
0.777043 0.103673 0.777043
0.942055 0.106520 0.779610
0.097857 0.272888 0.771813
0.275579 0.275579 0.774381
0.447095 0.278269 0.776948
0.615596 0.280957 0.779515
0.782082 0.283645 0.782082
0.947054 0.286331 0.784649
0.103464 0.446998 0.776854
0.280858 0.449628 0.779421
0.452257 0.452257 0.781988
0.620687 0.454885 0.784554
0.787120 0.457513 0.787120
0.952051 0.460141 0.789686
0.109047 0.617999 0.781893
0.286133 0.620591 0.784460
0.457417 0.623183 0.787026
0.625775 0.625775 0.789592
0.792157 0.628366 0.792157
0.957048 0.630957 0.794722
0.114610 0.786932 0.786932
0.291403 0.789498 0.789498
0.462574 0.792063 0.792063
0.630862 0.794628 0.794628
0.797193 0.797193 0.797193
0.962043 0.799757 0.799757
0.120153 0.954315 0.791969
0.296668 0.956860 0.794534
0.467728 0.959405 0.797098
0.635947 0.961949 0.799663
0.802227 0.964493 0.802227
0.967037 0.967037 0.804791
0.093319 0.093319 0.930290
0.271321 0.096190 0.932838
0.442933 0.099053 0.935385
0.611493 0.101909 0.937932
0.778021 0.104759 0.940479
0.943026 0.107604 0.943026
0.098947 0.273914 0.935292
0.276605 0.276605 0.937839
0.448097 0.279294 0.940386
0.616585 0.281982 0.942932
0.783061 0.284669 0.945478
0.948024 0.287354 0.948024
0.104550 0.448001 0.940292
0.281883 0.450630 0.942838
0.453259 0.453259 0.945385
0.621675 0.455888 0.947931
0.788099 0.458515 0.950476
0.953022 0.461142 0.953022
0.110129 0.618987 0.945291
0.287157 0.621580 0.947837
0.458418 0.624172 0.950383
0.626763 0.626763 0.952928
0.793135 0.629354 0.955473
0.958018 0.631945 0.958018
0.115688 0.787910 0.950289
0.292426 0.790476 0.952834
0.463575 0.793041 0.955379
0.631849 0.795606 0.957924
0.798171 0.798171 0.960469
0.963013 0.800735 0.963013
0.121228 0.955286 0.955286
0.297690 0.957831 0.957831
0.468729 0.960375 0.960375
0.636934 0.962919 0.962919
0.803204 0.965463 0.965463
0.968007 0.968007 0.968007
