resources/luts/soft-matte.cube
TITLE "soft-matte"
LUT_3D_SIZE 16
DOMAIN_MIN 0 0 0
DOMAIN_MAX 1 1 1
0.087826 0.087826 0.087826
0.148629 0.088789 0.088789
0.207857 0.089750 0.089750
0.266186 0.090711 0.090711
0.323885 0.091671 0.091671
0.381097 0.092630 0.092630
0.437915 0.093588 0.093588
0.494401 0.094546 0.094546
0.550600 0.095502 0.095502
0.606547 0.096458 0.096458
0.662270 0.097413 0.097413
0.717791 0.098367 0.098367
0.773127 0.099320 0.099320
0.828294 0.100273 0.100273
0.883305 0.101225 0.101225
0.938171 0.102176 0.102176
0.089715 0.149522 0.089715
0.150448 0.150448 0.090676
0.209642 0.151374 0.091636
0.267949 0.152300 0.092595
0.325631 0.153225 0.093553
0.382831 0.154151 0.094511
0.439638 0.155075 0.095467
0.496114 0.156000 0.096423
0.552305 0.156924 0.097378
0.608245 0.157848 0.098332
0.663962 0.158771 0.099285
0.719476 0.159695 0.100238
0.774807 0.160617 0.101190
0.829969 0.161540 0.102141
0.884976 0.162462 0.103092
0.939838 0.163384 0.104042
0.091601 0.209609 0.091601
0.152266 0.210518 0.092560
0.211427 0.211427 0.093518
0.269712 0.212336 0.094475
0.327378 0.213244 0.095432
0.384564 0.214153 0.096388
0.441360 0.215061 0.097343
0.497827 0.215969 0.098297
0.554010 0.216877 0.099250
0.609943 0.217784 0.100203
0.665653 0.218692 0.101155
0.721162 0.219599 0.102106
0.776487 0.220506 0.103057
0.831645 0.221413 0.104007
0.886647 0.222319 0.104956
0.941504 0.223226 0.105905
0.093483 0.268781 0.093483
0.154083 0.269679 0.094440
0.213211 0.270577 0.095397
0.271474 0.271474 0.096353
0.329124 0.272372 0.097308
0.386297 0.273269 0.098262
0.443082 0.274166 0.099215
0.499540 0.275063 0.100168
0.555715 0.275960 0.101120
0.611641 0.276857 0.102071
0.667344 0.277753 0.103022
0.722847 0.278649 0.103972
0.778167 0.279546 0.104921
0.833320 0.280442 0.105870
0.888317 0.281338 0.106818
0.943171 0.282234 0.107765
0.095362 0.327312 0.095362
0.155898 0.328202 0.096317
0.214994 0.329091 0.097272
0.273236 0.329980 0.098227
0.330869 0.330869 0.099180
0.388030 0.331758 0.100133
0.444804 0.332647 0.101085
0.501253 0.333536 0.102036
0.557420 0.334424 0.102987
0.613338 0.335313 0.103937
0.669035 0.336201 0.104886
0.724533 0.337089 0.105835
0.779847 0.337977 0.106783
0.834995 0.338865 0.107730
0.889988 0.339753 0.108677
0.944837 0.340641 0.109623
0.097237 0.385350 0.097237
0.157712 0.386232 0.098192
0.216776 0.387115 0.099145
0.274997 0.387997 0.100098
0.332614 0.388880 0.101050
0.389762 0.389762 0.102001
0.446526 0.390644 0.102952
0.502965 0.391526 0.103902
0.559124 0.392408 0.104851
0.615035 0.393290 0.105800
0.670726 0.394172 0.106748
0.726218 0.395054 0.107695
0.781527 0.395935 0.108642
0.836670 0.396817 0.109588
0.891658 0.397698 0.110534
0.946503 0.398580 0.111479
0.099110 0.442986 0.099110
0.159525 0.443863 0.100063
0.218558 0.444740 0.101015
0.276758 0.445617 0.101966
0.334359 0.446493 0.102917
0.391494 0.447370 0.103867
0.448247 0.448247 0.104816
0.504677 0.449123 0.105765
0.560828 0.450000 0.106713
0.616733 0.450876 0.107661
0.672417 0.451753 0.108607
0.727902 0.452629 0.109554
0.783207 0.453505 0.110499
0.838345 0.454382 0.111444
0.893328 0.455258 0.112389
0.948169 0.456134 0.113332
0.100980 0.500284 0.100980
0.161336 0.501157 0.101931
0.220339 0.502029 0.102882
0.278518 0.502901 0.103832
0.336103 0.503773 0.104782
0.393225 0.504645 0.105730
0.449968 0.505517 0.106678
0.506389 0.506389 0.107626
0.562532 0.507261 0.108573
0.618429 0.508133 0.109519
0.674107 0.509004 0.110464
0.729587 0.509876 0.111409
0.784886 0.510748 0.112354
0.840019 0.511619 0.113298
0.894998 0.512491 0.114241
0.949835 0.513362 0.115184
0.102847 0.557292 0.102847
0.163147 0.558160 0.103797
0.222119 0.559028 0.104747
0.280277 0.559896 0.105695
0.337847 0.560764 0.106644
0.394956 0.561632 0.107591
0.451688 0.562500 0.108538
0.508101 0.563368 0.109484
0.564236 0.564236 0.110430
0.620126 0.565103 0.111375
0.675798 0.565971 0.112319
0.731272 0.566838 0.113263
0.786566 0.567706 0.114206
0.841694 0.568573 0.115149
0.896668 0.569441 0.116091
0.951501 0.570308 0.117033
0.104712 0.614044 0.104712
0.164956 0.614908 0.105661
0.223898 0.615773 0.106609
0.282036 0.616637 0.107556
0.339590 0.617501 0.108503
0.396687 0.618366 0.109449
0.453409 0.619230 0.110395
0.509812 0.620094 0.111340
0.565939 0.620958 0.112284
0.621822 0.621822 0.113228
0.677488 0.622686 0.114172
0.732956 0.623550 0.115114
0.788245 0.624414 0.116057
0.843368 0.625278 0.116998
0.898338 0.626142 0.117940
0.953166 0.627006 0.118880
0.106574 0.670568 0.106574
0.166764 0.671429 0.107521
0.225677 0.672290 0.108468
0.283794 0.673151 0.109414
0.341333 0.674012 0.110360
0.398418 0.674873 0.111305
0.455129 0.675734 0.112250
0.511523 0.676595 0.113194
0.567642 0.677456 0.114137
0.623519 0.678317 0.115080
0.679178 0.679178 0.116022
0.734640 0.680039 0.116964
0.789924 0.680899 0.117905
0.845042 0.681760 0.118846
0.900008 0.682620 0.119786
0.954832 0.683481 0.120725
0.108433 0.726886 0.108433
0.168571 0.727745 0.109380
0.227455 0.728603 0.110325
0.285552 0.729461 0.111270
0.343075 0.730319 0.112215
0.400148 0.731177 0.113159
0.456848 0.732035 0.114102
0.513234 0.732893 0.115045
0.569345 0.733751 0.115987
0.625215 0.734609 0.116929
0.680868 0.735467 0.117870
0.736324 0.736324 0.118811
0.791603 0.737182 0.119751
0.846716 0.738040 0.120691
0.901677 0.738898 0.121630
0.956497 0.739755 0.122569
0.110291 0.783018 0.110291
0.170377 0.783873 0.111236
0.229232 0.784729 0.112180
0.287309 0.785584 0.113124
0.344818 0.786440 0.114068
0.401877 0.787295 0.115010
0.458568 0.788150 0.115953
0.514944 0.789006 0.116894
0.571048 0.789861 0.117836
0.626910 0.790716 0.118776
0.682557 0.791571 0.119717
0.738008 0.792426 0.120656
0.793281 0.793281 0.121595
0.848390 0.794136 0.122534
0.903347 0.794991 0.123472
0.958163 0.795846 0.124410
0.112145 0.838978 0.112145
0.172182 0.839831 0.113089
0.231009 0.840684 0.114033
0.289066 0.841537 0.114976
0.346559 0.842390 0.115918
0.403607 0.843242 0.116860
0.460287 0.844095 0.117801
0.516655 0.844948 0.118742
0.572750 0.845801 0.119682
0.628606 0.846653 0.120622
0.684247 0.847506 0.121561
0.739692 0.848359 0.122500
0.794960 0.849211 0.123438
0.850064 0.850064 0.124376
0.905016 0.850916 0.125313
0.959828 0.851769 0.126250
0.113998 0.894779 0.113998
0.173986 0.895630 0.114941
0.232785 0.896481 0.115883
0.290823 0.897331 0.116825
0.348300 0.898182 0.117766
0.405336 0.899032 0.118707
0.462006 0.899883 0.119647
0.518365 0.900733 0.120587
0.574453 0.901584 0.121526
0.630302 0.902434 0.122465
0.685936 0.903284 0.123403
0.741376 0.904135 0.124341
0.796638 0.904985 0.125278
0.851737 0.905835 0.126215
0.906685 0.906685 0.127152
0.961493 0.907536 0.128087
0.115849 0.950434 0.115849
0.175789 0.951282 0.116791
0.234560 0.952131 0.117732
0.292578 0.952979 0.118673
0.350041 0.953827 0.119613
0.407065 0.954676 0.120553
0.463724 0.955524 0.121492
0.520074 0.956372 0.122431
0.576155 0.957221 0.123369
0.631997 0.958069 0.124307
0.687625 0.958917 0.125244
0.743059 0.959765 0.126181
0.798316 0.960613 0.127117
0.853411 0.961462 0.128053
0.908354 0.962310 0.128989
0.963158 0.963158 0.129924
0.088193 0.088193 0.148055
0.148982 0.089155 0.148982
0.208203 0.090117 0.149909
0.266529 0.091077 0.150835
0.324224 0.092037 0.151761
0.381434 0.092996 0.152687
0.438250 0.093953 0.153612
0.494734 0.094911 0.154537
0.550931 0.095867 0.155462
0.606877 0.096822 0.156386
0.662599 0.097777 0.157310
0.718118 0.098731 0.158234
0.773453 0.099684 0.159157
0.828619 0.100636 0.160080
0.883629 0.101588 0.161003
0.938495 0.102539 0.161926
0.090081 0.149875 0.149875
0.150801 0.150801 0.150801
0.209989 0.151727 0.151727
0.268292 0.152653 0.152653
0.325971 0.153578 0.153578
0.383168 0.154503 0.154503
0.439972 0.155428 0.155428
0.496447 0.156352 0.156352
0.552636 0.157276 0.157276
0.608575 0.158200 0.158200
0.664290 0.159123 0.159123
0.719804 0.160046 0.160046
0.775133 0.160969 0.160969
0.830295 0.161892 0.161892
0.885300 0.162814 0.162814
0.940161 0.163736 0.163736
0.091966 0.209955 0.151693
0.152619 0.210864 0.152619
0.211773 0.211773 0.153544
0.270054 0.212682 0.154469
0.327717 0.213591 0.155394
0.384901 0.214499 0.156318
0.441695 0.215407 0.157242
0.498160 0.216315 0.158166
0.554341 0.217223 0.159089
0.610273 0.218130 0.160013
0.665982 0.219037 0.160935
0.721489 0.219945 0.161858
0.776814 0.220852 0.162780
0.831970 0.221758 0.163702
0.886971 0.222665 0.164623
0.941828 0.223571 0.165545
0.093848 0.269124 0.153510
0.154435 0.270021 0.154435
0.213557 0.270919 0.155360
0.271817 0.271817 0.156284
0.329463 0.272714 0.157208
0.386634 0.273611 0.158132
0.443417 0.274508 0.159055
0.499873 0.275405 0.159979
0.556046 0.276302 0.160901
0.611970 0.277198 0.161824
0.667673 0.278095 0.162746
0.723175 0.278991 0.163668
0.778494 0.279887 0.164590
0.833645 0.280783 0.165511
0.888642 0.281679 0.166432
0.943494 0.282575 0.167353
0.095726 0.327651 0.155326
0.156250 0.328541 0.156250
0.215340 0.329430 0.157174
0.273578 0.330319 0.158098
0.331208 0.331208 0.159021
0.388366 0.332097 0.159945
0.445139 0.332986 0.160867
0.501585 0.333874 0.161790
0.557751 0.334763 0.162712
0.613668 0.335651 0.163634
0.669364 0.336540 0.164556
0.724860 0.337428 0.165477
0.780174 0.338316 0.166398
0.835320 0.339204 0.167319
0.890312 0.340092 0.168239
0.945160 0.340980 0.169159
0.097601 0.385686 0.157140
0.158064 0.386569 0.158064
0.217122 0.387451 0.158988
0.275339 0.388334 0.159911
0.332953 0.389216 0.160833
0.390098 0.390098 0.161756
0.446860 0.390980 0.162678
0.503298 0.391862 0.163600
0.559455 0.392744 0.164522
0.615365 0.393626 0.165443
0.671055 0.394508 0.166364
0.726545 0.395390 0.167285
0.781853 0.396271 0.168205
0.836995 0.397153 0.169125
0.891982 0.398034 0.170045
0.946827 0.398916 0.170965
0.099473 0.443320 0.158954
0.159877 0.444197 0.159877
0.218904 0.445074 0.160800
0.277099 0.445951 0.161722
0.334698 0.446828 0.162644
0.391830 0.447704 0.163566
0.448581 0.448581 0.164488
0.505010 0.449458 0.165409
0.561159 0.450334 0.166330
0.617062 0.451211 0.167251
0.672745 0.452087 0.168171
0.728230 0.452963 0.169092
0.783533 0.453839 0.170011
0.838670 0.454716 0.170931
0.893653 0.455592 0.171850
0.948493 0.456468 0.172769
0.101343 0.500617 0.160766
0.161688 0.501489 0.161688
0.220685 0.502361 0.162610
0.278859 0.503233 0.163532
0.336442 0.504106 0.164454
0.393561 0.504978 0.165375
0.450302 0.505850 0.166296
0.506721 0.506721 0.167217
0.562863 0.507593 0.168137
0.618759 0.508465 0.169058
0.674436 0.509337 0.169978
0.729914 0.510208 0.170897
0.785212 0.511080 0.171816
0.840344 0.511951 0.172736
0.895323 0.512823 0.173654
0.950158 0.513694 0.174573
0.103210 0.557623 0.162576
0.163498 0.558491 0.163498
0.222465 0.559359 0.164420
0.280619 0.560227 0.165341
0.338185 0.561095 0.166262
0.395292 0.561963 0.167183
0.452022 0.562831 0.168104
0.508433 0.563699 0.169024
0.564566 0.564566 0.169944
0.620455 0.565434 0.170863
0.676126 0.566302 0.171783
0.731599 0.567169 0.172702
0.786892 0.568037 0.173621
0.842019 0.568904 0.174539
0.896993 0.569772 0.175457
0.951824 0.570639 0.176375
0.105074 0.614373 0.164386
0.165307 0.615238 0.165307
0.224244 0.616102 0.166229
0.282377 0.616967 0.167149
0.339929 0.617831 0.168070
0.397023 0.618695 0.168990
0.453743 0.619559 0.169910
0.510144 0.620424 0.170830
0.566270 0.621288 0.171749
0.622152 0.622152 0.172668
0.677816 0.623016 0.173587
0.733283 0.623880 0.174505
0.788571 0.624744 0.175423
0.843693 0.625608 0.176341
0.898662 0.626471 0.177259
0.953490 0.627335 0.178177
0.106935 0.670896 0.166195
0.167115 0.671757 0.167115
0.226023 0.672619 0.168036
0.284136 0.673480 0.168956
0.341671 0.674341 0.169876
0.398754 0.675202 0.170796
0.455463 0.676063 0.171715
0.511855 0.676924 0.172634
0.567973 0.677784 0.173553
0.623848 0.678645 0.174471
0.679506 0.679506 0.175390
0.734967 0.680367 0.176308
0.790250 0.681227 0.177225
0.845367 0.682088 0.178143
0.900332 0.682949 0.179060
0.955155 0.683809 0.179977
0.108794 0.727214 0.168002
0.168922 0.728072 0.168922
0.227800 0.728930 0.169842
0.285893 0.729788 0.170762
0.343414 0.730646 0.171681
0.400484 0.731504 0.172600
0.457182 0.732362 0.173519
0.513566 0.733220 0.174438
0.569676 0.734078 0.175356
0.625544 0.734936 0.176274
0.681196 0.735794 0.177192
0.736652 0.736652 0.178109
0.791929 0.737509 0.179026
0.847041 0.738367 0.179943
0.902002 0.739225 0.180860
0.956821 0.740082 0.181776
0.110651 0.783344 0.169808
0.170728 0.784200 0.170728
0.229577 0.785055 0.171647
0.287651 0.785910 0.172566
0.345156 0.786766 0.173485
0.402213 0.787621 0.174404
0.458902 0.788476 0.175322
0.515276 0.789332 0.176240
0.571379 0.790187 0.177158
0.627240 0.791042 0.178075
0.682885 0.791897 0.178993
0.738335 0.792752 0.179910
0.793607 0.793607 0.180826
0.848715 0.794462 0.181743
0.903671 0.795317 0.182659
0.958486 0.796172 0.183575
0.112505 0.839303 0.171614
0.172533 0.840156 0.172533
0.231354 0.841009 0.173452
0.289407 0.841862 0.174370
0.346897 0.842715 0.175288
0.403943 0.843568 0.176206
0.460621 0.844420 0.177124
0.516987 0.845273 0.178042
0.573081 0.846126 0.178959
0.628935 0.846978 0.179876
0.684575 0.847831 0.180793
0.740019 0.848684 0.181709
0.795286 0.849536 0.182625
0.850389 0.850389 0.183541
0.905340 0.851241 0.184457
0.960151 0.852094 0.185372
0.114358 0.895104 0.173418
0.174336 0.895954 0.174336
0.233130 0.896805 0.175255
0.291164 0.897655 0.176173
0.348639 0.898506 0.177090
0.405672 0.899357 0.178008
0.462340 0.900207 0.178925
0.518697 0.901057 0.179842
0.574783 0.901908 0.180759
0.630631 0.902758 0.181675
0.686264 0.903609 0.182591
0.741703 0.904459 0.183507
0.796964 0.905309 0.184423
0.852062 0.906159 0.185339
0.907010 0.907010 0.186254
0.961816 0.907860 0.187169
0.116208 0.950757 0.175221
0.176139 0.951606 0.176139
0.234905 0.952454 0.177057
0.292919 0.953303 0.177974
0.350379 0.954151 0.178891
0.407400 0.954999 0.179808
0.464058 0.955848 0.180725
0.520406 0.956696 0.181642
0.576485 0.957544 0.182558
0.632326 0.958392 0.183474
0.687953 0.959241 0.184389
0.743386 0.960089 0.185305
0.798642 0.960937 0.186220
0.853736 0.961785 0.187135
0.908679 0.962633 0.188050
0.963481 0.963481 0.188964
0.088560 0.088560 0.206731
0.149336 0.089522 0.207641
0.208550 0.090483 0.208550
0.266871 0.091443 0.209460
0.324563 0.092403 0.210369
0.381771 0.093361 0.211278
0.438584 0.094318 0.212187
0.495066 0.095275 0.213095
0.551262 0.096231 0.214004
0.607207 0.097186 0.214912
0.662927 0.098141 0.215820
0.718445 0.099094 0.216728
0.773779 0.100047 0.217635
0.828945 0.100999 0.218543
0.883954 0.101951 0.219450
0.938818 0.102901 0.220357
0.090448 0.150228 0.208517
0.151154 0.151154 0.209426
0.210335 0.152080 0.210335
0.268634 0.153006 0.211244
0.326310 0.153931 0.212153
0.383504 0.154856 0.213062
0.440307 0.155780 0.213970
0.496780 0.156705 0.214879
0.552967 0.157628 0.215787
0.608905 0.158552 0.216694
0.664619 0.159475 0.217602
0.720131 0.160398 0.218509
0.775460 0.161321 0.219417
0.830620 0.162243 0.220324
0.885625 0.163165 0.221231
0.940485 0.164087 0.222137
0.092332 0.210302 0.210302
0.152972 0.211211 0.211211
0.212120 0.212120 0.212120
0.270397 0.213028 0.213028
0.328056 0.213937 0.213937
0.385237 0.214845 0.214845
0.442029 0.215753 0.215753
0.498493 0.216661 0.216661
0.554672 0.217569 0.217569
0.610603 0.218476 0.218476
0.666310 0.219383 0.219383
0.721817 0.220290 0.220290
0.777140 0.221197 0.221197
0.832295 0.222104 0.222104
0.887296 0.223010 0.223010
0.942151 0.223917 0.223917
0.094213 0.269466 0.212086
0.154788 0.270364 0.212995
0.213904 0.271261 0.213904
0.272159 0.272159 0.214812
0.329802 0.273056 0.215720
0.386970 0.273953 0.216628
0.443751 0.274850 0.217535
0.500205 0.275747 0.218443
0.556377 0.276644 0.219350
0.612300 0.277540 0.220257
0.668001 0.278437 0.221164
0.723502 0.279333 0.222071
0.778820 0.280229 0.222977
0.833970 0.281125 0.223883
0.888966 0.282021 0.224789
0.943818 0.282917 0.225695
0.096090 0.327991 0.213870
0.156603 0.328880 0.214778
0.215686 0.329769 0.215686
0.273920 0.330658 0.216594
0.331547 0.331547 0.217502
0.388703 0.332436 0.218409
0.445473 0.333325 0.219317
0.501918 0.334213 0.220224
0.558082 0.335102 0.221131
0.613998 0.335990 0.222037
0.669692 0.336878 0.222944
0.725187 0.337767 0.223850
0.780500 0.338655 0.224756
0.835645 0.339543 0.225662
0.890637 0.340430 0.226568
0.945484 0.341318 0.227473
0.097965 0.386023 0.215653
0.158416 0.386905 0.216561
0.217469 0.387788 0.217469
0.275681 0.388670 0.218376
0.333292 0.389552 0.219283
0.390435 0.390435 0.220190
0.447194 0.391317 0.221097
0.503630 0.392199 0.222004
0.559786 0.393081 0.222910
0.615695 0.393962 0.223817
0.671383 0.394844 0.224723
0.726872 0.395726 0.225629
0.782180 0.396607 0.226534
0.837320 0.397489 0.227440
0.892307 0.398370 0.228345
0.947150 0.399252 0.229251
0.099837 0.443654 0.217435
0.160229 0.444531 0.218343
0.219250 0.445408 0.219250
0.277441 0.446285 0.220157
0.335036 0.447162 0.221064
0.392166 0.448039 0.221971
0.448915 0.448915 0.222877
0.505342 0.449792 0.223783
0.561490 0.450668 0.224689
0.617392 0.451545 0.225595
0.673074 0.452421 0.226501
0.728557 0.453297 0.227407
0.783859 0.454173 0.228312
0.838995 0.455050 0.229217
0.893977 0.455926 0.230122
0.948816 0.456802 0.231027
0.101706 0.500949 0.219216
0.162040 0.501822 0.220124
0.221030 0.502694 0.221030
0.279201 0.503566 0.221937
0.336780 0.504438 0.222844
0.393898 0.505310 0.223750
0.450636 0.506182 0.224656
0.507054 0.507054 0.225562
0.563194 0.507926 0.226468
0.619088 0.508797 0.227373
0.674764 0.509669 0.228279
0.730242 0.510541 0.229184
0.785539 0.511412 0.230089
0.840670 0.512284 0.230994
0.895647 0.513155 0.231898
0.950482 0.514026 0.232803
0.103572 0.557954 0.220997
0.163850 0.558822 0.221904
0.222810 0.559690 0.222810
0.280960 0.560558 0.223717
0.338524 0.561426 0.224623
0.395629 0.562294 0.225529
0.452357 0.563162 0.226434
0.508765 0.564029 0.227340
0.564897 0.564897 0.228245
0.620785 0.565765 0.229151
0.676454 0.566632 0.230056
0.731926 0.567500 0.230961
0.787218 0.568367 0.231865
0.842344 0.569235 0.232770
0.897317 0.570102 0.233674
0.952148 0.570970 0.234578
0.105435 0.614703 0.222777
0.165659 0.615567 0.223683
0.224589 0.616432 0.224589
0.282719 0.617296 0.225495
0.340267 0.618161 0.226401
0.397359 0.619025 0.227307
0.454077 0.619889 0.228212
0.510477 0.620753 0.229117
0.566601 0.621617 0.230022
0.622481 0.622481 0.230927
0.678144 0.623345 0.231832
0.733610 0.624209 0.232736
0.788897 0.625073 0.233641
0.844018 0.625937 0.234545
0.898987 0.626801 0.235449
0.953813 0.627664 0.236353
0.107296 0.671225 0.224556
0.167466 0.672086 0.225462
0.226368 0.672947 0.226368
0.284477 0.673808 0.227273
0.342010 0.674669 0.228179
0.399090 0.675530 0.229084
0.455797 0.676391 0.229989
0.512187 0.677252 0.230894
0.568304 0.678113 0.231799
0.624177 0.678973 0.232703
0.679834 0.679834 0.233607
0.735295 0.680695 0.234512
0.790576 0.681555 0.235416
0.845692 0.682416 0.236319
0.900656 0.683277 0.237223
0.955479 0.684137 0.238126
0.109155 0.727541 0.226335
0.169273 0.728399 0.227240
0.228146 0.729257 0.228146
0.286235 0.730115 0.229051
0.343752 0.730973 0.229956
0.400820 0.731831 0.230861
0.457516 0.732689 0.231765
0.513898 0.733547 0.232670
0.570007 0.734405 0.233574
0.625873 0.735263 0.234478
0.681524 0.736121 0.235382
0.736979 0.736979 0.236286
0.792255 0.737836 0.237190
0.847366 0.738694 0.238093
0.902326 0.739552 0.238996
0.957144 0.740409 0.239899
0.111011 0.783670 0.228112
0.171079 0.784526 0.229017
0.229923 0.785381 0.229923
0.287992 0.786237 0.230827
0.345494 0.787092 0.231732
0.402549 0.787947 0.232637
0.459236 0.788802 0.233541
0.515609 0.789658 0.234445
0.571709 0.790513 0.235349
0.627569 0.791368 0.236253
0.683213 0.792223 0.237156
0.738662 0.793078 0.238060
0.793933 0.793933 0.238963
0.849040 0.794788 0.239866
0.903995 0.795643 0.240769
0.958809 0.796498 0.241672
0.112865 0.839628 0.229889
0.172883 0.840481 0.230794
0.231699 0.841334 0.231699
0.289749 0.842187 0.232603
0.347236 0.843040 0.233508
0.404278 0.843893 0.234412
0.460955 0.844745 0.235316
0.517319 0.845598 0.236220
0.573412 0.846451 0.237123
0.629265 0.847304 0.238027
0.684903 0.848156 0.238930
0.740346 0.849009 0.239833
0.795612 0.849861 0.240736
0.850714 0.850714 0.241639
0.905665 0.851566 0.242541
0.960474 0.852419 0.243444
0.114717 0.895428 0.231666
0.174686 0.896279 0.232570
0.233474 0.897129 0.233474
0.291505 0.897980 0.234379
0.348977 0.898830 0.235283
0.406007 0.899681 0.236186
0.462673 0.900531 0.237090
0.519029 0.901382 0.237993
0.575114 0.902232 0.238897
0.630960 0.903082 0.239800
0.686592 0.903933 0.240703
0.742030 0.904783 0.241606
0.797290 0.905633 0.242508
0.852387 0.906484 0.243411
0.907334 0.907334 0.244313
0.962139 0.908184 0.245215
0.116567 0.951081 0.233441
0.176489 0.951929 0.234345
0.235249 0.952778 0.235249
0.293260 0.953626 0.236153
0.350717 0.954474 0.237057
0.407736 0.955323 0.237960
0.464392 0.956171 0.238863
0.520738 0.957019 0.239767
0.576816 0.957867 0.240670
0.632655 0.958716 0.241572
0.688281 0.959564 0.242475
0.743713 0.960412 0.243377
0.798968 0.961260 0.244280
0.854061 0.962108 0.245182
0.909003 0.962956 0.246084
0.963804 0.963804 0.246985
0.088927 0.088927 0.264518
0.149689 0.089889 0.265417
0.208897 0.090849 0.266315
0.267213 0.091809 0.267213
0.324902 0.092768 0.268112
0.382107 0.093726 0.269010
0.438919 0.094683 0.269907
0.495399 0.095640 0.270805
0.551593 0.096595 0.271702
0.607537 0.097550 0.272600
0.663256 0.098504 0.273497
0.718773 0.099458 0.274394
0.774106 0.100410 0.275291
0.829270 0.101362 0.276188
0.884278 0.102313 0.277084
0.939142 0.103264 0.277981
0.090814 0.150581 0.266282
0.151507 0.151507 0.267180
0.210682 0.152433 0.268079
0.268976 0.153359 0.268976
0.326649 0.154284 0.269874
0.383841 0.155208 0.270772
0.440641 0.156133 0.271669
0.497112 0.157057 0.272567
0.553299 0.157981 0.273464
0.609235 0.158904 0.274361
0.664947 0.159827 0.275258
0.720458 0.160750 0.276155
0.775786 0.161673 0.277051
0.830945 0.162595 0.277948
0.885949 0.163517 0.278844
0.940809 0.164438 0.279741
0.092698 0.210649 0.268045
0.153324 0.211558 0.268943
0.212466 0.212466 0.269841
0.270739 0.213375 0.270739
0.328395 0.214283 0.271636
0.385574 0.215191 0.272534
0.442364 0.216099 0.273431
0.498825 0.217007 0.274328
0.555003 0.217915 0.275225
0.610932 0.218822 0.276122
0.666638 0.219729 0.277018
0.722144 0.220636 0.277915
0.777466 0.221543 0.278811
0.832621 0.222450 0.279708
0.887620 0.223356 0.280604
0.942475 0.224262 0.281500
0.094578 0.269808 0.269808
0.155140 0.270706 0.270706
0.214250 0.271603 0.271603
0.272501 0.272501 0.272501
0.330141 0.273398 0.273398
0.387307 0.274295 0.274295
0.444086 0.275192 0.275192
0.500538 0.276089 0.276089
0.556708 0.276986 0.276986
0.612630 0.277882 0.277882
0.668330 0.278778 0.278778
0.723829 0.279675 0.279675
0.779146 0.280571 0.280571
0.834296 0.281467 0.281467
0.889291 0.282362 0.282362
0.944141 0.283258 0.283258
0.096455 0.328330 0.271570
0.156955 0.329219 0.272468
0.216033 0.330108 0.273365
0.274262 0.330997 0.274262
0.331886 0.331886 0.275159
0.389039 0.332775 0.276056
0.445807 0.333663 0.276953
0.502250 0.334552 0.277849
0.558413 0.335440 0.278745
0.614327 0.336329 0.279642
0.670021 0.337217 0.280538
0.725514 0.338105 0.281434
0.780826 0.338993 0.282330
0.835971 0.339881 0.283225
0.890961 0.340769 0.284121
0.945808 0.341657 0.285016
0.098329 0.386359 0.273332
0.158768 0.387242 0.274229
0.217815 0.388124 0.275126
0.276023 0.389006 0.276023
0.333631 0.389889 0.276920
0.390771 0.390771 0.277816
0.447529 0.391653 0.278712
0.503963 0.392535 0.279609
0.560117 0.393417 0.280505
0.616024 0.394299 0.281401
0.671711 0.395180 0.282297
0.727199 0.396062 0.283192
0.782506 0.396944 0.284088
0.837646 0.397825 0.284983
0.892631 0.398706 0.285879
0.947474 0.399588 0.286774
0.100200 0.443989 0.275093
0.160580 0.444866 0.275990
0.219596 0.445743 0.276887
0.277783 0.446619 0.277783
0.335375 0.447496 0.278679
0.392503 0.448373 0.279576
0.449250 0.449250 0.280472
0.505675 0.450126 0.281368
0.561821 0.451002 0.282264
0.617721 0.451879 0.283159
0.673402 0.452755 0.284055
0.728884 0.453631 0.284950
0.784185 0.454508 0.285846
0.839320 0.455384 0.286741
0.894301 0.456260 0.287636
0.949140 0.457135 0.288531
0.102068 0.501282 0.276854
0.162391 0.502154 0.277750
0.221376 0.503026 0.278646
0.279543 0.503898 0.279543
0.337119 0.504771 0.280439
0.394234 0.505642 0.281335
