resources/luts/sunlit-gold.cube
# Generated by FotoReady. Released under the project GPL-3.0-or-later license.
TITLE "sunlit-gold"
LUT_3D_SIZE 9
DOMAIN_MIN 0 0 0
DOMAIN_MAX 1 1 1
0.179987 0.009634 0.000000
0.350995 0.009788 0.000000
0.523786 0.010576 0.000000
0.686436 0.011809 0.000000
0.841503 0.013354 0.000000
0.990060 0.015115 0.000000
1.000000 0.015987 0.000000
1.000000 0.015987 0.000000
1.000000 0.015987 0.000000
0.148934 0.157141 0.000000
0.325536 0.149371 0.000000
0.503274 0.142934 0.000000
0.669930 0.138287 0.000000
0.828366 0.135162 0.000000
0.979838 0.133404 0.000000
1.000000 0.132023 0.000000
1.000000 0.131170 0.000000
1.000000 0.131411 0.000000
0.130938 0.319933 0.000000
0.308730 0.313453 0.000000
0.490340 0.306914 0.000000
0.660233 0.301822 0.000000
0.821341 0.298103 0.000000
0.974976 0.295611 0.000000
1.000000 0.293700 0.000000
1.000000 0.292363 0.000000
1.000000 0.292603 0.000000
0.122965 0.476613 0.000000
0.298678 0.470996 0.000000
0.479397 0.465173 0.000000
0.650779 0.459311 0.000000
0.812839 0.454492 0.000000
0.966980 0.450779 0.000000
1.000000 0.447897 0.000000
1.000000 0.446145 0.000000
1.000000 0.446382 0.000000
0.118608 0.627844 0.000000
0.290691 0.622545 0.000000
0.467162 0.616883 0.000000
0.635956 0.611201 0.000000
0.797770 0.605120 0.000000
0.951618 0.599958 0.000000
1.000000 0.595907 0.000000
1.000000 0.593806 0.000000
1.000000 0.594040 0.000000
0.112711 0.773194 0.000000
0.280032 0.767815 0.000000
0.451713 0.762108 0.000000
0.616288 0.756510 0.000000
0.776511 0.750991 0.000000
0.931459 0.745064 0.000000
1.000000 0.740148 0.000000
1.000000 0.737815 0.000000
1.000000 0.738049 0.000000
0.103904 0.912941 0.000000
0.267550 0.907817 0.000000
0.435930 0.902531 0.000000
0.597796 0.897490 0.000000
0.755813 0.892658 0.000000
0.911222 0.888036 0.000000
1.000000 0.882968 0.000000
1.000000 0.880527 0.000000
1.000000 0.880763 0.000000
0.100721 1.000000 0.000000
0.257651 1.000000 0.000000
0.424224 1.000000 0.000000
0.584804 1.000000 0.000000
0.741995 1.000000 0.000000
0.897002 1.000000 0.000000
1.000000 1.000000 0.000000
1.000000 1.000000 0.000000
1.000000 1.000000 0.000000
0.100721 1.000000 0.000000
0.256056 1.000000 0.000000
0.422095 1.000000 0.000000
0.582335 1.000000 0.000000
0.739416 1.000000 0.000000
0.894583 1.000000 0.000000
1.000000 1.000000 0.000000
1.000000 1.000000 0.000000
1.000000 1.000000 0.000000
0.178847 0.009618 0.012569
0.350074 0.009832 0.004861
0.523081 0.010652 0.000000
0.685904 0.011898 0.000000
0.841129 0.013446 0.000000
0.989846 0.015205 0.000000
1.000000 0.016075 0.000000
1.000000 0.016071 0.000000
1.000000 0.016072 0.000000
0.147825 0.156278 0.000000
0.325317 0.148304 0.000000
0.504004 0.141671 0.000000
0.671594 0.136832 0.000000
0.830970 0.133521 0.000000
0.983409 0.131589 0.000000
1.000000 0.129964 0.000000
1.000000 0.128993 0.000000
1.000000 0.129224 0.000000
0.128856 0.319360 0.000000
0.307522 0.312624 0.000000
0.490130 0.305885 0.000000
0.661036 0.300622 0.000000
0.823156 0.296734 0.000000
0.977807 0.294074 0.000000
1.000000 0.291932 0.000000
1.000000 0.290480 0.000000
1.000000 0.290713 0.000000
0.120049 0.476432 0.000000
0.296675 0.470559 0.000000
0.478359 0.464467 0.000000
0.650767 0.458413 0.000000
0.813873 0.453425 0.000000
0.969059 0.449542 0.000000
1.000000 0.446453 0.000000
1.000000 0.444592 0.000000
1.000000 0.444823 0.000000
0.114862 0.628088 0.000000
0.287891 0.622531 0.000000
0.465361 0.616597 0.000000
0.635137 0.610651 0.000000
0.797997 0.604376 0.000000
0.952906 0.599039 0.000000
1.000000 0.594812 0.000000
1.000000 0.592591 0.000000
1.000000 0.592820 0.000000
0.108112 0.773888 0.000000
0.276402 0.768247 0.000000
0.449100 0.762262 0.000000
0.614671 0.756391 0.000000
0.775883 0.750599 0.000000
0.931890 0.744474 0.000000
1.000000 0.739378 0.000000
1.000000 0.736936 0.000000
1.000000 0.737166 0.000000
0.101612 0.914124 0.000000
0.263020 0.908707 0.000000
0.432435 0.903137 0.000000
0.595314 0.897817 0.000000
0.754339 0.892706 0.000000
0.910755 0.887806 0.000000
1.000000 0.882538 0.000000
1.000000 0.879994 0.000000
1.000000 0.880229 0.000000
0.100721 1.000000 0.000000
0.252163 1.000000 0.000000
0.419793 1.000000 0.000000
0.581411 1.000000 0.000000
0.739633 1.000000 0.000000
0.895671 1.000000 0.000000
1.000000 1.000000 0.000000
1.000000 1.000000 0.000000
1.000000 1.000000 0.000000
0.100721 1.000000 0.000000
0.250290 1.000000 0.000000
0.417392 1.000000 0.000000
0.578676 1.000000 0.000000
0.736801 1.000000 0.000000
0.893022 1.000000 0.000000
1.000000 1.000000 0.000000
1.000000 1.000000 0.000000
1.000000 1.000000 0.000000
0.174073 0.009619 0.199266
0.347048 0.010056 0.190288
0.520828 0.011065 0.179097
0.684291 0.012458 0.168808
0.840051 0.014119 0.159395
0.989215 0.015964 0.150905
1.000000 0.016888 0.144469
1.000000 0.016875 0.141874
1.000000 0.016876 0.142096
0.145200 0.153364 0.170466
0.324313 0.145288 0.159772
0.505102 0.138541 0.148520
0.674663 0.133577 0.138610
0.835914 0.130127 0.129886
0.990138 0.128038 0.122306
1.000000 0.126127 0.117054
1.000000 0.125033 0.115455
1.000000 0.125266 0.115662
0.126004 0.317341 0.132467
0.305348 0.310536 0.119936
0.490683 0.303278 0.109286
0.664253 0.297575 0.100714
0.828947 0.293252 0.093593
0.986101 0.290157 0.087874
1.000000 0.287442 0.084299
1.000000 0.285739 0.083867
1.000000 0.285974 0.084072
0.116429 0.474950 0.096853
0.292242 0.469493 0.083406
0.476313 0.462646 0.071735
0.651225 0.456062 0.064645
0.816824 0.450614 0.060289
0.974433 0.446274 0.057561
1.000000 0.442657 0.056597
1.000000 0.440563 0.057291
1.000000 0.440795 0.057501
0.110127 0.627009 0.066662
0.280966 0.622366 0.053296
0.460776 0.615660 0.043368
0.632824 0.608977 0.034318
0.798140 0.602198 0.031883
0.955534 0.596427 0.032494
1.000000 0.591749 0.034467
1.000000 0.589301 0.036191
1.000000 0.589531 0.036405
0.102139 0.773158 0.044396
0.267015 0.768962 0.031795
0.442171 0.762242 0.023880
0.610143 0.755676 0.016512
0.773727 0.749216 0.009467
0.932249 0.742636 0.010623
1.000000 0.737150 0.014783
1.000000 0.734474 0.017553
1.000000 0.734706 0.017764
0.101587 0.913883 0.030292
0.251542 0.910404 0.017749
0.423512 0.904130 0.010928
0.588867 0.898138 0.004328
0.750320 0.892376 0.000000
0.909126 0.886837 0.000000
1.000000 0.881154 0.000000
1.000000 0.878406 0.000000
1.000000 0.878642 0.000000
0.100666 1.000000 0.021427
0.238859 1.000000 0.008107
0.409098 1.000000 0.001476
0.573230 1.000000 0.000000
0.733904 1.000000 0.000000
0.892345 1.000000 0.000000
1.000000 1.000000 0.000000
1.000000 1.000000 0.000000
1.000000 1.000000 0.000000
0.100667 1.000000 0.019485
0.236488 1.000000 0.006027
0.406195 1.000000 0.000000
0.570001 1.000000 0.000000
0.730603 1.000000 0.000000
0.889274 1.000000 0.000000
1.000000 1.000000 0.000000
1.000000 1.000000 0.000000
1.000000 1.000000 0.000000
0.169421 0.009691 0.372674
0.342048 0.010321 0.365020
0.518821 0.011520 0.354012
0.682869 0.013043 0.340686
0.839116 0.014805 0.328366
0.988686 0.016723 0.317068
1.000000 0.017697 0.307927
1.000000 0.017676 0.303736
1.000000 0.017677 0.303963
0.143673 0.150731 0.347377
0.321265 0.143122 0.338058
0.503424 0.136198 0.325827
0.673362 0.131512 0.313021
0.834935 0.128321 0.301500
0.989430 0.126470 0.291202
1.000000 0.124808 0.283268
1.000000 0.123838 0.280105
1.000000 0.124071 0.280316
0.125486 0.314717 0.310465
0.303698 0.308076 0.300258
0.490420 0.300633 0.287695
0.665764 0.294733 0.275910
0.832143 0.290204 0.265684
0.990908 0.286892 0.256943
1.000000 0.283886 0.250463
1.000000 0.282062 0.248285
1.000000 0.282297 0.248495
0.115192 0.472871 0.272557
0.289697 0.467634 0.260492
0.474336 0.460685 0.247593
0.651614 0.453584 0.237833
0.819525 0.447668 0.230260
0.979360 0.442854 0.224400
1.000000 0.438709 0.220365
1.000000 0.436384 0.219229
1.000000 0.436617 0.219445
0.108705 0.625045 0.239872
0.277274 0.620891 0.227183
0.456203 0.614545 0.214839
0.630356 0.607149 0.205306
0.797938 0.599855 0.200245
0.957643 0.593639 0.197670
1.000000 0.588503 0.196465
1.000000 0.585835 0.196398
1.000000 0.586066 0.196617
0.100408 0.771175 0.215419
0.261957 0.767787 0.202695
0.435084 0.761969 0.191022
0.605313 0.754740 0.183075
0.771143 0.747647 0.175437
0.932079 0.740627 0.173857
1.000000 0.734761 0.174760
1.000000 0.731855 0.175777
1.000000 0.732088 0.175993
0.101521 0.911990 0.198977
0.245576 0.909667 0.185426
0.414423 0.904842 0.173500
0.582183 0.898237 0.166227
0.746026 0.891890 0.158980
0.907223 0.885792 0.151638
1.000000 0.879736 0.152003
1.000000 0.876787 0.153885
1.000000 0.877024 0.154092
0.100583 1.000000 0.187506
0.232452 1.000000 0.172311
0.398493 1.000000 0.159240
0.565177 1.000000 0.151769
0.728384 1.000000 0.144065
0.889356 1.000000 0.136022
1.000000 1.000000 0.127556
1.000000 1.000000 0.127554
1.000000 1.000000 0.127747
0.100584 1.000000 0.184859
0.229941 1.000000 0.169331
0.395118 1.000000 0.156151
0.561517 1.000000 0.148772
0.724726 1.000000 0.140979
0.886040 1.000000 0.132631
1.000000 1.000000 0.123609
1.000000 1.000000 0.120333
1.000000 1.000000 0.120578
0.165474 0.009819 0.536321
0.336254 0.010613 0.528966
0.513663 0.011970 0.520387
0.681596 0.013656 0.508266
0.838293 0.015507 0.493127
0.988235 0.017489 0.479104
1.000000 0.018509 0.467329
1.000000 0.018480 0.461591
1.000000 0.018481 0.461822
0.142690 0.148612 0.514515
0.318138 0.141667 0.506335
0.499776 0.134850 0.495760
0.672134 0.129516 0.483117
0.834006 0.126570 0.468879
0.988753 0.124947 0.455939
1.000000 0.123528 0.445392
1.000000 0.122677 0.440711
1.000000 0.122910 0.440927
0.127302 0.311969 0.479355
0.303046 0.305777 0.472465
0.488073 0.298705 0.461469
0.664446 0.292594 0.448719
0.830967 0.288259 0.435875
0.989828 0.285125 0.424591
1.000000 0.282332 0.415560
1.000000 0.280630 0.411897
1.000000 0.280864 0.412112
0.115690 0.470403 0.443218
0.289149 0.465139 0.434143
0.472484 0.458269 0.423638
0.650965 0.450907 0.412050
0.820391 0.444725 0.401544
0.981673 0.439636 0.392830
1.000000 0.435206 0.385958
1.000000 0.432770 0.383148
1.000000 0.433003 0.383370
0.107250 0.623110 0.408867
0.275371 0.618676 0.399063
0.452735 0.612508 0.388108
0.627457 0.604927 0.377506
0.797262 0.597136 0.369874
0.959238 0.590489 0.364182
1.000000 0.584917 0.359866
1.000000 0.582035 0.358061
1.000000 0.582267 0.358285
0.100769 0.769239 0.382281
0.259519 0.765565 0.372414
0.430347 0.760319 0.361170
0.600158 0.753404 0.350927
0.768194 0.745700 0.342702
0.931500 0.738254 0.338443
1.000000 0.732024 0.336160
1.000000 0.728896 0.335479
1.000000 0.729129 0.335700
0.101434 0.910140 0.363530
0.243060 0.907587 0.352730
0.408898 0.903725 0.340277
0.575269 0.897926 0.329500
0.741459 0.891014 0.321575
0.905002 0.884375 0.313541
1.000000 0.877961 0.311125
1.000000 0.874822 0.311338
1.000000 0.875060 0.311550
0.100539 1.000000 0.349478
0.230316 1.000000 0.336946
0.392641 1.000000 0.322399
0.556975 1.000000 0.310230
0.722669 1.000000 0.301761
0.886123 1.000000 0.292939
1.000000 1.000000 0.283681
1.000000 1.000000 0.282436
1.000000 1.000000 0.282633
0.100539 1.000000 0.346151
0.227873 1.000000 0.333302
0.389136 1.000000 0.318421
0.552908 1.000000 0.306062
0.718692 1.000000 0.297473
0.882621 1.000000 0.288288
1.000000 1.000000 0.278384
1.000000 1.000000 0.274524
1.000000 1.000000 0.274777
0.162153 0.009995 0.691740
0.331075 0.010934 0.684707
0.506465 0.012405 0.676529
0.676193 0.014224 0.667920
0.837561 0.016225 0.654851
0.987847 0.018264 0.638167
1.000000 0.019327 0.623811
1.000000 0.019289 0.616561
1.000000 0.019290 0.616796
0.142207 0.146963 0.673414
0.315535 0.140665 0.666362
0.494994 0.134551 0.656301
0.667957 0.128847 0.646325
0.833115 0.124862 0.633211
0.988094 0.123458 0.617686
1.000000 0.122273 0.604578
1.000000 0.121540 0.598415
1.000000 0.121773 0.598634
0.129515 0.309684 0.640008
0.302821 0.303929 0.636384
0.485447 0.297449 0.626746
0.661265 0.291315 0.615760
0.829781 0.286344 0.603002
0.988723 0.283379 0.589230
1.000000 0.280791 0.577702
1.000000 0.279208 0.572588
1.000000 0.279442 0.572809
0.119975 0.467337 0.605889
0.290841 0.462459 0.600179
0.471459 0.455972 0.593169
0.648220 0.448871 0.583109
0.818400 0.442439 0.571690
0.979627 0.437475 0.560575
1.000000 0.433217 0.551275
1.000000 0.430903 0.547047
1.000000 0.431135 0.547273
0.108059 0.620592 0.573981
0.275017 0.616069 0.567209
0.451164 0.609803 0.559390
0.624599 0.602269 0.551011
0.795630 0.594214 0.541520
0.959176 0.587331 0.532939
1.000000 0.581529 0.525744
1.000000 0.578540 0.522339
1.000000 0.578772 0.522569
0.101054 0.767318 0.546163
0.257076 0.763372 0.539089
0.427564 0.757879 0.530690
0.596011 0.751236 0.521464
0.764893 0.743388 0.512096
0.930539 0.735530 0.505199
1.000000 0.728945 0.499778
1.000000 0.725603 0.497443
1.000000 0.725837 0.497669
0.101331 0.908322 0.525112
0.240587 0.905547 0.517004
0.406233 0.901488 0.507302
0.570471 0.896369 0.496542
0.736615 0.889770 0.486355
0.902477 0.882604 0.477633
1.000000 0.875843 0.472476
1.000000 0.872523 0.471059
1.000000 0.872763 0.471275
0.100538 1.000000 0.508486
0.228257 1.000000 0.498566
0.390536 1.000000 0.486679
0.551978 1.000000 0.473538
0.716743 1.000000 0.461700
0.882649 1.000000 0.452106
1.000000 1.000000 0.442061
1.000000 1.000000 0.439591
1.000000 1.000000 0.439791
0.100538 1.000000 0.504500
0.225901 1.000000 0.494272
0.387172 1.000000 0.482031
0.547854 1.000000 0.468455
0.712492 1.000000 0.456226
0.879026 1.000000 0.446195
1.000000 1.000000 0.435398
1.000000 1.000000 0.431059
1.000000 1.000000 0.431321
0.159400 0.010210 0.839832
0.326450 0.011278 0.833143
0.499813 0.012849 0.825383
0.667508 0.014735 0.817232
0.831844 0.016864 0.808762
0.987511 0.019046 0.794914
1.000000 0.020150 0.778018
1.000000 0.020103 0.769285
1.000000 0.020105 0.769525
0.142193 0.145754 0.824982
0.313418 0.140089 0.819050
0.490713 0.134664 0.809506
0.661552 0.129606 0.800056
0.828428 0.124779 0.790662
0.987447 0.121994 0.777107
1.000000 0.121038 0.761479
1.000000 0.120421 0.753862
1.000000 0.120653 0.754085
0.132110 0.307832 0.793336
0.302998 0.302503 0.792941
0.483242 0.296602 0.784650
0.656779 0.291064 0.774289
0.825820 0.285614 0.764307
0.987586 0.281645 0.751533
1.000000 0.279254 0.737553
1.000000 0.277789 0.731017
1.000000 0.278022 0.731242
0.124562 0.464699 0.761238
0.292859 0.460197 0.758852
0.470783 0.454082 0.755297
0.645065 0.447480 0.746579
0.814621 0.440921 0.737027
0.977531 0.435323 0.725959
1.000000 0.431236 0.714265
1.000000 0.429040 0.708646
1.000000 0.429271 0.708878
0.114104 0.617028 0.731609
0.278346 0.612834 0.728256
0.451703 0.606909 0.723953
0.622502 0.599716 0.718925
0.791972 0.591908 0.710827
0.956338 0.584834 0.701207
1.000000 0.579231 0.691570
1.000000 0.576357 0.686815
1.000000 0.576588 0.687049
0.101260 0.764640 0.706745
0.256791 0.760636 0.702592
0.426262 0.755093 0.697176
0.593778 0.748417 0.690790
0.761646 0.740676 0.683362
0.928724 0.732618 0.674464
1.000000 0.725859 0.666114
1.000000 0.722411 0.662252
1.000000 0.722646 0.662483
0.101218 0.906529 0.684379
0.238152 0.903540 0.678915
0.403624 0.899291 0.671916
0.567740 0.894005 0.663726
0.732713 0.887758 0.654271
0.899657 0.880492 0.644330
1.000000 0.873393 0.636463
1.000000 0.869901 0.633445
1.000000 0.870142 0.633665
0.100578 1.000000 0.665176
0.226275 1.000000 0.657834
0.388524 1.000000 0.648557
0.549981 1.000000 0.637899
0.712775 1.000000 0.625774
0.878939 1.000000 0.613921
1.000000 1.000000 0.603091
1.000000 1.000000 0.599406
1.000000 1.000000 0.599609
0.100586 1.000000 0.660548
0.224020 1.000000 0.652895
0.385323 1.000000 0.643242
0.546112 1.000000 0.632103
0.708608 1.000000 0.619319
0.875268 1.000000 0.606740
1.000000 1.000000 0.595116
1.000000 1.000000 0.590261
1.000000 1.000000 0.590531
0.157120 0.010415 0.959480
0.322256 0.011595 0.959183
0.493593 0.013263 0.958041
0.659287 0.015227 0.956285
0.821602 0.017403 0.951905
0.981424 0.019717 0.943744
1.000000 0.020978 0.930367
1.000000 0.020922 0.920177
1.000000 0.020923 0.920420
0.142520 0.144911 0.957174
0.311663 0.139875 0.955404
0.486871 0.135156 0.953198
0.655627 0.130748 0.947062
0.820399 0.126525 0.938211
0.982247 0.122426 0.929458
1.000000 0.119818 0.916518
1.000000 0.119314 0.907470
1.000000 0.119546 0.907698
0.135071 0.306391 0.939949
0.303555 0.301477 0.942752
0.481432 0.296144 0.935803
0.652702 0.291190 0.926069
0.819488 0.286297 0.916724
0.982863 0.281392 0.907773
1.000000 0.277718 0.895541
1.000000 0.276368 0.887605
1.000000 0.276600 0.887835
0.129445 0.462465 0.909876
0.295190 0.458331 0.910785
0.470437 0.452578 0.910653
0.642256 0.446464 0.903271
0.809415 0.440415 0.894448
0.972812 0.434263 0.886229
1.000000 0.429259 0.875357
1.000000 0.427179 0.868371
1.000000 0.427409 0.868607
0.120382 0.613865 0.882530
0.281933 0.609993 0.882560
0.452549 0.604409 0.881721
0.620755 0.597559 0.879996
0.787894 0.590254 0.873109
0.951879 0.583071 0.865244
1.000000 0.576958 0.855430
1.000000 0.574196 0.849349
1.000000 0.574427 0.849587
0.104249 0.760475 0.860011
0.261713 0.756871 0.859159
0.428589 0.751718 0.857114
0.593654 0.745431 0.853942
0.759173 0.738083 0.849622
0.924978 0.730314 0.841911
1.000000 0.723442 0.832362
1.000000 0.720128 0.827213
1.000000 0.720363 0.827447
0.101109 0.903856 0.840638
0.238438 0.900858 0.837966
0.403084 0.896607 0.833809
0.566450 0.891333 0.828322
0.730734 0.885111 0.821478
0.896905 0.878009 0.813246
1.000000 0.870768 0.803252
1.000000 0.867209 0.798735
1.000000 0.867451 0.798958
0.100659 1.000000 0.819971
0.224366 1.000000 0.815171
0.386599 1.000000 0.808466
0.548086 1.000000 0.800251
0.710950 1.000000 0.790484
0.876125 1.000000 0.779129
1.000000 1.000000 0.767005
1.000000 1.000000 0.762108
1.000000 1.000000 0.762315
0.100688 1.000000 0.814708
0.222229 1.000000 0.809590
0.383587 1.000000 0.802478
0.544508 1.000000 0.793734
0.707214 1.000000 0.783232
0.872765 1.000000 0.770846
1.000000 1.000000 0.757838
1.000000 1.000000 0.752355
1.000000 1.000000 0.752633
0.156261 0.010410 0.959480
0.320547 0.011581 0.959191
0.491022 0.013235 0.958064
0.655902 0.015184 0.956326
0.817463 0.017355 0.954145
0.976609 0.019685 0.951657
1.000000 0.021086 0.950121
1.000000 0.021086 0.950121
1.000000 0.021086 0.950121
0.142353 0.144509 0.957190
0.310665 0.139674 0.955425
0.485061 0.135176 0.953224
0.653101 0.130996 0.950851
0.817231 0.127008 0.948383
0.978468 0.123135 0.945897
1.000000 0.119275 0.944434
1.000000 0.118873 0.944457
1.000000 0.119106 0.944444
0.135736 0.305762 0.949708
0.303298 0.300960 0.947190
0.480423 0.295848 0.944508
0.651043 0.291139 0.941980
0.817203 0.286476 0.939672
0.979962 0.281786 0.937642
1.000000 0.277183 0.936446
1.000000 0.275921 0.936496
1.000000 0.276156 0.936486
0.130981 0.461716 0.941134
0.295839 0.457697 0.938887
0.470211 0.452067 0.936859
0.641318 0.446153 0.935253
0.807801 0.440309 0.934135
0.970532 0.434348 0.933494
1.000000 0.428664 0.924937
1.000000 0.426629 0.916848
1.000000 0.426863 0.916817
0.122468 0.612943 0.929796
0.283140 0.609186 0.930209
0.452890 0.603722 0.929725
0.620303 0.596989 0.928300
0.786750 0.589845 0.921071
0.950100 0.582833 0.912693
1.000000 0.576313 0.903382
1.000000 0.573594 0.896219
1.000000 0.573829 0.896184
0.106615 0.759306 0.905810
0.263276 0.755831 0.905254
0.429364 0.750811 0.903474
0.593707 0.744653 0.900517
0.758556 0.737431 0.896371
0.923778 0.729831 0.888237
1.000000 0.722796 0.878543
1.000000 0.719531 0.872332
1.000000 0.719770 0.872288
0.101083 0.902494 0.884833
0.240438 0.899655 0.882383
0.404365 0.895549 0.878405
0.567075 0.890414 0.873054
0.730751 0.884328 0.866307
0.896355 0.877358 0.858136
1.000000 0.870168 0.847547
1.000000 0.866666 0.841971
1.000000 0.866911 0.841913
0.100690 1.000000 0.862696
0.223881 1.000000 0.857866
0.386123 1.000000 0.851092
0.547629 1.000000 0.842779
0.710524 1.000000 0.832888
0.875738 1.000000 0.821385
1.000000 1.000000 0.808520
1.000000 1.000000 0.802609
1.000000 1.000000 0.802536
0.100726 1.000000 0.856386
0.221792 1.000000 0.851224
0.383178 1.000000 0.844024
0.544146 1.000000 0.835158
0.706918 1.000000 0.824503
0.872554 1.000000 0.811934
1.000000 1.000000 0.798122
1.000000 1.000000 0.791776
1.000000 1.000000 0.791776
