resources/luts/sunlit-gold.cube
# Generated by FotoReady. Released under the project GPL-3.0-or-later license.
TITLE "sunlit-gold"
LUT_3D_SIZE 17
DOMAIN_MIN 0 0 0
DOMAIN_MAX 1 1 1
0.179987 0.009634 0.000000
0.258280 0.009621 0.000000
0.350995 0.009788 0.000000
0.438952 0.010116 0.000000
0.523786 0.010576 0.000000
0.606161 0.011146 0.000000
0.686436 0.011809 0.000000
0.764833 0.012549 0.000000
0.841503 0.013354 0.000000
0.916553 0.014213 0.000000
0.990060 0.015115 0.000000
1.000000 0.015987 0.000000
1.000000 0.015987 0.000000
1.000000 0.015987 0.000000
1.000000 0.015987 0.000000
1.000000 0.015987 0.000000
1.000000 0.015987 0.000000
0.164329 0.071902 0.000000
0.243908 0.068019 0.000000
0.337979 0.063845 0.000000
0.427083 0.060315 0.000000
0.512888 0.057310 0.000000
0.596098 0.054770 0.000000
0.677106 0.052660 0.000000
0.756159 0.050950 0.000000
0.833428 0.049619 0.000000
0.909035 0.048649 0.000000
0.983072 0.048024 0.000000
1.000000 0.047733 0.000000
1.000000 0.046806 0.000000
1.000000 0.046114 0.000000
1.000000 0.046225 0.000000
1.000000 0.046465 0.000000
1.000000 0.046465 0.000000
0.148934 0.157141 0.000000
0.229847 0.153451 0.000000
0.325536 0.149371 0.000000
0.416111 0.145903 0.000000
0.503274 0.142934 0.000000
0.587747 0.140408 0.000000
0.669930 0.138287 0.000000
0.750078 0.136546 0.000000
0.828366 0.135162 0.000000
0.904921 0.134120 0.000000
0.979838 0.133404 0.000000
1.000000 0.133001 0.000000
1.000000 0.132023 0.000000
1.000000 0.131096 0.000000
1.000000 0.131170 0.000000
1.000000 0.131411 0.000000
1.000000 0.131411 0.000000
0.138198 0.239448 0.000000
0.219322 0.236166 0.000000
0.316182 0.232262 0.000000
0.407915 0.228772 0.000000
0.496136 0.225758 0.000000
0.581579 0.223166 0.000000
0.664655 0.220959 0.000000
0.745623 0.219112 0.000000
0.824661 0.217604 0.000000
0.901900 0.216419 0.000000
0.977438 0.215543 0.000000
1.000000 0.214962 0.000000
1.000000 0.213940 0.000000
1.000000 0.212790 0.000000
1.000000 0.212836 0.000000
1.000000 0.213077 0.000000
1.000000 0.213077 0.000000
0.130938 0.319933 0.000000
0.211905 0.316962 0.000000
0.308730 0.313453 0.000000
0.401317 0.310046 0.000000
0.490340 0.306914 0.000000
0.576507 0.304184 0.000000
0.660233 0.301822 0.000000
0.741784 0.299801 0.000000
0.821341 0.298103 0.000000
0.899039 0.296711 0.000000
0.974976 0.295611 0.000000
1.000000 0.294791 0.000000
1.000000 0.293700 0.000000
1.000000 0.292337 0.000000
1.000000 0.292363 0.000000
1.000000 0.292603 0.000000
1.000000 0.292603 0.000000
0.126139 0.398951 0.000000
0.206756 0.396219 0.000000
0.303093 0.392975 0.000000
0.395419 0.389878 0.000000
0.485024 0.386752 0.000000
0.571689 0.383818 0.000000
0.655846 0.381235 0.000000
0.737765 0.378978 0.000000
0.817631 0.377027 0.000000
0.895579 0.375366 0.000000
0.971712 0.373982 0.000000
1.000000 0.372863 0.000000
1.000000 0.371652 0.000000
1.000000 0.370087 0.000000
1.000000 0.370099 0.000000
1.000000 0.370338 0.000000
1.000000 0.370338 0.000000
0.122965 0.476613 0.000000
0.203047 0.474055 0.000000
0.298678 0.470996 0.000000
0.390257 0.468055 0.000000
0.479397 0.465173 0.000000
0.566397 0.462177 0.000000
0.650779 0.459311 0.000000
0.732863 0.456756 0.000000
0.812839 0.454492 0.000000
0.890843 0.452504 0.000000
0.966980 0.450779 0.000000
1.000000 0.449304 0.000000
1.000000 0.447897 0.000000
1.000000 0.446140 0.000000
1.000000 0.446145 0.000000
1.000000 0.446382 0.000000
1.000000 0.446382 0.000000
0.120678 0.552926 0.000000
0.200049 0.550480 0.000000
0.294763 0.547533 0.000000
0.385395 0.544677 0.000000
0.473549 0.541857 0.000000
0.559891 0.539047 0.000000
0.644375 0.536055 0.000000
0.726434 0.533143 0.000000
0.806331 0.530510 0.000000
0.884216 0.528141 0.000000
0.960221 0.526034 0.000000
1.000000 0.524186 0.000000
1.000000 0.522540 0.000000
1.000000 0.520595 0.000000
1.000000 0.520599 0.000000
1.000000 0.520834 0.000000
1.000000 0.520834 0.000000
0.118608 0.627844 0.000000
0.197097 0.625451 0.000000
0.290691 0.622545 0.000000
0.380183 0.619706 0.000000
0.467162 0.616883 0.000000
0.552292 0.614050 0.000000
0.635956 0.611201 0.000000
0.717973 0.608127 0.000000
0.797770 0.605120 0.000000
0.875607 0.602398 0.000000
0.951618 0.599958 0.000000
1.000000 0.597795 0.000000
1.000000 0.595907 0.000000
1.000000 0.593796 0.000000
1.000000 0.593806 0.000000
1.000000 0.594040 0.000000
1.000000 0.594040 0.000000
0.116134 0.701293 0.000000
0.193574 0.698895 0.000000
0.285854 0.695963 0.000000
0.374049 0.693087 0.000000
0.459772 0.690229 0.000000
0.543712 0.687378 0.000000
0.626262 0.684529 0.000000
0.707674 0.681682 0.000000
0.787659 0.678597 0.000000
0.865629 0.675585 0.000000
0.941822 0.672872 0.000000
1.000000 0.670455 0.000000
1.000000 0.668331 0.000000
1.000000 0.666088 0.000000
1.000000 0.666109 0.000000
1.000000 0.666343 0.000000
1.000000 0.666343 0.000000
0.112711 0.773194 0.000000
0.189036 0.770766 0.000000
0.280032 0.767815 0.000000
0.367063 0.764942 0.000000
0.451713 0.762108 0.000000
0.534660 0.759298 0.000000
0.616288 0.756510 0.000000
0.696846 0.753740 0.000000
0.776511 0.750991 0.000000
0.854911 0.747990 0.000000
0.931459 0.745064 0.000000
1.000000 0.742451 0.000000
1.000000 0.740148 0.000000
1.000000 0.737777 0.000000
1.000000 0.737815 0.000000
1.000000 0.738049 0.000000
1.000000 0.738049 0.000000
0.108444 0.843659 0.000000
0.183817 0.841253 0.000000
0.273740 0.838348 0.000000
0.359807 0.835542 0.000000
0.443578 0.832791 0.000000
0.525722 0.830084 0.000000
0.606615 0.827414 0.000000
0.686503 0.824781 0.000000
0.765558 0.822183 0.000000
0.843912 0.819622 0.000000
0.921123 0.816794 0.000000
0.996614 0.814042 0.000000
1.000000 0.811615 0.000000
1.000000 0.809141 0.000000
1.000000 0.809202 0.000000
1.000000 0.809437 0.000000
1.000000 0.809437 0.000000
0.103904 0.912941 0.000000
0.178497 0.910610 0.000000
0.267550 0.907817 0.000000
0.352848 0.905137 0.000000
0.435930 0.902531 0.000000
0.517456 0.899984 0.000000
0.597796 0.897490 0.000000
0.677191 0.895048 0.000000
0.755813 0.892658 0.000000
0.833789 0.890320 0.000000
0.911222 0.888036 0.000000
0.987600 0.885465 0.000000
1.000000 0.882968 0.000000
1.000000 0.880436 0.000000
1.000000 0.880527 0.000000
1.000000 0.880763 0.000000
1.000000 0.880763 0.000000
0.101226 0.981287 0.000000
0.173631 0.979074 0.000000
0.262012 0.976454 0.000000
0.346730 0.973961 0.000000
0.429307 0.971557 0.000000
0.510394 0.969227 0.000000
0.590356 0.966965 0.000000
0.669433 0.964769 0.000000
0.747792 0.962640 0.000000
0.825560 0.960578 0.000000
0.902837 0.958585 0.000000
0.979702 0.956662 0.000000
1.000000 0.954428 0.000000
1.000000 0.951904 0.000000
1.000000 0.952030 0.000000
1.000000 0.952268 0.000000
1.000000 0.952268 0.000000
0.100721 1.000000 0.000000
0.169754 1.000000 0.000000
0.257651 1.000000 0.000000
0.341973 1.000000 0.000000
0.424224 1.000000 0.000000
0.505046 1.000000 0.000000
0.584804 1.000000 0.000000
0.663731 1.000000 0.000000
0.741995 1.000000 0.000000
0.819719 1.000000 0.000000
0.897002 1.000000 0.000000
0.973923 1.000000 0.000000
1.000000 1.000000 0.000000
1.000000 1.000000 0.000000
1.000000 1.000000 0.000000
1.000000 1.000000 0.000000
1.000000 1.000000 0.000000
0.100721 1.000000 0.000000
0.168486 1.000000 0.000000
0.256056 1.000000 0.000000
0.340089 1.000000 0.000000
0.422095 1.000000 0.000000
0.502721 1.000000 0.000000
0.582335 1.000000 0.000000
0.661176 1.000000 0.000000
0.739416 1.000000 0.000000
0.817184 1.000000 0.000000
0.894583 1.000000 0.000000
0.971698 1.000000 0.000000
1.000000 1.000000 0.000000
1.000000 1.000000 0.000000
1.000000 1.000000 0.000000
1.000000 1.000000 0.000000
1.000000 1.000000 0.000000
0.100721 1.000000 0.000000
0.168486 1.000000 0.000000
0.256056 1.000000 0.000000
0.340089 1.000000 0.000000
0.422095 1.000000 0.000000
0.502721 1.000000 0.000000
0.582335 1.000000 0.000000
0.661176 1.000000 0.000000
0.739416 1.000000 0.000000
0.817184 1.000000 0.000000
0.894583 1.000000 0.000000
0.971698 1.000000 0.000000
1.000000 1.000000 0.000000
1.000000 1.000000 0.000000
1.000000 1.000000 0.000000
1.000000 1.000000 0.000000
1.000000 1.000000 0.000000
0.180102 0.009634 0.000000
0.258393 0.009621 0.000000
0.351086 0.009789 0.000000
0.439042 0.010117 0.000000
0.523877 0.010577 0.000000
0.606251 0.011147 0.000000
0.686525 0.011809 0.000000
0.764922 0.012550 0.000000
0.841591 0.013355 0.000000
0.916640 0.014214 0.000000
0.990147 0.015116 0.000000
1.000000 0.015987 0.000000
1.000000 0.015987 0.000000
1.000000 0.015987 0.000000
1.000000 0.015987 0.000000
1.000000 0.015987 0.000000
1.000000 0.015987 0.000000
0.164422 0.071998 0.000000
0.244002 0.068115 0.000000
0.338074 0.063942 0.000000
0.427179 0.060413 0.000000
0.512984 0.057408 0.000000
0.596195 0.054869 0.000000
0.677203 0.052759 0.000000
0.756256 0.051050 0.000000
0.833525 0.049719 0.000000
0.909132 0.048750 0.000000
0.983169 0.048126 0.000000
1.000000 0.047834 0.000000
1.000000 0.046907 0.000000
1.000000 0.046215 0.000000
1.000000 0.046327 0.000000
1.000000 0.046567 0.000000
1.000000 0.046567 0.000000
0.149034 0.157238 0.000000
0.229947 0.153549 0.000000
0.325637 0.149469 0.000000
0.416212 0.146002 0.000000
0.503375 0.143034 0.000000
0.587848 0.140508 0.000000
0.670031 0.138388 0.000000
0.750179 0.136647 0.000000
0.828467 0.135264 0.000000
0.905021 0.134222 0.000000
0.979937 0.133506 0.000000
1.000000 0.133104 0.000000
1.000000 0.132124 0.000000
1.000000 0.131197 0.000000
1.000000 0.131273 0.000000
1.000000 0.131513 0.000000
1.000000 0.131513 0.000000
0.138303 0.239546 0.000000
0.219427 0.236265 0.000000
0.316287 0.232361 0.000000
0.408020 0.228872 0.000000
0.496240 0.225858 0.000000
0.581684 0.223266 0.000000
0.664759 0.221060 0.000000
0.745726 0.219213 0.000000
0.824763 0.217705 0.000000
0.902001 0.216521 0.000000
0.977539 0.215645 0.000000
1.000000 0.215064 0.000000
1.000000 0.214040 0.000000
1.000000 0.212891 0.000000
1.000000 0.212939 0.000000
1.000000 0.213180 0.000000
1.000000 0.213180 0.000000
0.131046 0.320032 0.000000
0.212013 0.317061 0.000000
0.308838 0.313553 0.000000
0.401424 0.310146 0.000000
0.490446 0.307014 0.000000
0.576612 0.304285 0.000000
0.660338 0.301923 0.000000
0.741888 0.299903 0.000000
0.821444 0.298205 0.000000
0.899140 0.296812 0.000000
0.975077 0.295712 0.000000
1.000000 0.294892 0.000000
1.000000 0.293800 0.000000
1.000000 0.292438 0.000000
1.000000 0.292465 0.000000
1.000000 0.292705 0.000000
1.000000 0.292705 0.000000
0.126250 0.399051 0.000000
0.206866 0.396319 0.000000
0.303202 0.393074 0.000000
0.395527 0.389978 0.000000
0.485131 0.386852 0.000000
0.571795 0.383918 0.000000
0.655951 0.381335 0.000000
0.737869 0.379078 0.000000
0.817733 0.377127 0.000000
0.895679 0.375467 0.000000
0.971811 0.374082 0.000000
1.000000 0.372963 0.000000
1.000000 0.371752 0.000000
1.000000 0.370186 0.000000
1.000000 0.370200 0.000000
1.000000 0.370439 0.000000
1.000000 0.370439 0.000000
0.123076 0.476712 0.000000
0.203157 0.474155 0.000000
0.298787 0.471096 0.000000
0.390365 0.468155 0.000000
0.479504 0.465273 0.000000
0.566502 0.462277 0.000000
0.650882 0.459410 0.000000
0.732965 0.456855 0.000000
0.812939 0.454592 0.000000
0.890942 0.452604 0.000000
0.967077 0.450878 0.000000
1.000000 0.449403 0.000000
1.000000 0.447995 0.000000
1.000000 0.446238 0.000000
1.000000 0.446245 0.000000
1.000000 0.446482 0.000000
1.000000 0.446482 0.000000
0.120789 0.553025 0.000000
0.200159 0.550579 0.000000
0.294871 0.547632 0.000000
0.385502 0.544776 0.000000
0.473654 0.541956 0.000000
0.559994 0.539146 0.000000
0.644476 0.536153 0.000000
0.726533 0.533242 0.000000
0.806429 0.530608 0.000000
0.884311 0.528240 0.000000
0.960315 0.526132 0.000000
1.000000 0.524283 0.000000
1.000000 0.522637 0.000000
1.000000 0.520692 0.000000
1.000000 0.520699 0.000000
1.000000 0.520935 0.000000
1.000000 0.520935 0.000000
0.118718 0.627942 0.000000
0.197205 0.625549 0.000000
0.290797 0.622643 0.000000
0.380287 0.619804 0.000000
0.467264 0.616980 0.000000
0.552392 0.614148 0.000000
0.636054 0.611299 0.000000
0.718069 0.608224 0.000000
0.797865 0.605217 0.000000
0.875700 0.602495 0.000000
0.951709 0.600055 0.000000
1.000000 0.597892 0.000000
1.000000 0.596004 0.000000
1.000000 0.593892 0.000000
1.000000 0.593906 0.000000
1.000000 0.594140 0.000000
1.000000 0.594140 0.000000
0.116241 0.701390 0.000000
0.193680 0.698991 0.000000
0.285957 0.696059 0.000000
0.374150 0.693183 0.000000
0.459871 0.690326 0.000000
0.543810 0.687474 0.000000
0.626357 0.684625 0.000000
0.707768 0.681778 0.000000
0.787752 0.678694 0.000000
0.865720 0.675681 0.000000
0.941913 0.672968 0.000000
1.000000 0.670551 0.000000
1.000000 0.668427 0.000000
1.000000 0.666184 0.000000
1.000000 0.666209 0.000000
1.000000 0.666442 0.000000
1.000000 0.666442 0.000000
0.112815 0.773289 0.000000
0.189138 0.770861 0.000000
0.280133 0.767910 0.000000
0.367162 0.765037 0.000000
0.451811 0.762203 0.000000
0.534756 0.759394 0.000000
0.616382 0.756605 0.000000
0.696939 0.753836 0.000000
0.776603 0.751086 0.000000
0.855002 0.748086 0.000000
0.931549 0.745160 0.000000
1.000000 0.742547 0.000000
1.000000 0.740244 0.000000
1.000000 0.737873 0.000000
1.000000 0.737915 0.000000
1.000000 0.738149 0.000000
1.000000 0.738149 0.000000
0.108545 0.843753 0.000000
0.183917 0.841347 0.000000
0.273838 0.838443 0.000000
0.359904 0.835636 0.000000
0.443675 0.832886 0.000000
0.525818 0.830179 0.000000
0.606710 0.827509 0.000000
0.686596 0.824876 0.000000
0.765651 0.822278 0.000000
0.844004 0.819718 0.000000
0.921214 0.816890 0.000000
0.996705 0.814138 0.000000
1.000000 0.811712 0.000000
1.000000 0.809237 0.000000
1.000000 0.809302 0.000000
1.000000 0.809537 0.000000
1.000000 0.809537 0.000000
0.104005 0.913034 0.000000
0.178596 0.910704 0.000000
0.267648 0.907910 0.000000
0.352945 0.905231 0.000000
0.436027 0.902625 0.000000
0.517552 0.900078 0.000000
0.597891 0.897585 0.000000
0.677286 0.895143 0.000000
0.755907 0.892753 0.000000
0.833883 0.890415 0.000000
0.911315 0.888132 0.000000
0.987693 0.885561 0.000000
1.000000 0.883065 0.000000
1.000000 0.880532 0.000000
1.000000 0.880627 0.000000
1.000000 0.880864 0.000000
1.000000 0.880864 0.000000
0.101225 0.981380 0.000000
0.173730 0.979167 0.000000
0.262111 0.976547 0.000000
0.346828 0.974055 0.000000
0.429405 0.971651 0.000000
0.510491 0.969321 0.000000
0.590453 0.967059 0.000000
0.669530 0.964864 0.000000
0.747889 0.962736 0.000000
0.825657 0.960674 0.000000
0.902933 0.958681 0.000000
0.979799 0.956760 0.000000
1.000000 0.954526 0.000000
1.000000 0.952001 0.000000
1.000000 0.952131 0.000000
1.000000 0.952370 0.000000
1.000000 0.952370 0.000000
0.100721 1.000000 0.000000
0.169855 1.000000 0.000000
0.257751 1.000000 0.000000
0.342073 1.000000 0.000000
0.424323 1.000000 0.000000
0.505146 1.000000 0.000000
0.584904 1.000000 0.000000
0.663831 1.000000 0.000000
0.742095 1.000000 0.000000
0.819819 1.000000 0.000000
0.897102 1.000000 0.000000
0.974024 1.000000 0.000000
1.000000 1.000000 0.000000
1.000000 1.000000 0.000000
1.000000 1.000000 0.000000
1.000000 1.000000 0.000000
1.000000 1.000000 0.000000
0.100721 1.000000 0.000000
0.168592 1.000000 0.000000
0.256162 1.000000 0.000000
0.340196 1.000000 0.000000
0.422202 1.000000 0.000000
0.502829 1.000000 0.000000
0.582442 1.000000 0.000000
0.661284 1.000000 0.000000
0.739524 1.000000 0.000000
0.817292 1.000000 0.000000
0.894692 1.000000 0.000000
0.971807 1.000000 0.000000
1.000000 1.000000 0.000000
1.000000 1.000000 0.000000
1.000000 1.000000 0.000000
1.000000 1.000000 0.000000
1.000000 1.000000 0.000000
0.100721 1.000000 0.000000
0.168592 1.000000 0.000000
0.256162 1.000000 0.000000
0.340196 1.000000 0.000000
0.422202 1.000000 0.000000
0.502829 1.000000 0.000000
0.582442 1.000000 0.000000
0.661284 1.000000 0.000000
0.739524 1.000000 0.000000
0.817292 1.000000 0.000000
0.894692 1.000000 0.000000
0.971807 1.000000 0.000000
1.000000 1.000000 0.000000
1.000000 1.000000 0.000000
1.000000 1.000000 0.000000
1.000000 1.000000 0.000000
1.000000 1.000000 0.000000
0.178847 0.009618 0.012569
0.257261 0.009636 0.009083
0.350074 0.009832 0.004861
0.438146 0.010179 0.000864
0.523081 0.010652 0.000000
0.605546 0.011230 0.000000
0.685904 0.011898 0.000000
0.764381 0.012640 0.000000
0.841129 0.013446 0.000000
0.916257 0.014304 0.000000
0.989846 0.015205 0.000000
1.000000 0.016081 0.000000
1.000000 0.016075 0.000000
1.000000 0.016071 0.000000
1.000000 0.016071 0.000000
1.000000 0.016072 0.000000
1.000000 0.016072 0.000000
0.163597 0.070880 0.000000
0.243622 0.066928 0.000000
0.338220 0.062667 0.000000
0.427824 0.059049 0.000000
0.514115 0.055954 0.000000
0.597802 0.053325 0.000000
0.679281 0.051124 0.000000
0.758804 0.049323 0.000000
0.836541 0.047902 0.000000
0.912618 0.046842 0.000000
0.987128 0.046128 0.000000
1.000000 0.045747 0.000000
1.000000 0.044661 0.000000
1.000000 0.043875 0.000000
1.000000 0.043958 0.000000
1.000000 0.044188 0.000000
1.000000 0.044188 0.000000
0.147825 0.156278 0.000000
0.229131 0.152485 0.000000
0.325317 0.148304 0.000000
0.416371 0.144737 0.000000
0.504004 0.141671 0.000000
0.588944 0.139048 0.000000
0.671594 0.136832 0.000000
0.752210 0.134997 0.000000
0.830970 0.133521 0.000000
0.908002 0.132389 0.000000
0.983409 0.131589 0.000000
1.000000 0.131101 0.000000
1.000000 0.129964 0.000000
1.000000 0.128945 0.000000
1.000000 0.128993 0.000000
1.000000 0.129224 0.000000
1.000000 0.129224 0.000000
0.136604 0.238724 0.000000
0.218082 0.235310 0.000000
0.315400 0.231271 0.000000
0.407636 0.227691 0.000000
0.496355 0.224590 0.000000
0.582294 0.221911 0.000000
0.665865 0.219618 0.000000
0.747328 0.217686 0.000000
0.826864 0.216094 0.000000
0.904601 0.214824 0.000000
0.980639 0.213864 0.000000
1.000000 0.213199 0.000000
1.000000 0.212021 0.000000
1.000000 0.210778 0.000000
1.000000 0.210801 0.000000
1.000000 0.211033 0.000000
1.000000 0.211033 0.000000
0.128856 0.319360 0.000000
0.210218 0.316273 0.000000
0.307522 0.312624 0.000000
0.400597 0.309104 0.000000
0.490130 0.305885 0.000000
0.576804 0.303069 0.000000
0.661036 0.300622 0.000000
0.743092 0.298517 0.000000
0.823156 0.296734 0.000000
0.901361 0.295258 0.000000
0.977807 0.294074 0.000000
1.000000 0.293169 0.000000
1.000000 0.291932 0.000000
1.000000 0.290475 0.000000
1.000000 0.290480 0.000000
1.000000 0.290713 0.000000
1.000000 0.290713 0.000000
0.123639 0.398570 0.000000
0.204659 0.395722 0.000000
0.301486 0.392337 0.000000
0.394288 0.389105 0.000000
0.484388 0.385870 0.000000
0.571570 0.382850 0.000000
0.656243 0.380183 0.000000
0.738676 0.377841 0.000000
0.819057 0.375806 0.000000
0.897520 0.374061 0.000000
0.974169 0.372592 0.000000
1.000000 0.371388 0.000000
1.000000 0.370043 0.000000
1.000000 0.368383 0.000000
1.000000 0.368377 0.000000
1.000000 0.368609 0.000000
1.000000 0.368609 0.000000
0.120049 0.476432 0.000000
0.200544 0.473758 0.000000
0.296675 0.470559 0.000000
0.388740 0.467482 0.000000
0.478359 0.464467 0.000000
0.565861 0.461363 0.000000
0.650767 0.458413 0.000000
0.733375 0.455773 0.000000
0.813873 0.453425 0.000000
0.892399 0.451352 0.000000
0.969059 0.449542 0.000000
1.000000 0.447982 0.000000
1.000000 0.446453 0.000000
1.000000 0.444602 0.000000
1.000000 0.444592 0.000000
1.000000 0.444823 0.000000
1.000000 0.444823 0.000000
0.117348 0.552953 0.000000
0.197140 0.550391 0.000000
0.292363 0.547304 0.000000
0.383490 0.544311 0.000000
0.472132 0.541358 0.000000
0.558958 0.538416 0.000000
0.643953 0.535317 0.000000
0.726541 0.532321 0.000000
0.806968 0.529603 0.000000
0.885381 0.527149 0.000000
0.961913 0.524956 0.000000
1.000000 0.523020 0.000000
1.000000 0.521263 0.000000
1.000000 0.519225 0.000000
1.000000 0.519217 0.000000
1.000000 0.519446 0.000000
1.000000 0.519446 0.000000
0.114862 0.628088 0.000000
0.193778 0.625577 0.000000
0.287891 0.622531 0.000000
0.377886 0.619555 0.000000
0.465361 0.616597 0.000000
0.550984 0.613632 0.000000
0.635137 0.610651 0.000000
0.717667 0.607470 0.000000
0.797997 0.604376 0.000000
0.876365 0.601568 0.000000
0.952906 0.599039 0.000000
1.000000 0.596788 0.000000
1.000000 0.594812 0.000000
1.000000 0.592591 0.000000
1.000000 0.592591 0.000000
1.000000 0.592820 0.000000
1.000000 0.592820 0.000000
0.111966 0.701759 0.000000
0.189841 0.699244 0.000000
0.282647 0.696170 0.000000
0.371352 0.693156 0.000000
0.457575 0.690163 0.000000
0.542011 0.687176 0.000000
0.625053 0.684193 0.000000
0.706956 0.681211 0.000000
0.787457 0.678019 0.000000
0.865962 0.674918 0.000000
0.942690 0.672116 0.000000
1.000000 0.669610 0.000000
1.000000 0.667397 0.000000
1.000000 0.665047 0.000000
1.000000 0.665062 0.000000
1.000000 0.665291 0.000000
1.000000 0.665291 0.000000
0.108112 0.773888 0.000000
0.184876 0.771342 0.000000
0.276402 0.768247 0.000000
0.363946 0.765234 0.000000
0.449100 0.762262 0.000000
0.532547 0.759316 0.000000
0.614671 0.756391 0.000000
0.695724 0.753485 0.000000
0.775883 0.750599 0.000000
0.854803 0.747490 0.000000
0.931890 0.744474 0.000000
1.000000 0.741771 0.000000
1.000000 0.739378 0.000000
1.000000 0.736902 0.000000
1.000000 0.736936 0.000000
1.000000 0.737166 0.000000
1.000000 0.737166 0.000000
0.103395 0.844585 0.000000
0.179211 0.842058 0.000000
0.269668 0.839008 0.000000
0.356252 0.836059 0.000000
0.440532 0.833170 0.000000
0.523179 0.830324 0.000000
0.604573 0.827516 0.000000
0.684960 0.824745 0.000000
0.764514 0.822009 0.000000
0.843366 0.819311 0.000000
0.921103 0.816374 0.000000
0.997140 0.813530 0.000000
1.000000 0.811013 0.000000
1.000000 0.808434 0.000000
1.000000 0.808494 0.000000
1.000000 0.808726 0.000000
1.000000 0.808726 0.000000
0.101612 0.914124 0.000000
0.173428 0.911648 0.000000
0.263020 0.908707 0.000000
0.348839 0.905884 0.000000
0.432435 0.903137 0.000000
0.514469 0.900450 0.000000
0.595314 0.897817 0.000000
0.675214 0.895236 0.000000
0.754339 0.892706 0.000000
0.832819 0.890229 0.000000
0.910755 0.887806 0.000000
0.987667 0.885125 0.000000
1.000000 0.882538 0.000000
1.000000 0.879903 0.000000
1.000000 0.879994 0.000000
1.000000 0.880229 0.000000
1.000000 0.880229 0.000000
0.101214 0.982727 0.000000
0.168083 0.980349 0.000000
0.257009 0.977579 0.000000
0.342254 0.974942 0.000000
0.425349 0.972395 0.000000
0.506950 0.969924 0.000000
0.587424 0.967521 0.000000
0.667010 0.965186 0.000000
0.745878 0.962916 0.000000
0.824156 0.960714 0.000000
0.901941 0.958581 0.000000
0.979317 0.956518 0.000000
1.000000 0.954174 0.000000
1.000000 0.951550 0.000000
1.000000 0.951679 0.000000
1.000000 0.951917 0.000000
1.000000 0.951917 0.000000
0.100721 1.000000 0.000000
0.163724 1.000000 0.000000
0.252163 1.000000 0.000000
0.337018 1.000000 0.000000
0.419793 1.000000 0.000000
0.501136 1.000000 0.000000
0.581411 1.000000 0.000000
0.660854 1.000000 0.000000
0.739633 1.000000 0.000000
0.817872 1.000000 0.000000
0.895671 1.000000 0.000000
0.973109 1.000000 0.000000
1.000000 1.000000 0.000000
1.000000 1.000000 0.000000
1.000000 1.000000 0.000000
1.000000 1.000000 0.000000
1.000000 1.000000 0.000000
0.100721 1.000000 0.000000
0.162167 1.000000 0.000000
0.250290 1.000000 0.000000
0.334859 1.000000 0.000000
0.417392 1.000000 0.000000
0.498541 1.000000 0.000000
0.578676 1.000000 0.000000
0.658039 1.000000 0.000000
0.736801 1.000000 0.000000
0.815094 1.000000 0.000000
0.893022 1.000000 0.000000
0.970670 1.000000 0.000000
1.000000 1.000000 0.000000
1.000000 1.000000 0.000000
1.000000 1.000000 0.000000
1.000000 1.000000 0.000000
1.000000 1.000000 0.000000
0.100721 1.000000 0.000000
0.162167 1.000000 0.000000
0.250290 1.000000 0.000000
0.334859 1.000000 0.000000
0.417392 1.000000 0.000000
0.498541 1.000000 0.000000
0.578676 1.000000 0.000000
0.658039 1.000000 0.000000
0.736801 1.000000 0.000000
0.815094 1.000000 0.000000
0.893022 1.000000 0.000000
0.970670 1.000000 0.000000
1.000000 1.000000 0.000000
1.000000 1.000000 0.000000
1.000000 1.000000 0.000000
1.000000 1.000000 0.000000
1.000000 1.000000 0.000000
0.176690 0.009609 0.108013
0.255468 0.009681 0.103942
0.348515 0.009936 0.098799
0.436795 0.010335 0.093929
0.521918 0.010854 0.089271
0.604555 0.011472 0.084811
0.685069 0.012175 0.080547
0.763690 0.012949 0.076486
0.840569 0.013782 0.072634
0.915817 0.014664 0.069000
0.989516 0.015585 0.065591
1.000000 0.016492 0.062462
1.000000 0.016483 0.060545
1.000000 0.016475 0.058918
1.000000 0.016474 0.058772
1.000000 0.016475 0.058993
