resources/luts/sunlit-gold.cube
# Generated by FotoReady. Released under the project GPL-3.0-or-later license.
TITLE "sunlit-gold"
LUT_3D_SIZE 5
DOMAIN_MIN 0 0 0
DOMAIN_MAX 1 1 1
0.179987 0.009634 0.000000
0.523786 0.010576 0.000000
0.841503 0.013354 0.000000
1.000000 0.015987 0.000000
1.000000 0.015987 0.000000
0.130938 0.319933 0.000000
0.490340 0.306914 0.000000
0.821341 0.298103 0.000000
1.000000 0.293700 0.000000
1.000000 0.292603 0.000000
0.118608 0.627844 0.000000
0.467162 0.616883 0.000000
0.797770 0.605120 0.000000
1.000000 0.595907 0.000000
1.000000 0.594040 0.000000
0.103904 0.912941 0.000000
0.435930 0.902531 0.000000
0.755813 0.892658 0.000000
1.000000 0.882968 0.000000
1.000000 0.880763 0.000000
0.100721 1.000000 0.000000
0.422095 1.000000 0.000000
0.739416 1.000000 0.000000
1.000000 1.000000 0.000000
1.000000 1.000000 0.000000
0.174073 0.009619 0.199266
0.520828 0.011065 0.179097
0.840051 0.014119 0.159395
1.000000 0.016888 0.144469
1.000000 0.016876 0.142096
0.126004 0.317341 0.132467
0.490683 0.303278 0.109286
0.828947 0.293252 0.093593
1.000000 0.287442 0.084299
1.000000 0.285974 0.084072
0.110127 0.627009 0.066662
0.460776 0.615660 0.043368
0.798140 0.602198 0.031883
1.000000 0.591749 0.034467
1.000000 0.589531 0.036405
0.101587 0.913883 0.030292
0.423512 0.904130 0.010928
0.750320 0.892376 0.000000
1.000000 0.881154 0.000000
1.000000 0.878642 0.000000
0.100667 1.000000 0.019485
0.406195 1.000000 0.000000
0.730603 1.000000 0.000000
1.000000 1.000000 0.000000
1.000000 1.000000 0.000000
0.165474 0.009819 0.536321
0.513663 0.011970 0.520387
0.838293 0.015507 0.493127
1.000000 0.018509 0.467329
1.000000 0.018481 0.461822
0.127302 0.311969 0.479355
0.488073 0.298705 0.461469
0.830967 0.288259 0.435875
1.000000 0.282332 0.415560
1.000000 0.280864 0.412112
0.107250 0.623110 0.408867
0.452735 0.612508 0.388108
0.797262 0.597136 0.369874
1.000000 0.584917 0.359866
1.000000 0.582267 0.358285
0.101434 0.910140 0.363530
0.408898 0.903725 0.340277
0.741459 0.891014 0.321575
1.000000 0.877961 0.311125
1.000000 0.875060 0.311550
0.100539 1.000000 0.346151
0.389136 1.000000 0.318421
0.718692 1.000000 0.297473
1.000000 1.000000 0.278384
1.000000 1.000000 0.274777
0.159400 0.010210 0.839832
0.499813 0.012849 0.825383
0.831844 0.016864 0.808762
1.000000 0.020150 0.778018
1.000000 0.020105 0.769525
0.132110 0.307832 0.793336
0.483242 0.296602 0.784650
0.825820 0.285614 0.764307
1.000000 0.279254 0.737553
1.000000 0.278022 0.731242
0.114104 0.617028 0.731609
0.451703 0.606909 0.723953
0.791972 0.591908 0.710827
1.000000 0.579231 0.691570
1.000000 0.576588 0.687049
0.101218 0.906529 0.684379
0.403624 0.899291 0.671916
0.732713 0.887758 0.654271
1.000000 0.873393 0.636463
1.000000 0.870142 0.633665
0.100586 1.000000 0.660548
0.385323 1.000000 0.643242
0.708608 1.000000 0.619319
1.000000 1.000000 0.595116
1.000000 1.000000 0.590531
0.156261 0.010410 0.959480
0.491022 0.013235 0.958064
0.817463 0.017355 0.954145
1.000000 0.021086 0.950121
1.000000 0.021086 0.950121
0.135736 0.305762 0.949708
0.480423 0.295848 0.944508
0.817203 0.286476 0.939672
1.000000 0.277183 0.936446
1.000000 0.276156 0.936486
0.122468 0.612943 0.929796
0.452890 0.603722 0.929725
0.786750 0.589845 0.921071
1.000000 0.576313 0.903382
1.000000 0.573829 0.896184
0.101083 0.902494 0.884833
0.404365 0.895549 0.878405
0.730751 0.884328 0.866307
1.000000 0.870168 0.847547
1.000000 0.866911 0.841913
0.100726 1.000000 0.856386
0.383178 1.000000 0.844024
0.706918 1.000000 0.824503
1.000000 1.000000 0.798122
1.000000 1.000000 0.791776
