resources/luts/sunset-pop.cube
TITLE "sunset-pop"
LUT_3D_SIZE 6
DOMAIN_MIN 0 0 0
DOMAIN_MAX 1 1 1
0.009600 0.002400 0.014400
0.220789 0.002330 0.013981
0.492755 0.002068 0.012409
0.760980 0.001678 0.010070
1.000000 0.001264 0.007583
1.000000 0.001264 0.007583
0.008801 0.189581 0.013201
0.199975 0.180167 0.011965
0.471818 0.167537 0.009712
0.740098 0.154845 0.007198
1.000000 0.142143 0.004738
1.000000 0.132911 0.004918
0.006131 0.430830 0.009197
0.171172 0.421522 0.007676
0.443275 0.409051 0.005098
0.712521 0.396913 0.002798
0.981291 0.385486 0.001042
1.000000 0.376427 0.001019
0.002955 0.669095 0.004399
0.142542 0.660091 0.003260
0.417259 0.648664 0.001325
0.689565 0.637849 0.000191
0.960883 0.627467 0.000000
1.000000 0.618682 0.000000
0.003413 0.907241 0.000794
0.118087 0.898777 0.000373
0.395956 0.888442 0.000000
0.670068 0.878286 0.000000
0.941777 0.868059 0.000000
1.000000 0.859470 0.000000
0.005070 1.000000 0.000118
0.100368 1.000000 0.000003
0.379576 1.000000 0.000000
0.654137 1.000000 0.000000
0.925766 1.000000 0.000000
1.000000 1.000000 0.000000
0.009569 0.002392 0.194697
0.216834 0.002286 0.185848
0.488741 0.001993 0.173167
0.756948 0.001591 0.159810
1.000000 0.001172 0.146336
1.000000 0.001177 0.138114
0.008562 0.186012 0.177059
0.195921 0.176587 0.167551
0.467804 0.163945 0.154309
0.736132 0.151251 0.140851
1.000000 0.138563 0.127442
1.000000 0.129321 0.119370
0.005810 0.427298 0.151443
0.167093 0.417999 0.141731
0.439311 0.405536 0.128230
0.708834 0.393501 0.115022
0.977801 0.382139 0.102354
1.000000 0.373082 0.094021
0.002766 0.665642 0.125197
0.138685 0.656693 0.115873
0.413673 0.645341 0.103024
0.686131 0.634562 0.090959
0.957491 0.624179 0.079752
1.000000 0.615397 0.071401
0.003639 0.903980 0.100188
0.114487 0.895504 0.091523
0.392496 0.885177 0.080160
0.666596 0.874993 0.069055
0.938257 0.864730 0.057915
1.000000 0.856139 0.049507
0.005428 1.000000 0.083273
0.096851 1.000000 0.074869
0.376125 1.000000 0.063748
0.650649 1.000000 0.052588
0.922214 1.000000 0.041381
1.000000 1.000000 0.032910
0.009442 0.002361 0.427337
0.211509 0.002211 0.418366
0.483329 0.001876 0.405616
0.751487 0.001450 0.392318
1.000000 0.001018 0.378976
1.000000 0.001023 0.370917
0.008178 0.181248 0.409587
0.190448 0.171805 0.400145
0.462352 0.159139 0.387002
0.730716 0.146435 0.373742
0.997327 0.133830 0.360626
1.000000 0.124559 0.352677
0.005260 0.422571 0.384117
0.161522 0.413278 0.374610
0.433964 0.400865 0.361387
0.704040 0.389056 0.348558
0.973483 0.377877 0.336367
1.000000 0.368844 0.328220
0.002518 0.661093 0.358393
0.133619 0.652249 0.349362
0.409189 0.641094 0.336977
0.682102 0.630467 0.325478
0.953665 0.620147 0.314676
1.000000 0.611401 0.306558
0.004323 0.899855 0.334286
0.110181 0.891407 0.325954
0.388570 0.881173 0.315073
0.662726 0.870989 0.304280
0.934309 0.860669 0.293480
1.000000 0.852084 0.285350
0.006548 1.000000 0.318044
0.092876 1.000000 0.309927
0.372326 1.000000 0.299131
0.646778 1.000000 0.288327
0.918096 1.000000 0.277515
1.000000 1.000000 0.269377
0.009229 0.002307 0.657093
0.206126 0.002122 0.647979
0.477885 0.001750 0.635108
0.746020 0.001307 0.621808
1.000000 0.000868 0.608526
1.000000 0.000874 0.600545
0.007756 0.176473 0.639173
0.184953 0.167016 0.629750
0.456899 0.154330 0.616633
0.725315 0.141620 0.603486
0.992308 0.129167 0.590569
1.000000 0.119878 0.582649
0.004713 0.417845 0.613710
0.155962 0.408559 0.604341
0.428781 0.396268 0.591303
0.699384 0.384669 0.578746
0.969280 0.373655 0.566913
1.000000 0.364654 0.558849
0.002449 0.656623 0.588334
0.128694 0.647865 0.579504
0.404822 0.636892 0.567464
0.678160 0.626399 0.556386
0.949822 0.616108 0.545717
1.000000 0.607393 0.537689
0.005133 0.895775 0.564908
0.105970 0.887342 0.556785
0.384634 0.877164 0.546110
0.658811 0.866963 0.535437
0.930283 0.856569 0.524760
1.000000 0.847982 0.516725
0.007734 1.000000 0.549049
0.088901 1.000000 0.541021
0.368480 1.000000 0.530346
0.642813 1.000000 0.519667
0.913842 1.000000 0.508984
1.000000 1.000000 0.500944
0.008939 0.002235 0.885062
0.200690 0.002020 0.875823
0.472416 0.001618 0.862836
0.740552 0.001165 0.849537
1.000000 0.000739 0.836319
1.000000 0.000742 0.828388
0.007302 0.171687 0.866992
0.179438 0.162220 0.857589
0.451446 0.149519 0.844490
0.719942 0.136812 0.831447
0.987436 0.124565 0.818716
1.000000 0.115268 0.810802
0.004172 0.413118 0.841530
0.150414 0.403843 0.832285
0.423749 0.391738 0.819422
0.694859 0.380333 0.807124
0.965186 0.369472 0.795632
1.000000 0.360506 0.787634
0.002545 0.652224 0.816486
0.123901 0.643538 0.807831
0.400569 0.632732 0.796122
0.674247 0.622342 0.785350
0.945962 0.612060 0.774755
1.000000 0.603373 0.766783
0.006064 0.891736 0.793715
0.101837 0.883305 0.785740
0.380689 0.873150 0.775145
0.654853 0.862915 0.764547
0.926181 0.852430 0.753947
1.000000 0.843831 0.745970
0.008936 1.000000 0.778063
0.084918 1.000000 0.770092
0.364584 1.000000 0.759493
0.638754 1.000000 0.748891
0.909449 1.000000 0.738286
1.000000 1.000000 0.730306
0.008896 0.002224 0.915205
0.196848 0.002006 0.913899
0.468600 0.001594 0.911425
0.736735 0.001132 0.908652
1.000000 0.000717 0.905956
1.000000 0.000717 0.905956
0.007238 0.168155 0.912719
0.175580 0.158684 0.911271
0.447627 0.145969 0.908702
0.716157 0.133260 0.906211
0.983800 0.121069 0.904065
1.000000 0.111777 0.904062
0.004044 0.409632 0.907927
0.146489 0.400358 0.906657
0.420027 0.388313 0.904374
0.691335 0.376979 0.902702
0.961872 0.366192 0.901897
1.000000 0.357271 0.901873
0.002614 0.648868 0.903657
0.120210 0.640206 0.903002
0.397159 0.629479 0.901972
0.671021 0.619149 0.901861
0.942815 0.608892 0.901861
1.000000 0.600246 0.901861
0.006513 0.888560 0.901861
0.098453 0.880131 0.901861
0.377476 0.870009 0.901861
0.651683 0.859773 0.901861
0.922958 0.849248 0.901861
1.000000 0.840651 0.901861
0.009591 1.000000 0.901861
0.081702 1.000000 0.901861
0.361479 1.000000 0.901861
0.635569 1.000000 0.901861
0.906036 1.000000 0.901861
1.000000 1.000000 0.901861
