resources/luts/sunset-pop.cube
TITLE "sunset-pop"
LUT_3D_SIZE 16
DOMAIN_MIN 0 0 0
DOMAIN_MAX 1 1 1
0.009600 0.002400 0.014400
0.034703 0.002399 0.014394
0.128632 0.002377 0.014263
0.220789 0.002330 0.013981
0.312031 0.002261 0.013568
0.402638 0.002173 0.013038
0.492755 0.002068 0.012409
0.582478 0.001949 0.011695
0.671869 0.001818 0.010911
0.760980 0.001678 0.010070
0.849850 0.001531 0.009188
0.938512 0.001380 0.008278
1.000000 0.001264 0.007583
1.000000 0.001264 0.007583
1.000000 0.001264 0.007583
1.000000 0.001264 0.007583
0.009587 0.024644 0.014381
0.032368 0.023547 0.014359
0.126341 0.019249 0.014185
0.218516 0.014909 0.013891
0.309784 0.010522 0.013493
0.400428 0.006071 0.013003
0.490590 0.002071 0.012425
0.580320 0.001952 0.011713
0.669719 0.001822 0.010930
0.758837 0.001682 0.010091
0.847712 0.001535 0.009210
0.936378 0.001383 0.008300
1.000000 0.001264 0.007583
1.000000 0.001264 0.007583
1.000000 0.001264 0.007583
1.000000 0.001264 0.007583
0.009332 0.107887 0.013997
0.023043 0.106821 0.013952
0.117193 0.102627 0.013556
0.209342 0.098414 0.013066
0.300557 0.094185 0.012494
0.391144 0.089939 0.011850
0.481257 0.085680 0.011146
0.570990 0.081408 0.010393
0.660408 0.077126 0.009601
0.749560 0.072834 0.008782
0.838484 0.068535 0.007945
0.927211 0.064229 0.007101
1.000000 0.059938 0.006381
1.000000 0.055776 0.006466
1.000000 0.051607 0.006551
1.000000 0.050536 0.006573
0.008801 0.189581 0.013201
0.013346 0.188531 0.013186
0.107819 0.184356 0.012608
0.199975 0.180167 0.011965
0.291168 0.175967 0.011260
0.381729 0.171756 0.010506
0.471818 0.167537 0.009712
0.561534 0.163311 0.008889
0.650944 0.159080 0.008048
0.740098 0.154845 0.007198
0.829035 0.150609 0.006352
0.917785 0.146372 0.005517
1.000000 0.142143 0.004738
1.000000 0.138053 0.004817
1.000000 0.133962 0.004897
1.000000 0.132911 0.004918
0.008055 0.270488 0.012082
0.008065 0.269451 0.012098
0.098264 0.265287 0.011414
0.190462 0.261110 0.010655
0.281662 0.256924 0.009857
0.372222 0.252733 0.009030
0.462314 0.248537 0.008183
0.552038 0.244339 0.007329
0.641466 0.240139 0.006475
0.730647 0.235940 0.005634
0.819621 0.231743 0.004814
0.908504 0.227592 0.004026
0.997401 0.223528 0.003280
1.000000 0.219462 0.003305
1.000000 0.215393 0.003377
1.000000 0.214348 0.003395
0.007147 0.350859 0.010721
0.007160 0.349828 0.010740
0.088574 0.345683 0.010041
0.180847 0.341515 0.009204
0.272080 0.337342 0.008349
0.362666 0.333167 0.007486
0.452785 0.328992 0.006625
0.542544 0.324817 0.005774
0.632013 0.320644 0.004945
0.721305 0.316506 0.004146
0.810565 0.312456 0.003390
0.899812 0.308489 0.002684
0.989058 0.304599 0.002039
1.000000 0.300573 0.001997
1.000000 0.296514 0.002057
1.000000 0.295472 0.002072
0.006131 0.430830 0.009197
0.006145 0.429803 0.009217
0.078789 0.425681 0.008555
0.171172 0.421522 0.007676
0.262466 0.417364 0.006801
0.353103 0.413206 0.005939
0.443275 0.409051 0.005098
0.533129 0.404919 0.004287
0.622861 0.400873 0.003517
0.712521 0.396913 0.002798
0.802135 0.393032 0.002139
0.891721 0.389225 0.001551
0.981291 0.385486 0.001042
1.000000 0.381520 0.000964
1.000000 0.377468 0.001008
1.000000 0.376427 0.001019
0.005057 0.510485 0.007586
0.005071 0.509462 0.007607
0.068950 0.505367 0.007020
0.161479 0.501221 0.006135
0.252861 0.497079 0.005276
0.343593 0.492950 0.004450
0.434007 0.488901 0.003665
0.524232 0.484941 0.002930
0.614329 0.481063 0.002255
0.704336 0.477260 0.001649
0.794280 0.473527 0.001124
0.884181 0.469857 0.000687
0.974051 0.466247 0.000349
1.000000 0.462360 0.000275
1.000000 0.458312 0.000300
1.000000 0.457273 0.000307
0.003975 0.589887 0.005962
0.003989 0.588867 0.005983
0.059095 0.584800 0.005496
0.151813 0.580673 0.004642
0.243438 0.576615 0.003836
0.334550 0.572649 0.003081
0.425346 0.568769 0.002387
0.515932 0.564966 0.001762
0.606369 0.561235 0.001217
0.696699 0.557569 0.000760
0.786950 0.553964 0.000402
0.877142 0.550413 0.000152
0.967288 0.546910 0.000019
1.000000 0.543115 0.000002
1.000000 0.539071 0.000005
1.000000 0.538033 0.000005
0.002955 0.669095 0.004399
0.002966 0.668076 0.004419
0.049340 0.664068 0.004047
0.142542 0.660091 0.003260
0.234602 0.656203 0.002540
0.326102 0.652396 0.001893
0.417259 0.648664 0.001325
0.508181 0.644999 0.000846
0.598936 0.641396 0.000464
0.689565 0.637849 0.000191
0.780099 0.634352 0.000035
0.870555 0.630898 0.000000
0.960883 0.627467 0.000000
1.000000 0.623754 0.000000
1.000000 0.619719 0.000000
1.000000 0.618682 0.000000
0.002466 0.748357 0.002969
0.002468 0.747336 0.002987
0.040110 0.743402 0.002733
0.133861 0.739589 0.002048
0.226336 0.735852 0.001451
0.318204 0.732186 0.000945
0.409697 0.728583 0.000538
0.500933 0.725037 0.000239
0.591982 0.721543 0.000056
0.682888 0.718095 0.000000
0.773629 0.714675 0.000000
0.864182 0.711264 0.000000
0.954557 0.707858 0.000000
1.000000 0.704216 0.000000
1.000000 0.700189 0.000000
1.000000 0.699156 0.000000
0.002636 0.827746 0.001744
0.002630 0.826724 0.001758
0.031415 0.822824 0.001612
0.125725 0.819156 0.001066
0.218595 0.815552 0.000627
0.310809 0.812007 0.000298
0.402617 0.808515 0.000086
0.494144 0.805070 0.000001
0.585430 0.801659 0.000000
0.676459 0.798259 0.000000
0.767257 0.794865 0.000000
0.857839 0.791468 0.000000
0.948216 0.788063 0.000000
1.000000 0.784474 0.000000
1.000000 0.780459 0.000000
1.000000 0.779428 0.000000
0.003413 0.907241 0.000794
0.003399 0.906218 0.000804
0.023196 0.902318 0.000744
0.118087 0.898777 0.000373
0.211336 0.895288 0.000127
0.303874 0.891846 0.000009
0.395956 0.888442 0.000000
0.487643 0.885053 0.000000
0.578999 0.881670 0.000000
0.670068 0.878286 0.000000
0.760878 0.874894 0.000000
0.851444 0.871487 0.000000
0.941777 0.868059 0.000000
1.000000 0.864501 0.000000
1.000000 0.860498 0.000000
1.000000 0.859470 0.000000
0.004746 0.986820 0.000190
0.004726 0.985796 0.000196
0.015381 0.981867 0.000188
0.110903 0.978436 0.000028
0.204507 0.975041 0.000000
0.297263 0.971663 0.000000
0.389445 0.968292 0.000000
0.481189 0.964920 0.000000
0.572571 0.961541 0.000000
0.663636 0.958149 0.000000
0.754411 0.954736 0.000000
0.844916 0.951296 0.000000
0.935160 0.947822 0.000000
1.000000 0.944264 0.000000
1.000000 0.940275 0.000000
1.000000 0.939250 0.000000
0.005070 1.000000 0.000118
0.005070 1.000000 0.000118
0.006431 1.000000 0.000115
0.102646 1.000000 0.000002
0.196507 1.000000 0.000000
0.289451 1.000000 0.000000
0.381795 1.000000 0.000000
0.473678 1.000000 0.000000
0.565175 1.000000 0.000000
0.656329 1.000000 0.000000
0.747165 1.000000 0.000000
0.837699 1.000000 0.000000
0.927936 1.000000 0.000000
1.000000 1.000000 0.000000
1.000000 1.000000 0.000000
1.000000 1.000000 0.000000
0.005070 1.000000 0.000118
0.005070 1.000000 0.000118
0.005070 1.000000 0.000118
0.100368 1.000000 0.000003
0.194258 1.000000 0.000000
0.287220 1.000000 0.000000
0.379576 1.000000 0.000000
0.471469 1.000000 0.000000
0.562975 1.000000 0.000000
0.654137 1.000000 0.000000
0.744981 1.000000 0.000000
0.835521 1.000000 0.000000
0.925766 1.000000 0.000000
1.000000 1.000000 0.000000
1.000000 1.000000 0.000000
1.000000 1.000000 0.000000
0.009600 0.002400 0.035811
0.034251 0.002398 0.034826
0.128188 0.002375 0.030880
0.220348 0.002327 0.026771
0.311594 0.002259 0.022512
0.402207 0.002171 0.018107
0.492333 0.002068 0.013537
0.582059 0.001950 0.011698
0.671452 0.001819 0.010914
0.760564 0.001679 0.010074
0.849435 0.001532 0.009192
0.938097 0.001380 0.008282
1.000000 0.001264 0.007583
1.000000 0.001264 0.007583
1.000000 0.001264 0.007583
1.000000 0.001264 0.007583
0.009583 0.024226 0.033872
0.031914 0.023129 0.032872
0.125898 0.018828 0.028878
0.218078 0.014485 0.024750
0.309352 0.010095 0.020494
0.400004 0.005639 0.016104
0.490169 0.002071 0.012428
0.579901 0.001953 0.011717
0.669302 0.001822 0.010934
0.758420 0.001682 0.010095
0.847297 0.001536 0.009214
0.935964 0.001384 0.008304
1.000000 0.001264 0.007583
1.000000 0.001264 0.007583
1.000000 0.001264 0.007583
1.000000 0.001264 0.007583
0.009322 0.107481 0.025982
0.022581 0.106415 0.024953
0.116752 0.102221 0.020700
0.208911 0.098010 0.016312
0.300136 0.093781 0.012503
0.390726 0.089535 0.011860
0.480841 0.085276 0.011157
0.570576 0.081004 0.010404
0.659996 0.076721 0.009613
0.749149 0.072429 0.008794
0.838074 0.068129 0.007958
0.926802 0.063823 0.007114
1.000000 0.059531 0.006389
1.000000 0.055368 0.006474
1.000000 0.051199 0.006559
1.000000 0.050127 0.006581
0.008797 0.189181 0.017595
0.012881 0.188132 0.016576
0.107388 0.183958 0.012617
0.199551 0.179769 0.011974
0.290748 0.175569 0.011271
0.381312 0.171358 0.010517
0.471403 0.167139 0.009723
0.561121 0.162913 0.008901
0.650532 0.158681 0.008060
0.739687 0.154447 0.007211
0.828625 0.150210 0.006364
0.917376 0.145973 0.005530
1.000000 0.141742 0.004745
1.000000 0.137653 0.004825
1.000000 0.133561 0.004905
1.000000 0.132511 0.004925
0.008059 0.270092 0.012088
0.008069 0.269055 0.012104
0.097834 0.264892 0.011425
0.190039 0.260715 0.010666
0.281242 0.256530 0.009869
0.371805 0.252338 0.009042
0.461899 0.248142 0.008196
0.551625 0.243944 0.007341
0.641054 0.239744 0.006488
0.730236 0.235545 0.005646
0.819210 0.231348 0.004826
0.908091 0.227195 0.004037
0.996987 0.223130 0.003290
1.000000 0.219064 0.003312
1.000000 0.214994 0.003384
1.000000 0.213949 0.003402
0.007152 0.350466 0.010728
0.007165 0.349435 0.010747
0.088144 0.345291 0.010053
0.180423 0.341122 0.009216
0.271660 0.336950 0.008361
0.362249 0.332775 0.007499
0.452370 0.328599 0.006637
0.542130 0.324424 0.005786
0.631601 0.320251 0.004957
0.720892 0.316112 0.004158
0.810149 0.312060 0.003400
0.899394 0.308092 0.002694
0.988639 0.304201 0.002048
1.000000 0.300176 0.002003
1.000000 0.296117 0.002063
1.000000 0.295075 0.002078
0.006137 0.430438 0.009205
0.006150 0.429412 0.009225
0.078358 0.425291 0.008568
0.170748 0.421132 0.007688
0.262046 0.416973 0.006814
0.352686 0.412815 0.005951
0.442860 0.408660 0.005110
0.532713 0.404527 0.004299
0.622444 0.400480 0.003528
0.712102 0.396518 0.002808
0.801715 0.392636 0.002149
0.891299 0.388828 0.001559
0.980868 0.385087 0.001049
1.000000 0.381123 0.000968
1.000000 0.377071 0.001012
1.000000 0.376030 0.001024
0.005063 0.510095 0.007594
0.005077 0.509072 0.007615
0.068518 0.504977 0.007032
0.161055 0.500831 0.006147
0.252441 0.496689 0.005288
0.343174 0.492560 0.004462
0.433587 0.488510 0.003676
0.523811 0.484548 0.002940
0.613906 0.480668 0.002264
0.703912 0.476864 0.001658
0.793855 0.473130 0.001131
0.883754 0.469460 0.000693
0.973623 0.465849 0.000353
1.000000 0.461963 0.000277
1.000000 0.457916 0.000303
1.000000 0.456876 0.000309
0.003980 0.589498 0.005970
0.003994 0.588478 0.005991
0.058662 0.584412 0.005509
0.151387 0.580284 0.004654
0.243014 0.576225 0.003847
0.334126 0.572258 0.003091
0.424922 0.568376 0.002396
0.515506 0.564572 0.001771
0.605942 0.560840 0.001224
0.696271 0.557174 0.000766
0.786521 0.553567 0.000407
0.876711 0.550015 0.000155
0.966857 0.546512 0.000020
1.000000 0.542719 0.000002
1.000000 0.538675 0.000005
1.000000 0.537637 0.000006
0.002960 0.668707 0.004407
0.002970 0.667688 0.004426
0.048902 0.663679 0.004059
0.142111 0.659701 0.003271
0.234172 0.655812 0.002550
0.325673 0.652004 0.001901
0.416829 0.648270 0.001332
0.507751 0.644605 0.000852
0.598504 0.641001 0.000469
0.689133 0.637453 0.000194
0.779666 0.633955 0.000036
0.870122 0.630501 0.000000
0.960450 0.627069 0.000000
1.000000 0.623359 0.000000
1.000000 0.619323 0.000000
1.000000 0.618287 0.000000
0.002467 0.747968 0.002976
0.002469 0.746947 0.002993
0.039665 0.743012 0.002743
0.133425 0.739198 0.002057
0.225902 0.735460 0.001459
0.317770 0.731792 0.000952
0.409263 0.728188 0.000543
0.500499 0.724642 0.000242
0.591547 0.721148 0.000058
0.682452 0.717699 0.000000
0.773194 0.714278 0.000000
0.863748 0.710868 0.000000
0.954124 0.707461 0.000000
1.000000 0.703821 0.000000
1.000000 0.699795 0.000000
1.000000 0.698761 0.000000
0.002633 0.827356 0.001750
0.002627 0.826334 0.001764
0.030963 0.822433 0.001620
0.125283 0.818764 0.001073
0.218157 0.815159 0.000632
0.310371 0.811613 0.000301
0.402179 0.808120 0.000088
0.493706 0.804675 0.000002
0.584992 0.801263 0.000000
0.676022 0.797863 0.000000
0.766821 0.794469 0.000000
0.857405 0.791072 0.000000
0.947783 0.787667 0.000000
1.000000 0.784081 0.000000
1.000000 0.780066 0.000000
1.000000 0.779035 0.000000
0.003408 0.906851 0.000798
0.003394 0.905828 0.000808
0.022737 0.901926 0.000750
0.117641 0.898384 0.000377
0.210893 0.894894 0.000130
0.303432 0.891452 0.000010
0.395515 0.888047 0.000000
0.487203 0.884658 0.000000
0.578561 0.881275 0.000000
0.669632 0.877890 0.000000
0.760443 0.874499 0.000000
0.851010 0.871092 0.000000
0.941345 0.867665 0.000000
1.000000 0.864109 0.000000
1.000000 0.860106 0.000000
1.000000 0.859078 0.000000
0.004738 0.986430 0.000192
0.004718 0.985406 0.000198
0.014912 0.981474 0.000191
0.110453 0.978042 0.000029
0.204061 0.974647 0.000000
0.296820 0.971269 0.000000
0.389004 0.967897 0.000000
0.480750 0.964525 0.000000
0.572134 0.961147 0.000000
0.663200 0.957755 0.000000
0.753977 0.954342 0.000000
0.844483 0.950903 0.000000
0.934730 0.947429 0.000000
1.000000 0.943873 0.000000
1.000000 0.939884 0.000000
1.000000 0.938860 0.000000
0.005070 1.000000 0.000118
0.005070 1.000000 0.000118
0.005949 1.000000 0.000116
0.102204 1.000000 0.000002
0.196070 1.000000 0.000000
0.289018 1.000000 0.000000
0.381364 1.000000 0.000000
0.473249 1.000000 0.000000
0.564747 1.000000 0.000000
0.655903 1.000000 0.000000
0.746741 1.000000 0.000000
0.837276 1.000000 0.000000
0.927515 1.000000 0.000000
1.000000 1.000000 0.000000
1.000000 1.000000 0.000000
1.000000 1.000000 0.000000
0.005070 1.000000 0.000118
0.005070 1.000000 0.000118
0.005070 1.000000 0.000118
0.099926 1.000000 0.000003
0.193822 1.000000 0.000000
0.286787 1.000000 0.000000
0.379145 1.000000 0.000000
0.471040 1.000000 0.000000
0.562547 1.000000 0.000000
0.653711 1.000000 0.000000
0.744556 1.000000 0.000000
0.835098 1.000000 0.000000
0.925345 1.000000 0.000000
1.000000 1.000000 0.000000
1.000000 1.000000 0.000000
1.000000 1.000000 0.000000
0.009590 0.002398 0.115975
0.032485 0.002394 0.115009
0.126444 0.002362 0.111139
0.218595 0.002307 0.107126
0.309827 0.002232 0.102989
0.400425 0.002139 0.098742
0.490538 0.002031 0.094399
0.580258 0.001910 0.089976
0.669651 0.001778 0.085486
0.758767 0.001638 0.080942
0.847645 0.001492 0.076357
0.936316 0.001341 0.071745
1.000000 0.001224 0.067327
1.000000 0.001227 0.063622
1.000000 0.001229 0.059912
1.000000 0.001230 0.058958
0.009561 0.022596 0.114076
0.030134 0.021496 0.113101
0.124151 0.017181 0.109201
0.216328 0.012822 0.105189
0.307594 0.008411 0.101077
0.398236 0.003916 0.096877
0.488376 0.002035 0.092559
0.578105 0.001914 0.088137
0.667506 0.001782 0.083646
0.756628 0.001642 0.079102
0.845511 0.001496 0.074516
0.934188 0.001346 0.069902
1.000000 0.001225 0.065460
1.000000 0.001228 0.061752
1.000000 0.001230 0.058040
1.000000 0.001231 0.057085
0.009248 0.105889 0.106378
0.020738 0.104823 0.105392
0.114961 0.100623 0.101279
0.207122 0.096405 0.097077
0.298344 0.092171 0.092796
0.388937 0.087923 0.088446
0.479056 0.083661 0.084038
0.568797 0.079387 0.079581
0.658225 0.075104 0.075086
0.747388 0.070811 0.070563
0.836325 0.066511 0.066021
0.925066 0.062205 0.061469
1.000000 0.057911 0.057016
1.000000 0.053748 0.053383
1.000000 0.049579 0.049744
1.000000 0.048507 0.048809
0.008681 0.187597 0.098286
0.010952 0.186550 0.097339
0.105562 0.182370 0.093050
0.197740 0.178179 0.088699
0.288947 0.173977 0.084290
0.379520 0.169766 0.079831
0.469621 0.165546 0.075333
0.559350 0.161321 0.070806
0.648774 0.157091 0.066259
0.737943 0.152857 0.061702
0.826894 0.148622 0.057144
0.915661 0.144388 0.052594
1.000000 0.140159 0.048074
1.000000 0.136069 0.044422
1.000000 0.131978 0.040763
1.000000 0.130928 0.039823
0.007916 0.268513 0.089885
0.007929 0.267476 0.088955
0.095996 0.263314 0.084583
0.188224 0.259136 0.080118
0.279443 0.254951 0.075616
0.370021 0.250760 0.071084
0.460129 0.246566 0.066531
0.549870 0.242369 0.061968
0.639314 0.238171 0.057404
0.728512 0.233974 0.052846
0.817504 0.229780 0.048306
0.906422 0.225641 0.043792
0.995347 0.221585 0.039312
1.000000 0.217518 0.035572
1.000000 0.213447 0.031888
1.000000 0.212401 0.030940
0.007004 0.348893 0.081249
0.007019 0.347863 0.080320
0.086305 0.343722 0.075938
0.178615 0.339554 0.071395
0.269872 0.335382 0.066834
0.360480 0.331209 0.062262
0.450618 0.327036 0.057689
0.540396 0.322863 0.053123
0.629883 0.318693 0.048574
0.719211 0.314566 0.044049
0.808499 0.310525 0.039558
0.897768 0.306563 0.035111
0.987029 0.302676 0.030714
1.000000 0.298651 0.026890
1.000000 0.294588 0.023171
1.000000 0.293544 0.022214
0.005994 0.428873 0.072453
0.006010 0.427847 0.071524
0.076527 0.423731 0.067177
0.168953 0.419574 0.062589
0.260275 0.415417 0.058002
0.350936 0.411262 0.053424
0.441130 0.407109 0.048863
0.531017 0.402987 0.044326
0.620781 0.398951 0.039823
0.710466 0.394996 0.035362
0.800096 0.391118 0.030952
0.889691 0.387310 0.026600
0.979265 0.383568 0.022314
1.000000 0.379605 0.018431
1.000000 0.375546 0.014663
1.000000 0.374504 0.013693
0.004935 0.508539 0.063565
0.004951 0.507517 0.062634
0.066700 0.503427 0.058358
0.159278 0.499283 0.053757
0.250691 0.495144 0.049178
0.341458 0.491023 0.044626
0.431908 0.486984 0.040107
0.522161 0.483031 0.035631
0.612276 0.479155 0.031205
0.702295 0.475353 0.026837
0.792244 0.471617 0.022535
0.882143 0.467943 0.018306
0.972005 0.464325 0.014155
1.000000 0.460440 0.010239
1.000000 0.456385 0.006398
1.000000 0.455343 0.005405
0.003873 0.587952 0.054655
0.003889 0.586932 0.053721
0.056860 0.582871 0.049535
0.149637 0.578750 0.044955
0.241311 0.574703 0.040415
0.332457 0.570744 0.035919
0.423277 0.566867 0.031474
0.513877 0.563065 0.027088
0.604321 0.559332 0.022767
0.694652 0.555661 0.018519
0.784897 0.552049 0.014349
0.875076 0.548489 0.010262
0.965205 0.544976 0.006259
1.000000 0.541183 0.002317
1.000000 0.537133 0.000006
1.000000 0.536095 0.000007
0.002893 0.667178 0.045788
0.002905 0.666159 0.044849
0.047137 0.662159 0.040764
0.140409 0.658189 0.036235
0.232504 0.654306 0.031765
0.324027 0.650500 0.027356
0.415195 0.646766 0.023013
0.506120 0.643097 0.018743
0.596871 0.639487 0.014552
0.687491 0.635931 0.010444
0.778009 0.632424 0.006418
0.868445 0.628959 0.002460
0.958763 0.625520 0.000000
1.000000 0.621821 0.000000
1.000000 0.617785 0.000000
1.000000 0.616748 0.000000
0.002458 0.746465 0.037029
0.002460 0.745444 0.036083
0.037930 0.741508 0.032095
0.131745 0.737697 0.027650
0.224245 0.733959 0.023278
0.316123 0.730288 0.018983
0.407617 0.726679 0.014766
0.498847 0.723125 0.010633
0.589882 0.719621 0.006584
0.680769 0.716161 0.002606
0.771500 0.712733 0.000000
0.862056 0.709322 0.000000
0.952435 0.705915 0.000000
1.000000 0.702286 0.000000
1.000000 0.698260 0.000000
1.000000 0.697226 0.000000
0.002656 0.825867 0.028439
0.002649 0.824844 0.027485
0.029232 0.820934 0.023578
0.123604 0.817263 0.019243
0.216490 0.813653 0.014996
0.308704 0.810100 0.010834
0.400503 0.806598 0.006758
0.492014 0.803142 0.002754
0.583289 0.799721 0.000000
0.674323 0.796321 0.000000
0.765126 0.792926 0.000000
0.855713 0.789529 0.000000
0.946095 0.786125 0.000000
1.000000 0.782550 0.000000
1.000000 0.778535 0.000000
1.000000 0.777503 0.000000
0.003438 0.905364 0.020076
0.003422 0.904339 0.019111
0.020985 0.900423 0.015254
0.115940 0.896875 0.011052
0.209196 0.893375 0.006942
0.301726 0.889922 0.002909
0.393799 0.886509 0.000000
0.485493 0.883119 0.000000
0.576856 0.879735 0.000000
0.667932 0.876351 0.000000
0.758748 0.872959 0.000000
0.849321 0.869554 0.000000
0.939661 0.866127 0.000000
1.000000 0.862583 0.000000
1.000000 0.858579 0.000000
1.000000 0.857551 0.000000
0.004754 0.984934 0.011989
0.004730 0.983908 0.011008
0.013108 0.979958 0.007148
0.108713 0.976516 0.003075
0.202323 0.973111 0.000000
0.295093 0.969733 0.000000
0.387286 0.966360 0.000000
0.479039 0.962989 0.000000
0.570429 0.959610 0.000000
0.661502 0.956219 0.000000
0.752286 0.952808 0.000000
0.842799 0.949370 0.000000
0.933053 0.945898 0.000000
1.000000 0.942352 0.000000
1.000000 0.938363 0.000000
1.000000 0.937338 0.000000
0.005088 1.000000 0.004311
0.005084 1.000000 0.003303
0.005070 1.000000 0.000118
0.100481 1.000000 0.000003
0.194370 1.000000 0.000000
0.287330 1.000000 0.000000
0.379686 1.000000 0.000000
0.471578 1.000000 0.000000
0.563083 1.000000 0.000000
0.654245 1.000000 0.000000
0.745088 1.000000 0.000000
0.835629 1.000000 0.000000
0.925873 1.000000 0.000000
1.000000 1.000000 0.000000
1.000000 1.000000 0.000000
1.000000 1.000000 0.000000
0.005079 1.000000 0.002325
0.005075 1.000000 0.001300
0.005070 1.000000 0.000118
0.098202 1.000000 0.000003
0.192121 1.000000 0.000000
0.285099 1.000000 0.000000
0.377467 1.000000 0.000000
0.469369 1.000000 0.000000
0.560883 1.000000 0.000000
0.652053 1.000000 0.000000
0.742904 1.000000 0.000000
0.833451 1.000000 0.000000
0.923703 1.000000 0.000000
1.000000 1.000000 0.000000
1.000000 1.000000 0.000000
1.000000 1.000000 0.000000
0.009569 0.002392 0.194697
0.030706 0.002387 0.193731
0.124691 0.002348 0.189858
0.216834 0.002286 0.185848
0.308054 0.002205 0.181720
0.398640 0.002106 0.177488
0.488741 0.001993 0.173167
0.578452 0.001868 0.168771
0.667837 0.001734 0.164314
0.756948 0.001591 0.159810
0.845822 0.001443 0.155271
0.934493 0.001292 0.150711
1.000000 0.001172 0.146336
1.000000 0.001174 0.142694
1.000000 0.001177 0.139050
1.000000 0.001177 0.138114
0.009529 0.020961 0.192804
0.028344 0.019858 0.191835
0.122397 0.015528 0.187942
0.214573 0.011152 0.183942
0.305832 0.006716 0.179848
0.396467 0.002150 0.175671
0.486579 0.001997 0.171352
0.576299 0.001873 0.166958
0.665692 0.001738 0.162502
0.754809 0.001596 0.157998
0.843689 0.001448 0.153459
0.932365 0.001297 0.148899
1.000000 0.001173 0.144500
1.000000 0.001175 0.140857
1.000000 0.001178 0.137213
1.000000 0.001178 0.136276
0.009168 0.104296 0.185118
0.018884 0.103230 0.184149
0.113166 0.099024 0.180051
0.205331 0.094800 0.175870
0.296549 0.090561 0.171615
0.387138 0.086307 0.167297
0.477254 0.082041 0.162925
0.566992 0.077764 0.158511
0.656418 0.073477 0.154063
0.745581 0.069181 0.149593
0.834519 0.064879 0.145109
0.923263 0.060571 0.140622
1.000000 0.056272 0.136222
1.000000 0.052106 0.132659
1.000000 0.047934 0.129095
1.000000 0.046861 0.128180
0.008562 0.186012 0.177059
0.008985 0.184967 0.176137
0.103734 0.180782 0.171872
0.195921 0.176587 0.167551
0.287129 0.172381 0.163177
0.377702 0.168167 0.158760
0.467804 0.163945 0.154309
0.557534 0.159717 0.149834
0.646960 0.155486 0.145345
0.736132 0.151251 0.140851
0.825089 0.147016 0.136364
0.913863 0.142781 0.131891
1.000000 0.138563 0.127442
1.000000 0.134468 0.123864
1.000000 0.130372 0.120288
1.000000 0.129321 0.119370
0.007766 0.266931 0.168710
0.007780 0.265895 0.167794
0.094142 0.261732 0.163472
0.186384 0.257551 0.159047
0.277609 0.253363 0.154590
0.368191 0.249171 0.150110
0.458303 0.244975 0.145615
0.548050 0.240777 0.141115
0.637500 0.236579 0.136620
0.726706 0.232383 0.132139
0.815722 0.228197 0.127682
0.904703 0.224085 0.123258
0.993689 0.220055 0.118877
1.000000 0.215989 0.115212
1.000000 0.211913 0.111621
1.000000 0.210867 0.110699
0.006832 0.347315 0.160147
0.006848 0.346284 0.159232
0.084431 0.342144 0.154914
0.176761 0.337974 0.150420
0.268029 0.333801 0.145915
0.358645 0.329627 0.141407
0.448792 0.325454 0.136902
0.538579 0.321281 0.132412
0.628083 0.317116 0.127945
0.717475 0.313017 0.123510
0.806826 0.309001 0.119118
0.896154 0.305064 0.114777
0.985471 0.301200 0.110496
1.000000 0.297181 0.106765
1.000000 0.293115 0.103155
1.000000 0.292071 0.102227
0.005810 0.427298 0.151443
0.005826 0.426272 0.150529
0.074640 0.422157 0.146258
0.167093 0.417999 0.141731
0.258430 0.413842 0.137212
0.349104 0.409687 0.132709
0.439311 0.405536 0.128230
0.529261 0.401440 0.123782
0.619089 0.397430 0.119377
0.708834 0.393501 0.115022
0.798523 0.389646 0.110727
0.888174 0.385861 0.106501
0.977801 0.382139 0.102354
1.000000 0.378186 0.098589
1.000000 0.374125 0.094955
1.000000 0.373082 0.094021
0.004746 0.506967 0.142670
0.004762 0.505945 0.141756
0.064806 0.501858 0.137565
0.157418 0.497715 0.133038
0.248851 0.493576 0.128540
0.339674 0.489476 0.124076
