resources/luts/teal-amber.cube
# Generated by FotoReady. Released under the project GPL-3.0-or-later license.
TITLE "teal-amber"
LUT_3D_SIZE 5
DOMAIN_MIN 0 0 0
DOMAIN_MAX 1 1 1
0.000000 0.085999 0.122553
0.136113 0.068860 0.113537
0.535822 0.060051 0.096596
0.903579 0.055268 0.083544
0.943847 0.054883 0.082221
0.000000 0.259804 0.093809
0.118194 0.246528 0.088546
0.521787 0.225086 0.077274
0.895712 0.213119 0.066859
0.960704 0.210835 0.065098
0.000000 0.601501 0.054906
0.096949 0.591919 0.051867
0.504395 0.573804 0.039591
0.897408 0.556913 0.025735
1.000000 0.551617 0.021486
0.027562 0.935707 0.007030
0.122294 0.928021 0.003719
0.521495 0.913540 0.000000
0.921299 0.900163 0.000000
1.000000 0.893155 0.000000
0.050541 1.000000 0.000000
0.141970 1.000000 0.000000
0.537150 1.000000 0.000000
0.932171 1.000000 0.000000
1.000000 1.000000 0.000000
0.000000 0.080608 0.318145
0.135105 0.066879 0.297627
0.535552 0.059169 0.258428
0.904268 0.054782 0.230760
0.945346 0.054434 0.224730
0.000000 0.255757 0.252389
0.115723 0.242730 0.235478
0.527100 0.220156 0.206522
0.909102 0.206958 0.186298
0.961288 0.204025 0.183100
0.000000 0.598689 0.155703
0.087998 0.591773 0.136259
0.502667 0.571650 0.104918
0.904173 0.553345 0.094010
1.000000 0.547379 0.095138
0.028578 0.933553 0.076497
0.106894 0.931294 0.052011
0.513350 0.914819 0.020069
0.920490 0.899401 0.000000
1.000000 0.891706 0.000000
0.051951 1.000000 0.052232
0.122267 1.000000 0.025530
0.525271 1.000000 0.000000
0.928240 1.000000 0.000000
1.000000 1.000000 0.000000
0.000000 0.071368 0.711368
0.126995 0.063967 0.693852
0.533809 0.057257 0.659524
0.903616 0.053706 0.615010
0.949302 0.053416 0.599567
0.000000 0.246143 0.654382
0.112621 0.234592 0.648839
0.525185 0.212449 0.617790
0.910110 0.200588 0.579740
0.965139 0.198219 0.567051
0.000000 0.592560 0.556646
0.085000 0.585249 0.545878
0.501229 0.564902 0.512306
0.919750 0.543747 0.479616
1.000000 0.536513 0.470367
0.035659 0.928498 0.457873
0.106784 0.926233 0.441515
0.501663 0.915020 0.395336
0.923754 0.896080 0.359882
1.000000 0.887266 0.354439
0.060204 1.000000 0.424375
0.123554 1.000000 0.405560
0.507089 1.000000 0.355117
0.925640 1.000000 0.321067
1.000000 1.000000 0.305753
0.000000 0.065693 1.000000
0.120638 0.061634 1.000000
0.513177 0.056004 1.000000
0.903006 0.052844 0.999333
0.953310 0.052606 0.974508
0.000000 0.239307 1.000000
0.112267 0.229350 1.000000
0.510909 0.211316 1.000000
0.908701 0.194960 0.973951
0.969264 0.193319 0.951881
0.000000 0.581855 0.937817
0.098149 0.575723 0.937918
0.500289 0.557484 0.924730
0.920699 0.536128 0.889066
1.000000 0.529414 0.870364
0.042891 0.923519 0.839152
0.108551 0.920545 0.832812
0.501415 0.908690 0.803273
0.924273 0.890243 0.766576
1.000000 0.880346 0.750991
0.068528 1.000000 0.796640
0.127248 1.000000 0.787828
0.508299 1.000000 0.753972
0.920787 1.000000 0.713657
1.000000 1.000000 0.696624
0.000000 0.065383 1.000000
0.116494 0.061432 1.000000
0.500680 0.055924 1.000000
0.884576 0.052805 1.000000
0.954357 0.052427 1.000000
0.000000 0.237228 1.000000
0.111751 0.228096 1.000000
0.502433 0.212270 1.000000
0.894185 0.197423 1.000000
0.970264 0.190785 1.000000
0.000000 0.577000 1.000000
0.105751 0.571629 1.000000
0.499218 0.554793 1.000000
0.913118 0.535182 1.000000
1.000000 0.526092 1.000000
0.044802 0.916774 0.992850
0.122028 0.914378 0.989497
0.507768 0.903763 0.972839
0.923702 0.886651 0.956944
1.000000 0.876907 0.951073
0.072443 1.000000 0.971155
0.128808 1.000000 0.968565
0.509473 1.000000 0.951967
0.920894 1.000000 0.926429
1.000000 1.000000 0.908257
