resources/luts/teal-shadows.cube
TITLE "teal-shadows"
LUT_3D_SIZE 16
DOMAIN_MIN 0 0 0
DOMAIN_MAX 1 1 1
0.000000 0.015000 0.021000
0.022010 0.014995 0.020993
0.092505 0.014913 0.020878
0.163611 0.014735 0.020628
0.235039 0.014466 0.020252
0.306687 0.014113 0.019758
0.378505 0.013683 0.019156
0.450460 0.013184 0.018457
0.522531 0.012623 0.017672
0.594701 0.012006 0.016809
0.666960 0.011343 0.015880
0.739297 0.010639 0.014895
0.811705 0.009904 0.013866
0.884178 0.009144 0.012802
0.956710 0.008367 0.011714
0.979800 0.008118 0.011365
0.000000 0.037897 0.020971
0.022010 0.037872 0.020936
0.092505 0.037729 0.020735
0.163611 0.037493 0.020405
0.235039 0.037171 0.019954
0.306687 0.036770 0.019393
0.378505 0.036297 0.018730
0.450460 0.035758 0.017976
0.522531 0.035162 0.017142
0.594701 0.034516 0.016237
0.666960 0.033828 0.015273
0.739297 0.033104 0.014260
0.811705 0.032353 0.013208
0.884178 0.031582 0.012129
0.956710 0.030799 0.011033
0.979800 0.030548 0.010682
0.000000 0.110968 0.020508
0.022010 0.110885 0.020391
0.092505 0.110565 0.019943
0.163611 0.110165 0.019384
0.235039 0.109694 0.018724
0.306687 0.109157 0.017973
0.378505 0.108563 0.017141
0.450460 0.107919 0.016239
0.522531 0.107232 0.015278
0.594701 0.106510 0.014267
0.666960 0.105761 0.013218
0.739297 0.104991 0.012141
0.811705 0.104210 0.011046
0.884178 0.103424 0.009946
0.956710 0.102641 0.008850
0.979800 0.102394 0.008504
0.000000 0.184313 0.019537
0.022010 0.184181 0.019352
0.092505 0.183712 0.018696
0.163611 0.183178 0.017947
0.235039 0.182585 0.017118
0.306687 0.181943 0.016219
0.378505 0.181258 0.015259
0.450460 0.180537 0.014251
0.522531 0.179790 0.013204
0.594701 0.179022 0.012129
0.666960 0.178242 0.011037
0.739297 0.177457 0.009939
0.811705 0.176676 0.008845
0.884178 0.175905 0.007766
0.956712 0.175154 0.006713
0.979810 0.174924 0.006386
0.000000 0.257688 0.018140
0.022010 0.257515 0.017898
0.092505 0.256928 0.017076
0.163611 0.256288 0.016181
0.235039 0.255606 0.015225
0.306687 0.254887 0.014219
0.378505 0.254141 0.013175
0.450460 0.253376 0.012103
0.522531 0.252597 0.011013
0.594701 0.251815 0.009917
0.666960 0.251035 0.008826
0.739297 0.250266 0.007749
0.811707 0.249517 0.006699
0.884225 0.248816 0.005686
0.956856 0.248175 0.004720
0.979988 0.247985 0.004425
0.000000 0.331050 0.016402
0.022010 0.330846 0.016117
0.092505 0.330170 0.015171
0.163611 0.329456 0.014171
0.235039 0.328713 0.013131
0.306687 0.327950 0.012062
0.378505 0.327174 0.010976
0.450460 0.326394 0.009884
0.522531 0.325616 0.008795
0.594701 0.324850 0.007722
0.666963 0.324103 0.006675
0.739346 0.323404 0.005664
0.811853 0.322766 0.004701
0.884475 0.322195 0.003797
0.957201 0.321696 0.002963
0.980362 0.321553 0.002714
0.000000 0.404406 0.014410
0.022010 0.404182 0.014096
0.092505 0.403447 0.013068
0.163611 0.402689 0.012006
0.235039 0.401917 0.010926
0.306687 0.401140 0.009838
0.378505 0.400366 0.008754
0.450460 0.399602 0.007684
0.522534 0.398858 0.006641
0.594753 0.398163 0.005634
0.667112 0.397528 0.004675
0.739599 0.396960 0.003774
0.812201 0.396464 0.002943
0.884910 0.396046 0.002193
0.957714 0.395712 0.001535
0.980898 0.395624 0.001346
0.000000 0.477789 0.012254
0.022010 0.477552 0.011923
0.092505 0.476790 0.010856
0.163611 0.476019 0.009777
0.235039 0.475249 0.008699
0.306687 0.474490 0.007636
0.378509 0.473750 0.006597
0.450514 0.473059 0.005595
0.522687 0.472429 0.004640
0.595009 0.471864 0.003744
0.667463 0.471371 0.002918
0.740037 0.470957 0.002172
0.812718 0.470626 0.001517
0.885496 0.470385 0.000966
0.958363 0.470239 0.000528
0.981565 0.470214 0.000414
0.000000 0.551238 0.010024
0.022010 0.551000 0.009690
0.092505 0.550241 0.008627
0.163611 0.549488 0.007573
0.235044 0.548754 0.006542
0.306745 0.548069 0.005547
0.378667 0.547444 0.004598
0.450775 0.546884 0.003708
0.523043 0.546396 0.002886
0.595451 0.545985 0.002145
0.667983 0.545658 0.001496
0.740627 0.545421 0.000949
0.813369 0.545279 0.000516
0.886202 0.545238 0.000207
0.959114 0.545305 0.000034
0.982328 0.545349 0.000010
0.000000 0.624803 0.007810
0.022010 0.624572 0.007486
0.092513 0.623851 0.006472
0.163675 0.623176 0.005486
0.235209 0.622557 0.004546
0.307011 0.622004 0.003663
0.379027 0.621521 0.002848
0.451221 0.621115 0.002114
0.523566 0.620793 0.001470
0.596044 0.620560 0.000929
0.668638 0.620422 0.000501
0.741334 0.620385 0.000198
0.814122 0.620456 0.000031
0.886991 0.620632 0.000000
0.959931 0.620836 0.000000
0.983153 0.620902 0.000000
0.000046 0.698560 0.005703
0.022081 0.698358 0.005404
0.092684 0.697753 0.004480
0.163947 0.697208 0.003608
0.235574 0.696733 0.002803
0.307462 0.696334 0.002076
0.379555 0.696017 0.001440
0.451818 0.695789 0.000906
0.524224 0.695656 0.000485
0.596755 0.695624 0.000188
0.669393 0.695699 0.000027
0.742126 0.695878 0.000000
0.814942 0.696082 0.000000
0.887830 0.696289 0.000000
0.960782 0.696499 0.000000
0.984005 0.696566 0.000000
0.000298 0.772643 0.003796
0.022362 0.772484 0.003535
0.093057 0.772021 0.002746
0.164404 0.771630 0.002031
0.236107 0.771321 0.001404
0.308064 0.771099 0.000879
0.380217 0.770972 0.000466
0.452532 0.770946 0.000177
0.524982 0.771025 0.000023
0.597549 0.771207 0.000000
0.670214 0.771411 0.000000
0.742966 0.771618 0.000000
0.815793 0.771827 0.000000
0.888684 0.772037 0.000000
0.961630 0.772243 0.000000
0.984850 0.772308 0.000000
0.000737 0.847103 0.002180
0.022826 0.846993 0.001971
0.093596 0.846694 0.001360
0.165010 0.846481 0.000847
0.236773 0.846361 0.000444
0.308781 0.846341 0.000164
0.380978 0.846427 0.000019
0.453328 0.846611 0.000000
0.525806 0.846815 0.000000
0.598391 0.847022 0.000000
0.671067 0.847231 0.000000
0.743821 0.847439 0.000000
0.816642 0.847646 0.000000
0.889518 0.847848 0.000000
0.962441 0.848043 0.000000
0.985652 0.848103 0.000000
0.001330 0.921981 0.000949
0.023439 0.921928 0.000805
0.094267 0.921817 0.000417
0.165731 0.921805 0.000149
0.237537 0.921898 0.000014
0.309580 0.922085 0.000000
0.381803 0.922288 0.000000
0.454172 0.922494 0.000000
0.526659 0.922703 0.000000
0.599246 0.922911 0.000000
0.671916 0.923117 0.000000
0.744656 0.923318 0.000000
0.817453 0.923512 0.000000
0.890298 0.923698 0.000000
0.963181 0.923874 0.000000
0.986377 0.923927 0.000000
0.002041 0.997322 0.000196
0.024165 0.997332 0.000131
0.095034 0.997433 0.000009
0.166533 0.997623 0.000000
0.238364 0.997825 0.000000
0.310425 0.998031 0.000000
0.382658 0.998238 0.000000
0.455028 0.998446 0.000000
0.527509 0.998651 0.000000
0.600080 0.998851 0.000000
0.672726 0.999045 0.000000
0.745434 0.999230 0.000000
0.818191 0.999405 0.000000
0.890987 0.999566 0.000000
0.963812 0.999713 0.000000
0.986989 0.999756 0.000000
0.002080 1.000000 0.000172
0.024204 1.000000 0.000111
0.095075 1.000000 0.000005
0.166575 1.000000 0.000000
0.238408 1.000000 0.000000
0.310468 1.000000 0.000000
0.382702 1.000000 0.000000
0.455071 1.000000 0.000000
0.527551 1.000000 0.000000
0.600121 1.000000 0.000000
0.672766 1.000000 0.000000
0.745471 1.000000 0.000000
0.818226 1.000000 0.000000
0.891019 1.000000 0.000000
0.963841 1.000000 0.000000
0.987016 1.000000 0.000000
0.000000 0.014999 0.044371
0.022010 0.014990 0.044358
0.092505 0.014896 0.044226
0.163611 0.014706 0.043960
0.235039 0.014426 0.043568
0.306687 0.014063 0.043061
0.378505 0.013625 0.042447
0.450460 0.013118 0.041737
0.522531 0.012549 0.040941
0.594701 0.011927 0.040070
0.666960 0.011258 0.039133
0.739297 0.010550 0.038143
0.811705 0.009812 0.037108
0.884178 0.009049 0.036041
0.956710 0.008271 0.034951
0.979800 0.008021 0.034602
0.000000 0.037888 0.044330
0.022010 0.037859 0.044290
0.092505 0.037704 0.044073
0.163611 0.037458 0.043727
0.235039 0.037126 0.043262
0.306687 0.036715 0.042688
0.378505 0.036233 0.042013
0.450460 0.035687 0.041249
0.522531 0.035085 0.040406
0.594701 0.034433 0.039493
0.666960 0.033740 0.038523
0.739297 0.033013 0.037504
0.811705 0.032259 0.036449
0.884178 0.031486 0.035367
0.956710 0.030702 0.034270
0.979800 0.030452 0.033919
0.000000 0.110935 0.043834
0.022010 0.110849 0.043713
0.092505 0.110519 0.043251
0.163611 0.110110 0.042679
0.235039 0.109630 0.042007
0.306687 0.109086 0.041246
0.378505 0.108486 0.040405
0.450460 0.107836 0.039495
0.522531 0.107145 0.038527
0.594701 0.106419 0.037511
0.666960 0.105667 0.036458
0.739297 0.104896 0.035379
0.811705 0.104113 0.034283
0.884178 0.103327 0.033183
0.956710 0.102545 0.032088
0.979800 0.102299 0.031743
0.000000 0.184260 0.042835
0.022010 0.184125 0.042646
0.092505 0.183648 0.041979
0.163611 0.183107 0.041220
0.235039 0.182508 0.040382
0.306687 0.181860 0.039475
0.378505 0.181170 0.038509
0.450460 0.180446 0.037495
0.522531 0.179696 0.036445
0.594701 0.178926 0.035367
0.666960 0.178145 0.034274
0.739297 0.177361 0.033176
0.811705 0.176580 0.032083
0.884178 0.175812 0.031007
0.956715 0.175065 0.029959
0.979815 0.174837 0.029632
0.000000 0.257619 0.041415
0.022010 0.257444 0.041170
0.092505 0.256850 0.040339
0.163611 0.256205 0.039436
0.235039 0.255518 0.038474
0.306687 0.254796 0.037463
0.378505 0.254047 0.036415
0.450460 0.253280 0.035341
0.522531 0.252501 0.034250
0.594701 0.251718 0.033154
0.666960 0.250939 0.032064
0.739297 0.250173 0.030991
0.811710 0.249428 0.029944
0.884234 0.248734 0.028936
0.956871 0.248101 0.027977
0.980005 0.247914 0.027685
0.000000 0.330968 0.039659
0.022010 0.330763 0.039372
0.092505 0.330082 0.038420
0.163611 0.329364 0.037415
0.235039 0.328619 0.036371
0.306687 0.327854 0.035300
0.378505 0.327077 0.034213
0.450460 0.326297 0.033121
0.522531 0.325521 0.032034
0.594701 0.324756 0.030963
0.666965 0.324014 0.029920
0.739355 0.323322 0.028915
0.811869 0.322692 0.027959
0.884496 0.322130 0.027063
0.957228 0.321640 0.026238
0.980390 0.321500 0.025992
0.000000 0.404316 0.037656
0.022010 0.404090 0.037340
0.092505 0.403353 0.036308
0.163611 0.402593 0.035244
0.235039 0.401821 0.034162
0.306687 0.401044 0.033075
0.378505 0.400270 0.031992
0.450460 0.399509 0.030926
0.522537 0.398769 0.029886
0.594762 0.398081 0.028885
0.667128 0.397455 0.027932
0.739620 0.396895 0.027040
0.812228 0.396408 0.026219
0.884941 0.396000 0.025479
0.957750 0.395677 0.024833
0.980936 0.395593 0.024649
0.000000 0.477693 0.035493
0.022010 0.477456 0.035161
0.092505 0.476694 0.034093
0.163611 0.475923 0.033014
0.235039 0.475154 0.031938
0.306687 0.474396 0.030877
0.378512 0.473661 0.029843
0.450524 0.472978 0.028846
0.522704 0.472355 0.027898
0.595031 0.471799 0.027011
0.667490 0.471316 0.026193
0.740068 0.470911 0.025458
0.812754 0.470591 0.024816
0.885536 0.470362 0.024278
0.958406 0.470228 0.023854
0.981609 0.470207 0.023746
0.000000 0.551142 0.033261
0.022010 0.550903 0.032927
0.092505 0.550146 0.031866
0.163611 0.549395 0.030815
0.235048 0.548666 0.029788
0.306755 0.547988 0.028798
0.378684 0.547371 0.027856
0.450797 0.546820 0.026974
0.523070 0.546341 0.026162
0.595483 0.545940 0.025432
0.668019 0.545624 0.024795
0.740666 0.545398 0.024261
0.813412 0.545268 0.023843
0.886247 0.545240 0.023550
0.959161 0.545320 0.023395
0.982377 0.545370 0.023376
0.000000 0.624710 0.031051
0.022010 0.624480 0.030728
0.092517 0.623764 0.029718
0.163685 0.623095 0.028738
0.235225 0.622485 0.027805
0.307034 0.621940 0.026930
0.379055 0.621466 0.026125
0.451253 0.621071 0.025401
0.523603 0.620759 0.024770
0.596084 0.620538 0.024242
0.668681 0.620412 0.023829
0.741380 0.620388 0.023542
0.814170 0.620472 0.023392
0.887040 0.620656 0.023372
0.959982 0.620861 0.023372
0.983204 0.620927 0.023372
0.000056 0.698478 0.028953
0.022092 0.698279 0.028656
0.092702 0.697681 0.027740
0.163970 0.697145 0.026876
0.235602 0.696679 0.026080
0.307495 0.696290 0.025364
0.379592 0.695984 0.024740
0.451858 0.695768 0.024220
0.524268 0.695647 0.023813
0.596801 0.695628 0.023533
0.669441 0.695716 0.023389
0.742176 0.695903 0.023372
0.814992 0.696107 0.023372
0.887881 0.696315 0.023372
0.960833 0.696525 0.023372
0.984057 0.696592 0.023372
0.000319 0.772578 0.027061
0.022385 0.772421 0.026803
0.093085 0.771967 0.026024
0.164436 0.771587 0.025319
0.236144 0.771288 0.024705
0.308104 0.771078 0.024193
0.380261 0.770963 0.023795
0.452578 0.770950 0.023522
0.525030 0.771043 0.023386
0.597598 0.771232 0.023372
0.670265 0.771436 0.023372
0.743018 0.771644 0.023372
0.815845 0.771853 0.023372
0.888735 0.772062 0.023372
0.961680 0.772268 0.023372
0.984900 0.772333 0.023372
0.000768 0.847057 0.025466
0.022859 0.846950 0.025260
0.093633 0.846663 0.024662
0.165051 0.846461 0.024162
0.236817 0.846353 0.023774
0.308827 0.846346 0.023510
0.381026 0.846445 0.023383
0.453378 0.846636 0.023372
0.525857 0.846840 0.023372
0.598442 0.847048 0.023372
0.671119 0.847257 0.023372
0.743873 0.847465 0.023372
0.816692 0.847671 0.023372
0.889567 0.847872 0.023372
0.962488 0.848066 0.023372
0.985699 0.848126 0.023372
0.001369 0.921958 0.024262
0.023480 0.921908 0.024122
0.094310 0.921810 0.023749
0.165778 0.921811 0.023497
0.237585 0.921917 0.023379
0.309630 0.922110 0.023372
0.381854 0.922313 0.023372
0.454223 0.922520 0.023372
0.526711 0.922729 0.023372
0.599297 0.922936 0.023372
0.671966 0.923142 0.023372
0.744704 0.923342 0.023372
0.817500 0.923536 0.023372
0.890342 0.923721 0.023372
0.963222 0.923894 0.023372
0.986418 0.923947 0.023372
0.002087 0.997325 0.023540
0.024212 0.997339 0.023480
0.095083 0.997454 0.023376
0.166583 0.997648 0.023372
0.238415 0.997850 0.023372
0.310476 0.998056 0.023372
0.382710 0.998264 0.023372
0.455079 0.998471 0.023372
0.527559 0.998676 0.023372
0.600129 0.998875 0.023372
0.672773 0.999068 0.023372
0.745478 0.999252 0.023372
0.818232 0.999425 0.023372
0.891025 0.999585 0.023372
0.963846 0.999730 0.023372
0.987021 0.999772 0.023372
0.002126 1.000000 0.023518
0.024251 1.000000 0.023462
0.095124 1.000000 0.023373
0.166625 1.000000 0.023372
0.238459 1.000000 0.023372
0.310520 1.000000 0.023372
0.382753 1.000000 0.023372
0.455122 1.000000 0.023372
0.527601 1.000000 0.023372
0.600170 1.000000 0.023372
0.672812 1.000000 0.023372
0.745515 1.000000 0.023372
0.818267 1.000000 0.023372
0.891056 1.000000 0.023372
0.963874 1.000000 0.023372
0.987048 1.000000 0.023372
0.000000 0.014985 0.119207
0.022010 0.014964 0.119177
0.092505 0.014831 0.118990
0.163611 0.014604 0.118673
0.235039 0.014291 0.118235
0.306687 0.013898 0.117684
0.378505 0.013431 0.117031
0.450460 0.012899 0.116286
0.522531 0.012309 0.115460
0.594701 0.011668 0.114562
0.666960 0.010983 0.113604
0.739297 0.010262 0.112595
0.811705 0.009514 0.111547
0.884178 0.008744 0.110470
0.956710 0.007962 0.109375
0.979800 0.007712 0.109024
0.000000 0.037849 0.119130
0.022010 0.037808 0.119073
0.092505 0.037616 0.118804
0.163611 0.037335 0.118410
0.235039 0.036971 0.117901
0.306687 0.036532 0.117286
0.378505 0.036024 0.116576
0.450460 0.035455 0.115779
0.522531 0.034833 0.114908
0.594701 0.034164 0.113972
0.666960 0.033457 0.112981
0.739297 0.032718 0.111947
0.811705 0.031956 0.110881
0.884178 0.031178 0.109792
0.956710 0.030392 0.108691
0.979800 0.030142 0.108341
0.000000 0.110821 0.118530
0.022010 0.110725 0.118394
0.092505 0.110363 0.117889
0.163611 0.109926 0.117277
0.235039 0.109421 0.116569
0.306687 0.108854 0.115775
0.378505 0.108233 0.114907
0.450460 0.107567 0.113973
0.522531 0.106861 0.112986
0.594701 0.106125 0.111954
0.666960 0.105364 0.110890
0.739297 0.104588 0.109803
0.811705 0.103804 0.108705
0.884178 0.103019 0.107606
0.956710 0.102241 0.106517
0.979800 0.101996 0.106175
0.000000 0.184084 0.117443
0.022010 0.183940 0.117242
0.092505 0.183438 0.116539
0.163611 0.182874 0.115749
0.235039 0.182255 0.114883
0.306687 0.181590 0.113952
0.378505 0.180887 0.112967
0.450460 0.180152 0.111938
0.522531 0.179393 0.110876
0.594701 0.178619 0.109792
0.666960 0.177836 0.108696
0.739297 0.177052 0.107599
0.811705 0.176276 0.106512
0.884178 0.175514 0.105446
0.956728 0.174784 0.104411
0.979836 0.174564 0.104091
0.000000 0.257391 0.115952
0.022010 0.257210 0.115698
0.092505 0.256597 0.114839
0.163611 0.255935 0.113913
0.235039 0.255234 0.112931
0.306687 0.254501 0.111906
0.378505 0.253745 0.110847
0.450460 0.252972 0.109765
0.522531 0.252191 0.108672
0.594701 0.251410 0.107578
0.666960 0.250635 0.106493
0.739297 0.249875 0.105429
0.811724 0.249147 0.104397
0.884270 0.248477 0.103408
0.956926 0.247871 0.102472
0.980066 0.247692 0.102187
0.000000 0.330701 0.114141
0.022010 0.330491 0.113848
0.092505 0.329797 0.112876
0.163611 0.329069 0.111856
0.235039 0.328316 0.110802
0.306687 0.327546 0.109725
0.378505 0.326768 0.108635
0.450460 0.325989 0.107544
0.522531 0.325216 0.106463
0.594701 0.324459 0.105402
0.666980 0.323734 0.104373
0.739391 0.323066 0.103387
0.811924 0.322462 0.102453
0.884569 0.321928 0.101585
0.957317 0.321469 0.100791
0.980484 0.321339 0.100556
0.000000 0.404023 0.112101
0.022010 0.403794 0.111781
0.092505 0.403050 0.110738
0.163611 0.402285 0.109668
0.235039 0.401511 0.108584
0.306687 0.400735 0.107498
0.378505 0.399966 0.106422
0.450460 0.399212 0.105365
0.522552 0.398490 0.104340
0.594799 0.397826 0.103357
0.667184 0.397225 0.102428
0.739694 0.396694 0.101562
0.812318 0.396238 0.100772
0.885046 0.395862 0.100068
0.957868 0.395574 0.099462
0.981057 0.395502 0.099291
0.000000 0.477386 0.109918
0.022010 0.477148 0.109585
0.092505 0.476384 0.108515
0.163611 0.475614 0.107438
0.235039 0.474850 0.106368
0.306687 0.474100 0.105317
0.378529 0.473383 0.104297
0.450561 0.472724 0.103320
0.522760 0.472127 0.102395
0.595105 0.471599 0.101534
0.667581 0.471147 0.100748
0.740174 0.470775 0.100049
0.812872 0.470490 0.099446
0.885666 0.470297 0.098952
0.958546 0.470203 0.098577
0.981752 0.470195 0.098485
0.000000 0.550833 0.107684
0.022010 0.550595 0.107351
0.092505 0.549842 0.106297
0.163611 0.549099 0.105256
0.235065 0.548389 0.104244
0.306794 0.547735 0.103273
0.378741 0.547144 0.102354
0.450872 0.546621 0.101499
0.523161 0.546173 0.100718
0.595588 0.545805 0.100024
0.668138 0.545524 0.099427
0.740796 0.545335 0.098937
0.813552 0.545245 0.098567
0.886395 0.545259 0.098327
0.959316 0.545383 0.098229
0.982533 0.545445 0.098227
0.000000 0.624412 0.105489
0.022011 0.624184 0.105170
0.092535 0.623488 0.104175
0.163724 0.622843 0.103214
0.235284 0.622259 0.102304
0.307110 0.621743 0.101456
0.379147 0.621300 0.100683
0.451360 0.620937 0.099995
0.523722 0.620661 0.099403
0.596215 0.620476 0.098920
0.668821 0.620390 0.098556
0.741529 0.620408 0.098321
0.814325 0.620536 0.098228
0.887200 0.620736 0.098227
0.960145 0.620943 0.098227
0.983368 0.621009 0.098227
0.000090 0.698221 0.103424
0.022133 0.698029 0.103134
0.092761 0.697458 0.102240
0.164047 0.696950 0.101404
0.235695 0.696514 0.100640
0.307602 0.696158 0.099960
0.379712 0.695887 0.099376
0.451989 0.695708 0.098900
0.524408 0.695627 0.098542
0.596949 0.695649 0.098314
0.669596 0.695782 0.098228
0.742336 0.695983 0.098227
0.815156 0.696189 0.098227
0.888046 0.696398 0.098227
0.960998 0.696607 0.098227
0.984221 0.696674 0.098227
0.000392 0.772376 0.101583
0.022464 0.772229 0.101334
0.093179 0.771805 0.100586
0.164544 0.771457 0.099918
0.236264 0.771194 0.099344
0.308236 0.771021 0.098876
0.380402 0.770945 0.098527
0.452727 0.770973 0.098307
0.525186 0.771111 0.098227
0.597758 0.771312 0.098227
0.670429 0.771518 0.098227
0.743183 0.771726 0.098227
0.816010 0.771936 0.098227
0.888899 0.772144 0.098227
0.961840 0.772348 0.098227
0.985059 0.772413 0.098227
0.000873 0.846920 0.100056
0.022969 0.846824 0.099862
0.093754 0.846571 0.099304
0.165183 0.846406 0.098848
0.236958 0.846338 0.098509
0.308977 0.846372 0.098298
0.381182 0.846516 0.098227
0.453538 0.846716 0.098227
0.526020 0.846922 0.098227
0.598607 0.847130 0.098227
0.671283 0.847339 0.098227
0.744036 0.847547 0.098227
0.816852 0.847751 0.098227
0.889722 0.847949 0.098227
0.962636 0.848140 0.098227
0.985844 0.848199 0.098227
0.001499 0.921895 0.098937
0.023613 0.921857 0.098812
0.094453 0.921798 0.098487
0.165928 0.921840 0.098288
0.237741 0.921990 0.098227
0.309790 0.922190 0.098227
0.382018 0.922395 0.098227
0.454388 0.922603 0.098227
0.526876 0.922811 0.098227
0.599460 0.923018 0.098227
0.672126 0.923221 0.098227
0.744859 0.923419 0.098227
0.817648 0.923610 0.098227
0.890482 0.923790 0.098227
0.963352 0.923959 0.098227
0.986544 0.924010 0.098227
0.002235 0.997345 0.098320
0.024362 0.997373 0.098276
0.095239 0.997529 0.098227
0.166744 0.997728 0.098227
0.238579 0.997932 0.098227
0.310641 0.998139 0.098227
0.382874 0.998346 0.098227
0.455242 0.998553 0.098227
0.527718 0.998755 0.098227
0.600283 0.998953 0.098227
0.672921 0.999142 0.098227
0.745617 0.999322 0.098227
0.818361 0.999490 0.098227
0.891142 0.999644 0.098227
0.963951 0.999782 0.098227
0.987122 0.999822 0.098227
0.002275 1.000000 0.098303
0.024403 1.000000 0.098265
0.095281 1.000000 0.098227
0.166787 1.000000 0.098227
0.238623 1.000000 0.098227
0.310685 1.000000 0.098227
0.382918 1.000000 0.098227
0.455285 1.000000 0.098227
0.527760 1.000000 0.098227
0.600323 1.000000 0.098227
0.672959 1.000000 0.098227
0.745653 1.000000 0.098227
0.818395 1.000000 0.098227
0.891173 1.000000 0.098227
0.963978 1.000000 0.098227
0.987147 1.000000 0.098227
0.000000 0.014955 0.194670
0.022010 0.014921 0.194622
0.092505 0.014750 0.194382
0.163611 0.014488 0.194016
0.235039 0.014142 0.193531
0.306687 0.013719 0.192939
0.378505 0.013226 0.192249
0.450460 0.012670 0.191471
0.522531 0.012059 0.190615
0.594701 0.011400 0.189692
0.666960 0.010700 0.188713
0.739297 0.009968 0.187687
0.811705 0.009210 0.186627
0.884178 0.008435 0.185542
0.956710 0.007650 0.184443
0.979800 0.007400 0.184092
0.000000 0.037793 0.194558
0.022010 0.037740 0.194484
0.092505 0.037512 0.194164
0.163611 0.037197 0.193723
0.235039 0.036803 0.193171
0.306687 0.036336 0.192517
0.378505 0.035803 0.191772
0.450460 0.035212 0.190945
0.522531 0.034571 0.190047
0.594701 0.033886 0.189088
0.666960 0.033166 0.188079
0.739297 0.032417 0.187032
0.811705 0.031649 0.185955
0.884178 0.030867 0.184861
0.956710 0.030080 0.183759
0.979800 0.029830 0.183409
0.000000 0.110693 0.193856
0.022010 0.110586 0.193706
0.092505 0.110195 0.193158
0.163611 0.109730 0.192507
0.235039 0.109200 0.191765
0.306687 0.108611 0.190941
0.378505 0.107972 0.190046
0.450460 0.107289 0.189090
0.522531 0.106571 0.188084
0.594701 0.105824 0.187039
0.666960 0.105057 0.185965
0.739297 0.104277 0.184873
0.811705 0.103491 0.183773
0.884178 0.102708 0.182677
0.956710 0.101936 0.181596
0.979800 0.101694 0.181256
0.000000 0.183894 0.192683
0.022010 0.183742 0.192470
0.092505 0.183216 0.191734
0.163611 0.182630 0.190913
0.235039 0.181993 0.190021
0.306687 0.181312 0.189068
0.378505 0.180596 0.188065
0.450460 0.179851 0.187022
0.522531 0.179085 0.185951
0.594701 0.178307 0.184861
0.666960 0.177523 0.183764
0.739297 0.176742 0.182670
0.811705 0.175971 0.181590
0.884179 0.175218 0.180536
0.956750 0.174510 0.179517
0.979865 0.174298 0.179203
0.000000 0.257153 0.191123
0.022010 0.256965 0.190860
0.092505 0.256333 0.189976
0.163611 0.255656 0.189028
0.235039 0.254943 0.188029
0.306687 0.254200 0.186990
0.378505 0.253437 0.185921
0.450460 0.252661 0.184834
0.522531 0.251879 0.183740
0.594701 0.251100 0.182649
0.666960 0.250330 0.181572
0.739298 0.249579 0.180520
0.811746 0.248874 0.179504
0.884313 0.248228 0.178534
0.956989 0.247649 0.177623
0.980135 0.247480 0.177347
0.000000 0.330426 0.189261
0.022010 0.330212 0.188962
0.092505 0.329505 0.187973
0.163611 0.328768 0.186940
0.235039 0.328008 0.185876
0.306687 0.327235 0.184793
0.378505 0.326456 0.183703
0.450460 0.325679 0.182615
0.522531 0.324912 0.181542
0.594703 0.324164 0.180493
0.667003 0.323461 0.179480
0.739435 0.322818 0.178514
0.811987 0.322241 0.177605
0.884650 0.321736 0.176765
0.957414 0.321309 0.176005
0.980586 0.321190 0.175781
0.000000 0.403723 0.187187
0.022010 0.403492 0.186863
0.092505 0.402741 0.185812
0.163611 0.401973 0.184737
0.235039 0.401199 0.183652
0.306687 0.400426 0.182570
0.378505 0.399662 0.181501
0.450462 0.398917 0.180456
0.522576 0.398218 0.179447
0.594843 0.397579 0.178485
0.667247 0.397005 0.177580
0.739775 0.396503 0.176744
0.812415 0.396079 0.175987
0.885157 0.395737 0.175321
0.957992 0.395485 0.174756
0.981185 0.395425 0.174599
0.000000 0.477075 0.184987
0.022010 0.476836 0.184654
0.092505 0.476072 0.183583
0.163611 0.475305 0.182510
0.235039 0.474546 0.181447
0.306690 0.473806 0.180409
