resources/luts/teal-amber.cube
# Generated by FotoReady. Released under the project GPL-3.0-or-later license.
TITLE "teal-amber"
LUT_3D_SIZE 9
DOMAIN_MIN 0 0 0
DOMAIN_MAX 1 1 1
0.000000 0.085999 0.122553
0.000000 0.085093 0.122091
0.136113 0.068860 0.113537
0.340020 0.063693 0.104487
0.535822 0.060051 0.096596
0.723629 0.057305 0.089686
0.903579 0.055268 0.083544
0.943847 0.054883 0.082221
0.943847 0.054883 0.082221
0.000000 0.094429 0.120974
0.000000 0.093582 0.120492
0.135430 0.078049 0.111990
0.338366 0.065335 0.104311
0.534051 0.060080 0.096664
0.721964 0.057326 0.089745
0.902045 0.055283 0.083595
0.943847 0.054883 0.082221
0.943847 0.054883 0.082221
0.000000 0.259804 0.093809
0.000000 0.259182 0.093893
0.118194 0.246528 0.088546
0.323746 0.234589 0.082747
0.521787 0.225086 0.077274
0.712414 0.217956 0.072014
0.895712 0.213119 0.066859
0.960706 0.210854 0.065096
0.960704 0.210835 0.065098
0.000000 0.430082 0.073470
0.000000 0.429376 0.073547
0.103102 0.419137 0.069923
0.309017 0.408830 0.064655
0.510977 0.398928 0.059428
0.705775 0.391100 0.054059
0.893518 0.385306 0.048442
0.982222 0.381724 0.045770
0.982213 0.381662 0.045778
0.000000 0.601501 0.054906
0.000000 0.600748 0.054991
0.096949 0.591919 0.051867
0.300396 0.582903 0.045948
0.504395 0.573804 0.039591
0.704367 0.564452 0.032896
0.897408 0.556913 0.025735
1.000000 0.551688 0.021474
1.000000 0.551617 0.021486
0.000000 0.770608 0.033490
0.000000 0.769847 0.033600
0.102985 0.761891 0.030267
0.304761 0.753438 0.022691
0.507053 0.744933 0.014720
0.709776 0.736455 0.006458
0.907703 0.727656 0.000000
1.000000 0.721135 0.000000
1.000000 0.721087 0.000000
0.027562 0.935707 0.007030
0.027409 0.934960 0.007157
0.122294 0.928021 0.003719
0.321777 0.920680 0.000000
0.521495 0.913540 0.000000
0.721363 0.906676 0.000000
0.921299 0.900163 0.000000
1.000000 0.893146 0.000000
1.000000 0.893155 0.000000
0.050541 1.000000 0.000000
0.050541 1.000000 0.000000
0.141657 1.000000 0.000000
0.339211 1.000000 0.000000
0.536837 1.000000 0.000000
0.734423 1.000000 0.000000
0.931859 1.000000 0.000000
1.000000 1.000000 0.000000
1.000000 1.000000 0.000000
0.050541 1.000000 0.000000
0.050541 1.000000 0.000000
0.141970 1.000000 0.000000
0.339524 1.000000 0.000000
0.537150 1.000000 0.000000
0.734736 1.000000 0.000000
0.932171 1.000000 0.000000
1.000000 1.000000 0.000000
1.000000 1.000000 0.000000
0.000000 0.085999 0.122553
0.000000 0.085091 0.122089
0.136146 0.068858 0.113535
0.340052 0.063693 0.104485
0.535853 0.060051 0.096595
0.723659 0.057304 0.089685
0.903607 0.055268 0.083543
0.943847 0.054883 0.082221
0.943847 0.054883 0.082221
0.000000 0.094454 0.120969
0.000000 0.093605 0.120486
0.135460 0.078072 0.111984
0.338396 0.065359 0.104306
0.534077 0.060080 0.096663
0.721989 0.057326 0.089744
0.902069 0.055283 0.083594
0.943847 0.054883 0.082221
0.943847 0.054883 0.082221
0.000000 0.259830 0.093805
0.000000 0.259207 0.093890
0.118224 0.246553 0.088542
0.323775 0.234615 0.082743
0.521815 0.225112 0.077270
0.712443 0.217982 0.072010
0.895740 0.213145 0.066856
0.960709 0.210880 0.065093
0.960707 0.210862 0.065095
0.000000 0.430109 0.073467
0.000000 0.429401 0.073544
0.103133 0.419163 0.069920
0.309047 0.408856 0.064652
0.511007 0.398954 0.059425
0.705804 0.391127 0.054055
0.893547 0.385333 0.048438
0.982225 0.381751 0.045767
0.982217 0.381689 0.045774
0.000000 0.601528 0.054903
0.000000 0.600773 0.054988
0.096981 0.591945 0.051863
0.300428 0.582928 0.045944
0.504425 0.573829 0.039587
0.704405 0.564466 0.032893
0.897486 0.556912 0.025732
1.000000 0.551667 0.021478
1.000000 0.551594 0.021490
0.000000 0.770639 0.033485
0.000000 0.769878 0.033596
0.102942 0.761927 0.030264
0.304705 0.753470 0.022689
0.507011 0.744955 0.014718
0.709776 0.736458 0.006458
0.907783 0.727640 0.000000
1.000000 0.721096 0.000000
1.000000 0.721047 0.000000
0.027581 0.935796 0.007014
0.027428 0.935049 0.007142
0.122032 0.928110 0.003717
0.321538 0.920759 0.000000
0.521307 0.913601 0.000000
0.721254 0.906713 0.000000
0.921298 0.900168 0.000000
1.000000 0.893123 0.000000
1.000000 0.893133 0.000000
0.050541 1.000000 0.000000
0.050541 1.000000 0.000000
0.141067 1.000000 0.000000
0.338684 1.000000 0.000000
0.536405 1.000000 0.000000
0.734116 1.000000 0.000000
0.931706 1.000000 0.000000
1.000000 1.000000 0.000000
1.000000 1.000000 0.000000
0.050541 1.000000 0.000000
0.050541 1.000000 0.000000
0.141349 1.000000 0.000000
0.338972 1.000000 0.000000
0.536699 1.000000 0.000000
0.734416 1.000000 0.000000
0.932012 1.000000 0.000000
1.000000 1.000000 0.000000
1.000000 1.000000 0.000000
0.000000 0.080608 0.318145
0.000000 0.079758 0.317416
0.135105 0.066879 0.297627
0.339368 0.062514 0.276475
0.535552 0.059169 0.258428
0.723809 0.056649 0.243255
0.904268 0.054782 0.230760
0.945349 0.054433 0.224946
0.945346 0.054434 0.224730
0.000000 0.089217 0.314751
0.000000 0.088487 0.314100
0.134122 0.073252 0.294888
0.337874 0.062554 0.274812
0.534422 0.059196 0.256771
0.723098 0.056664 0.241623
0.904029 0.054789 0.229173
0.945333 0.054438 0.223432
0.945331 0.054439 0.223225
0.000000 0.255757 0.252389
0.000000 0.255188 0.251817
0.115723 0.242730 0.235478
0.325123 0.230236 0.219844
0.527100 0.220156 0.206522
0.721731 0.212422 0.195375
0.909102 0.206958 0.186298
0.961295 0.204082 0.183103
0.961288 0.204025 0.183100
0.000000 0.426811 0.199947
0.000000 0.426279 0.199032
0.097346 0.417262 0.182352
0.306820 0.406005 0.166582
0.512808 0.395441 0.156554
0.711722 0.386948 0.148577
0.903658 0.380472 0.142317
0.982827 0.376235 0.141486
0.982816 0.376144 0.141661
0.000000 0.598689 0.155703
0.000000 0.598269 0.154397
0.087998 0.591773 0.136259
0.295049 0.581759 0.120805
0.502667 0.571650 0.104918
0.706834 0.561587 0.098503
0.904173 0.553345 0.094010
1.000000 0.547469 0.094874
1.000000 0.547379 0.095138
0.000000 0.768106 0.115211
0.000000 0.767865 0.113457
0.090847 0.763416 0.093232
0.296234 0.753962 0.077143
0.502141 0.744457 0.060679
0.708489 0.734974 0.043939
0.910776 0.725466 0.041207
1.000000 0.718274 0.043928
1.000000 0.718218 0.044190
0.028578 0.933553 0.076497
0.028528 0.933548 0.074214
0.106894 0.931294 0.052011
0.309997 0.922960 0.036060
0.513350 0.914819 0.020069
0.716875 0.906942 0.004138
0.920490 0.899401 0.000000
1.000000 0.891692 0.000000
1.000000 0.891706 0.000000
0.051945 1.000000 0.051972
0.051885 1.000000 0.049257
0.121974 1.000000 0.025280
0.323417 1.000000 0.009264
0.524966 1.000000 0.000000
0.726506 1.000000 0.000000
0.927922 1.000000 0.000000
1.000000 1.000000 0.000000
1.000000 1.000000 0.000000
0.051951 1.000000 0.052232
0.051891 1.000000 0.049518
0.122267 1.000000 0.025530
0.323716 1.000000 0.009513
0.525271 1.000000 0.000000
0.726817 1.000000 0.000000
0.928240 1.000000 0.000000
1.000000 1.000000 0.000000
1.000000 1.000000 0.000000
0.000000 0.075587 0.519078
0.000000 0.074857 0.518741
0.131010 0.065338 0.500195
0.338308 0.061217 0.481098
0.534691 0.058169 0.458945
0.723195 0.055890 0.439599
0.903939 0.054215 0.422873
0.947326 0.053895 0.412657
0.947320 0.053897 0.412132
0.000000 0.084389 0.515836
0.000000 0.083767 0.515618
0.129856 0.069621 0.498208
0.336759 0.061255 0.479659
0.533515 0.058193 0.457532
0.722445 0.055903 0.438232
0.903669 0.054221 0.421570
0.947313 0.053899 0.411446
0.947308 0.053900 0.410938
0.000000 0.250673 0.457752
0.000000 0.250120 0.457511
0.113818 0.238309 0.446409
0.323789 0.225909 0.429718
0.526771 0.216120 0.411912
0.722437 0.208650 0.396246
0.910870 0.203425 0.382613
0.963149 0.200732 0.374888
0.963141 0.200688 0.374625
0.000000 0.423229 0.405002
0.000000 0.422659 0.404423
0.095062 0.413559 0.391709
0.305006 0.402326 0.375172
0.515151 0.391122 0.359909
0.718267 0.381978 0.346463
0.914433 0.374825 0.334698
0.984687 0.369950 0.328900
0.984669 0.369834 0.328835
0.000000 0.595625 0.356200
0.000000 0.595165 0.355284
0.086029 0.588693 0.340610
0.290704 0.579789 0.321328
0.502250 0.568628 0.304266
0.710680 0.557828 0.292483
0.912272 0.548890 0.282456
1.000000 0.542393 0.278309
1.000000 0.542289 0.278397
0.000373 0.765248 0.310727
0.000300 0.764968 0.309414
0.089477 0.760704 0.292221
0.289549 0.753529 0.269359
0.499331 0.743020 0.251786
0.709526 0.732557 0.233972
0.915958 0.722420 0.226019
1.000000 0.714628 0.223645
1.000000 0.714568 0.223793
0.032097 0.931018 0.267199
0.032049 0.930971 0.265409
0.105947 0.929107 0.245856
0.300703 0.924307 0.220303
0.507839 0.915243 0.203318
0.715119 0.906469 0.186428
0.922464 0.898056 0.169729
1.000000 0.889779 0.169223
1.000000 0.889798 0.169341
0.056060 1.000000 0.238024
0.056012 1.000000 0.235850
0.121431 1.000000 0.214224
0.310631 1.000000 0.186642
0.516134 1.000000 0.169821
0.721595 1.000000 0.153445
0.926895 1.000000 0.137662
1.000000 1.000000 0.123129
1.000000 1.000000 0.123213
0.056066 1.000000 0.238291
0.056018 1.000000 0.236117
0.121724 1.000000 0.214481
0.310935 1.000000 0.186903
0.516444 1.000000 0.170081
0.721912 1.000000 0.153703
0.927218 1.000000 0.137920
1.000000 1.000000 0.123411
1.000000 1.000000 0.123495
0.000000 0.071368 0.711368
0.000000 0.070732 0.711382
0.126995 0.063967 0.693852
0.331248 0.060177 0.676894
0.533809 0.057257 0.659524
0.722573 0.055203 0.635986
0.903616 0.053706 0.615010
0.949311 0.053414 0.600390
0.949302 0.053416 0.599567
0.000000 0.080360 0.708284
0.000000 0.079820 0.708471
0.125813 0.066914 0.692510
0.329836 0.060207 0.675865
0.532584 0.057278 0.658367
0.721783 0.055214 0.634894
0.903315 0.053711 0.614002
0.949302 0.053416 0.599492
0.949293 0.053418 0.598695
0.000000 0.246143 0.654382
0.000000 0.245619 0.654497
0.112621 0.234592 0.648839
0.319282 0.223160 0.633782
0.525185 0.212449 0.617790
0.721249 0.205410 0.597766
0.910110 0.200588 0.579740
0.965147 0.198241 0.567554
0.965139 0.198219 0.567051
0.000000 0.418181 0.605510
0.000000 0.417638 0.605339
0.096695 0.409060 0.597733
0.303310 0.398383 0.586284
0.514159 0.387153 0.569796
0.718415 0.378179 0.551699
0.915749 0.371170 0.535247
0.987148 0.366449 0.524843
0.987128 0.366346 0.524585
0.000000 0.592560 0.556646
0.000000 0.592061 0.556131
0.085000 0.585249 0.545878
0.289080 0.576158 0.530301
0.501229 0.564902 0.512306
0.713915 0.553374 0.495164
0.919750 0.543747 0.479616
1.000000 0.536631 0.470440
1.000000 0.536513 0.470367
0.003405 0.762375 0.506170
0.003331 0.762054 0.505311
0.089488 0.757448 0.492552
0.288514 0.750274 0.472981
0.495887 0.740906 0.451622
0.709920 0.729472 0.432745
0.920488 0.718713 0.419582
1.000000 0.710321 0.412086
1.000000 0.710257 0.412134
0.035659 0.928498 0.457873
0.035612 0.928409 0.456587
0.106784 0.926233 0.441515
0.299969 0.921688 0.418935
0.501663 0.915020 0.395336
0.712690 0.905357 0.377496
0.923754 0.896080 0.359882
1.000000 0.887239 0.354361
1.000000 0.887266 0.354439
0.060197 1.000000 0.424101
0.060161 1.000000 0.422467
0.123262 1.000000 0.405295
0.310344 1.000000 0.380437
0.506772 1.000000 0.354845
0.716144 1.000000 0.337491
0.925312 1.000000 0.320796
1.000000 1.000000 0.305368
1.000000 1.000000 0.305457
0.060204 1.000000 0.424375
0.060167 1.000000 0.422741
0.123554 1.000000 0.405560
0.310649 1.000000 0.380705
0.507089 1.000000 0.355117
0.716466 1.000000 0.337762
0.925640 1.000000 0.321067
1.000000 1.000000 0.305665
1.000000 1.000000 0.305753
0.000000 0.067944 0.895005
0.000000 0.067380 0.895333
0.123535 0.062737 0.878919
0.323845 0.059267 0.863312
0.523880 0.056582 0.848395
0.721948 0.054583 0.832409
0.903304 0.053250 0.807166
0.951309 0.052985 0.788138
0.951297 0.052988 0.787027
0.000000 0.077123 0.892088
0.000000 0.076643 0.892656
0.122416 0.064967 0.878130
0.322607 0.059290 0.862740
0.522815 0.056597 0.847695
0.721117 0.054593 0.831603
0.902969 0.053254 0.806464
0.951303 0.052986 0.787565
0.951291 0.052989 0.786490
0.000000 0.242356 0.842309
0.000000 0.241862 0.842792
0.112103 0.231606 0.842547
0.315043 0.221294 0.828771
0.518123 0.211361 0.814602
0.720088 0.202193 0.799285
0.909386 0.197768 0.776854
0.967188 0.195765 0.760202
0.967179 0.195763 0.759472
0.000000 0.413464 0.797075
0.000000 0.412965 0.797338
0.099702 0.405071 0.794944
0.302367 0.395103 0.788838
0.510040 0.384721 0.773817
0.717351 0.374704 0.757365
0.915218 0.368005 0.736388
0.989797 0.363600 0.721448
0.989777 0.363517 0.721015
0.000000 0.587145 0.751792
0.000000 0.586685 0.751758
0.090547 0.580334 0.746414
0.291417 0.571690 0.735885
0.500365 0.560877 0.722818
0.713835 0.549251 0.704352
0.920833 0.539772 0.684123
1.000000 0.532817 0.670299
1.000000 0.532713 0.670098
0.006509 0.759489 0.701546
0.006434 0.759127 0.701151
0.089561 0.754184 0.692835
0.288415 0.746661 0.677528
0.495139 0.737154 0.659940
0.709668 0.725722 0.640263
0.924363 0.714351 0.621902
1.000000 0.705355 0.609254
1.000000 0.705290 0.609215
0.039258 0.925998 0.648522
0.039212 0.925865 0.647752
0.107653 0.923378 0.637166
0.300573 0.918567 0.618963
0.501093 0.912015 0.598816
0.709583 0.903608 0.577348
0.924358 0.893474 0.558830
1.000000 0.884078 0.548269
1.000000 0.884113 0.548321
0.064353 1.000000 0.610208
0.064328 1.000000 0.609114
0.125105 1.000000 0.596401
0.311943 1.000000 0.575978
0.506681 1.000000 0.553580
0.710147 1.000000 0.530268
0.923166 1.000000 0.512692
1.000000 1.000000 0.496386
1.000000 1.000000 0.496479
0.064359 1.000000 0.610489
0.064335 1.000000 0.609396
0.125397 1.000000 0.596673
0.312247 1.000000 0.576254
0.506997 1.000000 0.553860
0.710475 1.000000 0.530552
0.923499 1.000000 0.512975
1.000000 1.000000 0.496697
1.000000 1.000000 0.496789
0.000000 0.065693 1.000000
0.000000 0.065649 1.000000
0.120638 0.061634 1.000000
0.317023 0.058457 1.000000
0.513177 0.056004 1.000000
0.709222 0.054165 1.000000
0.903006 0.052844 0.999333
0.953325 0.052604 0.975894
0.953310 0.052606 0.974508
0.000000 0.074671 1.000000
0.000000 0.074232 1.000000
0.119669 0.063779 1.000000
0.315966 0.058473 1.000000
0.512309 0.056014 1.000000
0.708573 0.054171 1.000000
0.902639 0.052847 0.998949
0.953322 0.052604 0.975657
0.953308 0.052607 0.974315
0.000000 0.239307 1.000000
0.000000 0.238845 1.000000
0.112267 0.229350 1.000000
0.311496 0.220149 1.000000
0.510909 0.211316 1.000000
0.710523 0.202719 0.988781
0.908701 0.194960 0.973951
0.969273 0.193300 0.952828
0.969264 0.193319 0.951881
0.000000 0.409449 0.979890
0.000000 0.408996 0.980600
0.103424 0.401782 0.983389
0.302149 0.392513 0.982613
0.506236 0.383130 0.968705
0.710857 0.373771 0.953909
0.914758 0.364823 0.937470
0.992529 0.360730 0.917985
0.992509 0.360666 0.917387
0.000000 0.581855 0.937817
0.000000 0.581451 0.938292
0.098149 0.575723 0.937918
0.295175 0.567693 0.932599
0.500289 0.557484 0.924730
0.710642 0.546653 0.907656
0.920699 0.536128 0.889066
1.000000 0.529500 0.870678
1.000000 0.529414 0.870364
0.008973 0.753453 0.891028
0.008916 0.753137 0.891184
0.099279 0.748622 0.887560
0.294879 0.741587 0.877356
0.498322 0.732592 0.864905
0.709529 0.721711 0.850309
0.924879 0.710359 0.830783
1.000000 0.701578 0.813492
1.000000 0.701526 0.813389
0.042891 0.923519 0.839152
0.042847 0.923343 0.838907
0.108551 0.920545 0.832812
0.301196 0.915475 0.818998
0.501415 0.908690 0.803273
0.709129 0.900259 0.785735
0.924273 0.890243 0.766576
1.000000 0.880300 0.750951
1.000000 0.880346 0.750991
0.068521 1.000000 0.796352
0.068509 1.000000 0.795799
0.126956 1.000000 0.787549
0.313538 1.000000 0.771577
0.507983 1.000000 0.753685
0.710178 1.000000 0.734050
0.920449 1.000000 0.713361
1.000000 1.000000 0.696203
1.000000 1.000000 0.696299
0.068528 1.000000 0.796640
0.068515 1.000000 0.796087
0.127248 1.000000 0.787828
0.313842 1.000000 0.771860
0.508299 1.000000 0.753972
0.710506 1.000000 0.734342
0.920787 1.000000 0.713657
1.000000 1.000000 0.696527
1.000000 1.000000 0.696624
0.000000 0.065383 1.000000
0.000000 0.065354 1.000000
0.116923 0.061424 1.000000
0.309516 0.058313 1.000000
0.501887 0.055911 1.000000
0.694156 0.054107 1.000000
0.886446 0.052794 1.000000
0.954357 0.052427 1.000000
0.954357 0.052427 1.000000
0.000000 0.073967 1.000000
0.000000 0.073566 1.000000
0.116186 0.064118 1.000000
0.308644 0.058326 1.000000
0.501222 0.055918 1.000000
0.693727 0.054111 1.000000
0.886282 0.052795 1.000000
0.954357 0.052427 1.000000
0.954357 0.052427 1.000000
0.000000 0.237363 1.000000
0.000000 0.236941 1.000000
0.111802 0.228158 1.000000
0.307370 0.219960 1.000000
0.503158 0.212145 1.000000
0.699162 0.204564 1.000000
0.895469 0.197140 1.000000
0.970281 0.190919 1.000000
0.970285 0.190955 1.000000
0.000000 0.406242 1.000000
0.000000 0.405838 1.000000
0.106653 0.399292 1.000000
0.301244 0.390706 1.000000
0.501744 0.382306 1.000000
0.702829 0.373936 1.000000
0.904512 0.365458 1.000000
0.994030 0.357951 1.000000
0.994022 0.357904 1.000000
0.000000 0.577305 1.000000
0.000000 0.576960 1.000000
0.105299 0.571865 1.000000
0.298276 0.564478 1.000000
0.499356 0.554914 1.000000
0.706220 0.545042 1.000000
0.913671 0.535171 1.000000
1.000000 0.526305 1.000000
1.000000 0.526234 1.000000
0.010345 0.747470 1.000000
0.010299 0.747223 1.000000
0.110604 0.743304 1.000000
0.302182 0.736941 1.000000
0.501624 0.728631 1.000000
0.708852 0.718447 0.993002
0.921143 0.707967 0.984443
1.000000 0.698182 0.979294
1.000000 0.698145 0.979300
0.044874 0.917108 0.992792
0.044848 0.916989 0.992813
0.121413 0.914651 0.989482
0.310698 0.910142 0.981107
0.507579 0.903936 0.972821
0.711978 0.896112 0.964726
0.923814 0.886746 0.956926
1.000000 0.876931 0.951070
1.000000 0.876991 0.951061
0.072443 1.000000 0.971155
0.072443 1.000000 0.971155
0.128583 1.000000 0.968575
0.314967 1.000000 0.960228
0.509220 1.000000 0.951977
0.711107 1.000000 0.938823
0.920518 1.000000 0.922309
1.000000 1.000000 0.904839
1.000000 1.000000 0.904940
0.072443 1.000000 0.971155
0.072443 1.000000 0.971155
0.128868 1.000000 0.968562
0.315264 1.000000 0.960215
0.509529 1.000000 0.951965
0.711434 1.000000 0.939123
0.920856 1.000000 0.922613
1.000000 1.000000 0.905178
1.000000 1.000000 0.905278
0.000000 0.065383 1.000000
0.000000 0.065354 1.000000
0.116494 0.061432 1.000000
0.308684 0.058325 1.000000
0.500680 0.055924 1.000000
0.692604 0.054120 1.000000
0.884576 0.052805 1.000000
0.954357 0.052427 1.000000
0.954357 0.052427 1.000000
0.000000 0.073963 1.000000
0.000000 0.073565 1.000000
0.115794 0.064228 1.000000
0.307844 0.058337 1.000000
0.500055 0.055930 1.000000
0.692222 0.054123 1.000000
0.884466 0.052805 1.000000
0.954357 0.052427 1.000000
0.954357 0.052427 1.000000
0.000000 0.237228 1.000000
0.000000 0.236811 1.000000
0.111751 0.228096 1.000000
0.306967 0.219994 1.000000
0.502433 0.212270 1.000000
0.698143 0.204772 1.000000
0.894185 0.197423 1.000000
0.970259 0.190746 1.000000
0.970264 0.190785 1.000000
0.000000 0.406004 1.000000
0.000000 0.405605 1.000000
0.106897 0.399125 1.000000
0.301140 0.390601 1.000000
0.501352 0.382285 1.000000
0.702179 0.373991 1.000000
0.903631 0.365583 1.000000
0.994003 0.357789 1.000000
0.993996 0.357744 1.000000
0.000000 0.577000 1.000000
0.000000 0.576661 1.000000
0.105751 0.571629 1.000000
0.298418 0.564301 1.000000
0.499218 0.554793 1.000000
0.705859 0.544991 1.000000
0.913118 0.535182 1.000000
1.000000 0.526160 1.000000
1.000000 0.526092 1.000000
0.010282 0.747136 1.000000
0.010237 0.746895 1.000000
0.111178 0.743033 1.000000
0.302487 0.736727 1.000000
0.501689 0.728468 1.000000
0.708711 0.718329 0.993028
0.920845 0.707904 0.984468
1.000000 0.698062 0.979314
1.000000 0.698028 0.979320
0.044802 0.916774 0.992850
0.044778 0.916661 0.992869
0.122028 0.914378 0.989497
0.311084 0.909921 0.981124
0.507768 0.903763 0.972839
0.712001 0.895980 0.964744
0.923702 0.886651 0.956944
1.000000 0.876843 0.951082
1.000000 0.876907 0.951073
0.072443 1.000000 0.971155
0.072443 1.000000 0.971155
0.128519 1.000000 0.968578
0.314903 1.000000 0.960231
0.509159 1.000000 0.951980
0.711155 1.000000 0.943653
0.920556 1.000000 0.926457
1.000000 1.000000 0.908257
1.000000 1.000000 0.908257
0.072443 1.000000 0.971155
0.072443 1.000000 0.971155
0.128808 1.000000 0.968565
0.315205 1.000000 0.960217
0.509473 1.000000 0.951967
0.711481 1.000000 0.943627
0.920894 1.000000 0.926429
1.000000 1.000000 0.908257
1.000000 1.000000 0.908257
