resources/luts/teal-shadows.cube
TITLE "teal-shadows"
LUT_3D_SIZE 6
DOMAIN_MIN 0 0 0
DOMAIN_MAX 1 1 1
0.000000 0.015000 0.021000
0.163611 0.014735 0.020628
0.378505 0.013683 0.019156
0.594701 0.012006 0.016809
0.811705 0.009904 0.013866
0.979800 0.008118 0.011365
0.000000 0.184313 0.019537
0.163611 0.183178 0.017947
0.378505 0.181258 0.015259
0.594701 0.179022 0.012129
0.811705 0.176676 0.008845
0.979810 0.174924 0.006386
0.000000 0.404406 0.014410
0.163611 0.402689 0.012006
0.378505 0.400366 0.008754
0.594753 0.398163 0.005634
0.812201 0.396464 0.002943
0.980898 0.395624 0.001346
0.000000 0.624803 0.007810
0.163675 0.623176 0.005486
0.379027 0.621521 0.002848
0.596044 0.620560 0.000929
0.814122 0.620456 0.000031
0.983153 0.620902 0.000000
0.000737 0.847103 0.002180
0.165010 0.846481 0.000847
0.380978 0.846427 0.000019
0.598391 0.847022 0.000000
0.816642 0.847646 0.000000
0.985652 0.848103 0.000000
0.002080 1.000000 0.000172
0.166575 1.000000 0.000000
0.382702 1.000000 0.000000
0.600121 1.000000 0.000000
0.818226 1.000000 0.000000
0.987016 1.000000 0.000000
0.000000 0.014955 0.194670
0.163611 0.014488 0.194016
0.378505 0.013226 0.192249
0.594701 0.011400 0.189692
0.811705 0.009210 0.186627
0.979800 0.007400 0.184092
0.000000 0.183894 0.192683
0.163611 0.182630 0.190913
0.378505 0.180596 0.188065
0.594701 0.178307 0.184861
0.811705 0.175971 0.181590
0.979865 0.174298 0.179203
0.000000 0.403723 0.187187
0.163611 0.401973 0.184737
0.378505 0.399662 0.181501
0.594843 0.397579 0.178485
0.812415 0.396079 0.175987
0.981185 0.395425 0.174599
0.000001 0.624115 0.180578
0.163772 0.622600 0.178345
0.379246 0.621145 0.175901
0.596350 0.620430 0.174265
0.814484 0.620614 0.173733
0.983534 0.621092 0.173733
0.000985 0.846796 0.175309
0.165320 0.846367 0.174202
0.381341 0.846595 0.173733
0.598774 0.847213 0.173733
0.817011 0.847830 0.173733
0.985988 0.848271 0.173733
0.002428 1.000000 0.173761
0.166951 1.000000 0.173733
0.383083 1.000000 0.173733
0.600476 1.000000 0.173733
0.818520 1.000000 0.173733
0.987240 1.000000 0.173733
0.000000 0.014766 0.422593
0.163611 0.014056 0.421599
0.378505 0.012547 0.419485
0.594701 0.010553 0.416694
0.811705 0.008278 0.413509
0.979800 0.006459 0.410962
0.000000 0.183259 0.419981
0.163611 0.181848 0.418006
0.378505 0.179692 0.414988
0.594701 0.177364 0.411727
0.811709 0.175072 0.408516
0.980002 0.173555 0.406253
0.000000 0.402800 0.414082
0.163611 0.401030 0.411603
0.378511 0.398766 0.408430
0.595024 0.396897 0.405591
0.812743 0.395680 0.403386
0.981595 0.395287 0.402306
0.000052 0.623270 0.407547
0.163961 0.621931 0.405463
0.379578 0.620758 0.403315
0.596783 0.620388 0.402091
0.814973 0.620859 0.401920
0.984037 0.621344 0.401920
0.001352 0.846507 0.402835
0.165758 0.846347 0.402055
0.381832 0.846841 0.401920
0.599275 0.847464 0.401920
0.817480 0.848065 0.401920
0.986400 0.848477 0.401920
0.002906 1.000000 0.401920
0.167451 1.000000 0.401920
0.383577 1.000000 0.401920
0.600918 1.000000 0.401920
0.818867 1.000000 0.401920
0.987484 1.000000 0.401920
0.000000 0.014440 0.651707
0.163611 0.013511 0.650406
0.378505 0.011785 0.647990
0.594701 0.009657 0.645010
0.811705 0.007330 0.641752
0.979800 0.005527 0.639228
0.000000 0.182536 0.648539
0.163611 0.181002 0.646392
0.378505 0.178757 0.643250
0.594701 0.176421 0.639979
0.811777 0.174239 0.636874
0.980209 0.172908 0.634774
0.000000 0.401855 0.642329
0.163611 0.400089 0.639857
0.378585 0.397940 0.636792
0.595271 0.396318 0.634179
0.813119 0.395410 0.632316
0.982042 0.395298 0.631580
0.000181 0.622510 0.635964
0.164215 0.621366 0.634065
0.379959 0.620502 0.632261
0.597247 0.620503 0.631498
0.815476 0.621111 0.631491
0.984540 0.621595 0.631491
0.001762 0.846356 0.631907
0.166225 0.846485 0.631492
0.382336 0.847093 0.631491
0.599772 0.847712 0.631491
0.817925 0.848287 0.631491
0.986775 0.848665 0.631491
0.003402 1.000000 0.631491
0.167957 1.000000 0.631491
0.384058 1.000000 0.631491
0.601330 1.000000 0.631491
0.819165 1.000000 0.631491
0.987663 1.000000 0.631491
0.000000 0.013989 0.881503
0.163611 0.012865 0.879930
0.378505 0.010957 0.877257
0.594701 0.008726 0.874135
0.811705 0.006380 0.870851
0.979808 0.004624 0.868386
0.000000 0.181738 0.877850
0.163611 0.180107 0.875566
0.378505 0.177806 0.872346
0.594701 0.175497 0.869112
0.811922 0.173497 0.866161
0.980480 0.172371 0.864260
0.000000 0.400903 0.871424
0.163611 0.399167 0.868994
0.378734 0.397204 0.866085
0.595576 0.395855 0.863744
0.813536 0.395282 0.862272
0.982515 0.395471 0.861918
0.000381 0.621848 0.865324
0.164527 0.620918 0.863647
0.380380 0.620389 0.862235
0.597734 0.620741 0.861918
0.815984 0.621365 0.861918
0.985034 0.621842 0.861918
0.002208 0.846356 0.862023
0.166714 0.846729 0.861918
0.382844 0.847347 0.861918
0.600255 0.847954 0.861918
0.818338 0.848494 0.861918
0.987104 0.848829 0.861918
0.003908 1.000000 0.861918
0.168461 1.000000 0.861918
0.384518 1.000000 0.861918
0.601703 1.000000 0.861918
0.819406 1.000000 0.861918
0.987771 1.000000 0.861918
0.000000 0.013665 1.000000
0.163611 0.012437 1.000000
0.378505 0.010434 1.000000
0.594701 0.008159 1.000000
0.811705 0.005818 1.000000
0.979844 0.004118 1.000000
0.000000 0.181231 1.000000
0.163611 0.179553 1.000000
0.378505 0.177235 1.000000
0.594710 0.174962 1.000000
0.812042 0.173100 1.000000
0.980669 0.172107 1.000000
0.000000 0.400336 1.000000
0.163624 0.398637 1.000000
0.378857 0.396812 1.000000
0.595784 0.395638 1.000000
0.813803 0.395278 1.000000
0.982809 0.395618 1.000000
0.000531 0.621504 1.000000
0.164739 0.620711 1.000000
0.380648 0.620394 1.000000
0.598033 0.620891 1.000000
0.816287 0.621516 1.000000
0.985322 0.621986 1.000000
0.002488 0.846433 1.000000
0.167014 0.846879 1.000000
0.383147 0.847498 1.000000
0.600534 0.848093 1.000000
0.818566 0.848608 1.000000
0.987275 0.848914 1.000000
0.004213 1.000000 1.000000
0.168757 1.000000 1.000000
0.384780 1.000000 1.000000
0.601904 1.000000 1.000000
0.819519 1.000000 1.000000
0.987798 1.000000 1.000000
