resources/luts/teal-amber.cube
# Generated by FotoReady. Released under the project GPL-3.0-or-later license.
TITLE "teal-amber"
LUT_3D_SIZE 17
DOMAIN_MIN 0 0 0
DOMAIN_MAX 1 1 1
0.000000 0.085999 0.122553
0.000000 0.085999 0.122553
0.000000 0.085093 0.122091
0.031705 0.076618 0.117703
0.136113 0.068860 0.113537
0.239071 0.065916 0.108877
0.340020 0.063693 0.104487
0.438930 0.061747 0.100404
0.535822 0.060051 0.096596
0.630716 0.058578 0.093033
0.723629 0.057305 0.089686
0.814579 0.056208 0.086531
0.903579 0.055268 0.083544
0.943847 0.054883 0.082221
0.943847 0.054883 0.082221
0.943847 0.054883 0.082221
0.943847 0.054883 0.082221
0.000000 0.085999 0.122553
0.000000 0.085999 0.122553
0.000000 0.085093 0.122091
0.031705 0.076618 0.117703
0.136113 0.068860 0.113537
0.239071 0.065916 0.108877
0.340020 0.063693 0.104487
0.438930 0.061747 0.100404
0.535822 0.060051 0.096596
0.630716 0.058578 0.093033
0.723629 0.057305 0.089686
0.814579 0.056208 0.086531
0.903579 0.055268 0.083544
0.943847 0.054883 0.082221
0.943847 0.054883 0.082221
0.943847 0.054883 0.082221
0.943847 0.054883 0.082221
0.000000 0.094429 0.120974
0.000000 0.094429 0.120974
0.000000 0.093582 0.120492
0.031009 0.085459 0.116130
0.135430 0.078049 0.111990
0.237878 0.071344 0.108055
0.338366 0.065335 0.104311
0.437116 0.061781 0.100477
0.534051 0.060080 0.096664
0.628995 0.058603 0.093096
0.721964 0.057326 0.089745
0.812976 0.056226 0.086586
0.902045 0.055283 0.083595
0.943847 0.054883 0.082221
0.943847 0.054883 0.082221
0.943847 0.054883 0.082221
0.943847 0.054883 0.082221
0.000000 0.176259 0.106211
0.000000 0.176259 0.106211
0.000000 0.175691 0.106304
0.022211 0.168462 0.102927
0.127165 0.161364 0.099409
0.230182 0.154925 0.096049
0.331277 0.149144 0.092831
0.430460 0.144012 0.089741
0.527743 0.139517 0.086765
0.623137 0.135650 0.083888
0.716651 0.132400 0.081097
0.808298 0.129757 0.078378
0.898086 0.127710 0.075717
0.951460 0.126452 0.074164
0.951414 0.126023 0.074211
0.951415 0.126040 0.074209
0.951415 0.126040 0.074209
0.000000 0.259804 0.093809
0.000000 0.259804 0.093809
0.000000 0.259182 0.093893
0.013465 0.252974 0.091628
0.118194 0.246528 0.088546
0.221919 0.240256 0.085598
0.323746 0.234589 0.082747
0.423698 0.229536 0.079977
0.521787 0.225086 0.077274
0.618022 0.221229 0.074624
0.712414 0.217956 0.072014
0.804974 0.215255 0.069430
0.895712 0.213119 0.066859
0.960792 0.211618 0.065014
0.960706 0.210854 0.065096
0.960704 0.210835 0.065098
0.960704 0.210835 0.065098
0.000000 0.344572 0.083111
0.000000 0.344572 0.083111
0.000000 0.343904 0.083190
0.005992 0.338411 0.081685
0.109738 0.332621 0.078902
0.213490 0.326931 0.076175
0.316195 0.321289 0.073530
0.417040 0.316201 0.070923
0.516058 0.311682 0.068337
0.613258 0.307723 0.065759
0.708650 0.304314 0.063175
0.802244 0.301446 0.060574
0.894050 0.299109 0.057941
0.970960 0.297324 0.055683
0.970823 0.296224 0.055806
0.970817 0.296180 0.055811
0.970817 0.296180 0.055811
0.000000 0.430082 0.073470
0.000000 0.430082 0.073470
0.000000 0.429376 0.073547
0.000213 0.424386 0.072566
0.103102 0.419137 0.069923
0.206033 0.413955 0.067291
0.309017 0.408830 0.064655
0.410909 0.403628 0.062052
0.510977 0.398928 0.059428
0.609263 0.394756 0.056768
0.705775 0.391100 0.054059
0.800523 0.387954 0.051287
0.893518 0.385306 0.048442
0.982426 0.383155 0.045592
0.982222 0.381724 0.045770
0.982213 0.381662 0.045778
0.982213 0.381662 0.045778
0.000000 0.515872 0.064266
0.000000 0.515872 0.064266
0.000000 0.515138 0.064344
0.000000 0.510515 0.063744
0.098702 0.505696 0.061085
0.200936 0.500909 0.058391
0.303261 0.496146 0.055646
0.405686 0.491395 0.052839
0.506966 0.486445 0.050019
0.606457 0.481948 0.047125
0.704209 0.477937 0.044139
0.800230 0.474403 0.041048
0.894531 0.471336 0.037840
0.987119 0.468730 0.034505
0.995359 0.466942 0.034414
0.995347 0.466871 0.034424
0.995347 0.466871 0.034424
0.000000 0.601501 0.054906
0.000000 0.601501 0.054906
0.000000 0.600748 0.054991
0.000000 0.596422 0.054696
0.096949 0.591919 0.051867
0.198609 0.587416 0.048956
0.300396 0.582903 0.045948
0.402321 0.578369 0.042831
0.504395 0.573804 0.039591
0.605262 0.568924 0.036304
0.704367 0.564452 0.032896
0.801753 0.560445 0.029369
0.897408 0.556913 0.025735
0.991324 0.553864 0.022007
1.000000 0.551688 0.021474
1.000000 0.551617 0.021486
1.000000 0.551617 0.021486
0.000000 0.686546 0.044826
0.000000 0.686546 0.044826
0.000000 0.685784 0.044922
0.000000 0.681731 0.044909
0.098250 0.677434 0.041755
0.199458 0.673104 0.038473
0.300829 0.668730 0.035050
0.402364 0.664312 0.031484
0.504053 0.659859 0.027789
0.605885 0.655381 0.023977
0.706367 0.650538 0.020182
0.805032 0.646133 0.016323
0.901932 0.642233 0.012399
0.997057 0.638846 0.008424
1.000000 0.636288 0.007399
1.000000 0.636224 0.007410
1.000000 0.636224 0.007410
0.000000 0.770608 0.033490
0.000000 0.770608 0.033490
0.000000 0.769847 0.033600
0.002316 0.766076 0.033874
0.102985 0.761891 0.030267
0.203804 0.757676 0.026535
0.304761 0.753438 0.022691
0.405848 0.749187 0.018748
0.507053 0.744933 0.014720
0.608366 0.740686 0.010619
0.709776 0.736455 0.006458
0.809676 0.731821 0.002398
0.907703 0.727656 0.000000
1.000000 0.724033 0.000000
1.000000 0.721135 0.000000
1.000000 0.721087 0.000000
1.000000 0.721087 0.000000
0.011315 0.853552 0.020733
0.011315 0.853552 0.020733
0.011172 0.852797 0.020855
0.010921 0.849313 0.021397
0.111128 0.845307 0.017429
0.211451 0.841301 0.013379
0.311877 0.837304 0.009262
0.412396 0.833327 0.005089
0.512998 0.829378 0.000875
0.613673 0.825466 0.000000
0.714410 0.821603 0.000000
0.815199 0.817796 0.000000
0.914322 0.813541 0.000000
1.000000 0.809783 0.000000
1.000000 0.806624 0.000000
1.000000 0.806600 0.000000
1.000000 0.806600 0.000000
0.027562 0.935707 0.007030
0.027562 0.935707 0.007030
0.027409 0.934960 0.007157
0.026747 0.931724 0.007710
0.122294 0.928021 0.003719
0.222001 0.924330 0.000000
0.321777 0.920680 0.000000
0.421612 0.917080 0.000000
0.521495 0.913540 0.000000
0.621415 0.910069 0.000000
0.721363 0.906676 0.000000
0.821328 0.903371 0.000000
0.921299 0.900163 0.000000
1.000000 0.896452 0.000000
1.000000 0.893146 0.000000
1.000000 0.893155 0.000000
1.000000 0.893155 0.000000
0.044739 1.000000 0.000000
0.044739 1.000000 0.000000
0.044582 1.000000 0.000000
0.043938 1.000000 0.000000
0.136086 1.000000 0.000000
0.235062 1.000000 0.000000
0.334073 1.000000 0.000000
0.433107 1.000000 0.000000
0.532154 0.997761 0.000000
0.631205 0.994832 0.000000
0.730250 0.992012 0.000000
0.829277 0.989311 0.000000
0.928276 0.986737 0.000000
1.000000 0.984299 0.000000
1.000000 0.981087 0.000000
1.000000 0.981140 0.000000
1.000000 0.981140 0.000000
0.050541 1.000000 0.000000
0.050541 1.000000 0.000000
0.050541 1.000000 0.000000
0.050541 1.000000 0.000000
0.141657 1.000000 0.000000
0.240418 1.000000 0.000000
0.339211 1.000000 0.000000
0.438022 1.000000 0.000000
0.536837 1.000000 0.000000
0.635642 1.000000 0.000000
0.734423 1.000000 0.000000
0.833167 1.000000 0.000000
0.931859 1.000000 0.000000
1.000000 1.000000 0.000000
1.000000 1.000000 0.000000
1.000000 1.000000 0.000000
1.000000 1.000000 0.000000
0.050541 1.000000 0.000000
0.050541 1.000000 0.000000
0.050541 1.000000 0.000000
0.050541 1.000000 0.000000
0.141970 1.000000 0.000000
0.240731 1.000000 0.000000
0.339524 1.000000 0.000000
0.438335 1.000000 0.000000
0.537150 1.000000 0.000000
0.635955 1.000000 0.000000
0.734736 1.000000 0.000000
0.833479 1.000000 0.000000
0.932171 1.000000 0.000000
1.000000 1.000000 0.000000
1.000000 1.000000 0.000000
1.000000 1.000000 0.000000
1.000000 1.000000 0.000000
0.050541 1.000000 0.000000
0.050541 1.000000 0.000000
0.050541 1.000000 0.000000
0.050541 1.000000 0.000000
0.141970 1.000000 0.000000
0.240731 1.000000 0.000000
0.339524 1.000000 0.000000
0.438335 1.000000 0.000000
0.537150 1.000000 0.000000
0.635955 1.000000 0.000000
0.734736 1.000000 0.000000
0.833479 1.000000 0.000000
0.932171 1.000000 0.000000
1.000000 1.000000 0.000000
1.000000 1.000000 0.000000
1.000000 1.000000 0.000000
1.000000 1.000000 0.000000
0.000000 0.085999 0.122553
0.000000 0.085999 0.122553
0.000000 0.085093 0.122091
0.031705 0.076618 0.117703
0.136113 0.068860 0.113537
0.239071 0.065916 0.108877
0.340020 0.063693 0.104487
0.438930 0.061747 0.100404
0.535822 0.060051 0.096596
0.630716 0.058578 0.093033
0.723629 0.057305 0.089686
0.814579 0.056208 0.086531
0.903579 0.055268 0.083544
0.943847 0.054883 0.082221
0.943847 0.054883 0.082221
0.943847 0.054883 0.082221
0.943847 0.054883 0.082221
0.000000 0.085999 0.122553
0.000000 0.085999 0.122553
0.000000 0.085093 0.122091
0.031705 0.076618 0.117703
0.136113 0.068860 0.113537
0.239071 0.065916 0.108877
0.340020 0.063693 0.104487
0.438930 0.061747 0.100404
0.535822 0.060051 0.096596
0.630716 0.058578 0.093033
0.723629 0.057305 0.089686
0.814579 0.056208 0.086531
0.903579 0.055268 0.083544
0.943847 0.054883 0.082221
0.943847 0.054883 0.082221
0.943847 0.054883 0.082221
0.943847 0.054883 0.082221
0.000000 0.094429 0.120974
0.000000 0.094429 0.120974
0.000000 0.093582 0.120492
0.031009 0.085459 0.116130
0.135430 0.078049 0.111990
0.237878 0.071344 0.108055
0.338366 0.065335 0.104311
0.437116 0.061781 0.100477
0.534051 0.060080 0.096664
0.628995 0.058603 0.093096
0.721964 0.057326 0.089745
0.812976 0.056226 0.086586
0.902045 0.055283 0.083595
0.943847 0.054883 0.082221
0.943847 0.054883 0.082221
0.943847 0.054883 0.082221
0.943847 0.054883 0.082221
0.000000 0.176259 0.106211
0.000000 0.176259 0.106211
0.000000 0.175691 0.106304
0.022211 0.168462 0.102927
0.127165 0.161364 0.099409
0.230182 0.154925 0.096049
0.331277 0.149144 0.092831
0.430460 0.144012 0.089741
0.527743 0.139517 0.086765
0.623137 0.135650 0.083888
0.716651 0.132400 0.081097
0.808298 0.129757 0.078378
0.898086 0.127710 0.075717
0.951460 0.126452 0.074164
0.951414 0.126023 0.074211
0.951415 0.126040 0.074209
0.951415 0.126040 0.074209
0.000000 0.259804 0.093809
0.000000 0.259804 0.093809
0.000000 0.259182 0.093893
0.013465 0.252974 0.091628
0.118194 0.246528 0.088546
0.221919 0.240256 0.085598
0.323746 0.234589 0.082747
0.423698 0.229536 0.079977
0.521787 0.225086 0.077274
0.618022 0.221229 0.074624
0.712414 0.217956 0.072014
0.804974 0.215255 0.069430
0.895712 0.213119 0.066859
0.960792 0.211618 0.065014
0.960706 0.210854 0.065096
0.960704 0.210835 0.065098
0.960704 0.210835 0.065098
0.000000 0.344572 0.083111
0.000000 0.344572 0.083111
0.000000 0.343904 0.083190
0.005992 0.338411 0.081685
0.109738 0.332621 0.078902
0.213490 0.326931 0.076175
0.316195 0.321289 0.073530
0.417040 0.316201 0.070923
0.516058 0.311682 0.068337
0.613258 0.307723 0.065759
0.708650 0.304314 0.063175
0.802244 0.301446 0.060574
0.894050 0.299109 0.057941
0.970960 0.297324 0.055683
0.970823 0.296224 0.055806
0.970817 0.296180 0.055811
0.970817 0.296180 0.055811
0.000000 0.430082 0.073470
0.000000 0.430082 0.073470
0.000000 0.429376 0.073547
0.000213 0.424386 0.072566
0.103102 0.419137 0.069923
0.206033 0.413955 0.067291
0.309017 0.408830 0.064655
0.410909 0.403628 0.062052
0.510977 0.398928 0.059428
0.609263 0.394756 0.056768
0.705775 0.391100 0.054059
0.800523 0.387954 0.051287
0.893518 0.385306 0.048442
0.982426 0.383155 0.045592
0.982222 0.381724 0.045770
0.982213 0.381662 0.045778
0.982213 0.381662 0.045778
0.000000 0.515872 0.064266
0.000000 0.515872 0.064266
0.000000 0.515138 0.064344
0.000000 0.510515 0.063744
0.098702 0.505696 0.061085
0.200936 0.500909 0.058391
0.303261 0.496146 0.055646
0.405686 0.491395 0.052839
0.506966 0.486445 0.050019
0.606457 0.481948 0.047125
0.704209 0.477937 0.044139
0.800230 0.474403 0.041048
0.894531 0.471336 0.037840
0.987119 0.468730 0.034505
0.995359 0.466942 0.034414
0.995347 0.466871 0.034424
0.995347 0.466871 0.034424
0.000000 0.601501 0.054906
0.000000 0.601501 0.054906
0.000000 0.600748 0.054991
0.000000 0.596422 0.054696
0.096949 0.591919 0.051867
0.198609 0.587416 0.048956
0.300396 0.582903 0.045948
0.402321 0.578369 0.042831
0.504395 0.573804 0.039591
0.605262 0.568924 0.036304
0.704367 0.564452 0.032896
0.801753 0.560445 0.029369
0.897408 0.556913 0.025735
0.991324 0.553864 0.022007
1.000000 0.551688 0.021474
1.000000 0.551617 0.021486
1.000000 0.551617 0.021486
0.000000 0.686546 0.044826
0.000000 0.686546 0.044826
0.000000 0.685784 0.044922
0.000000 0.681731 0.044909
0.098250 0.677434 0.041755
0.199458 0.673104 0.038473
0.300829 0.668730 0.035050
0.402364 0.664312 0.031484
0.504053 0.659859 0.027789
0.605885 0.655381 0.023977
0.706367 0.650538 0.020182
0.805032 0.646133 0.016323
0.901932 0.642233 0.012399
0.997057 0.638846 0.008424
1.000000 0.636288 0.007399
1.000000 0.636224 0.007410
1.000000 0.636224 0.007410
0.000000 0.770608 0.033490
0.000000 0.770608 0.033490
0.000000 0.769847 0.033600
0.002316 0.766076 0.033874
0.102985 0.761891 0.030267
0.203804 0.757676 0.026535
0.304761 0.753438 0.022691
0.405848 0.749187 0.018748
0.507053 0.744933 0.014720
0.608366 0.740686 0.010619
0.709776 0.736455 0.006458
0.809676 0.731821 0.002398
0.907703 0.727656 0.000000
1.000000 0.724033 0.000000
1.000000 0.721135 0.000000
1.000000 0.721087 0.000000
1.000000 0.721087 0.000000
0.011315 0.853552 0.020733
0.011315 0.853552 0.020733
0.011172 0.852797 0.020855
0.010921 0.849313 0.021397
0.111128 0.845307 0.017429
0.211451 0.841301 0.013379
0.311877 0.837304 0.009262
0.412396 0.833327 0.005089
0.512998 0.829378 0.000875
0.613673 0.825466 0.000000
0.714410 0.821603 0.000000
0.815199 0.817796 0.000000
0.914322 0.813541 0.000000
1.000000 0.809783 0.000000
1.000000 0.806624 0.000000
1.000000 0.806600 0.000000
1.000000 0.806600 0.000000
0.027562 0.935707 0.007030
0.027562 0.935707 0.007030
0.027409 0.934960 0.007157
0.026747 0.931724 0.007710
0.122294 0.928021 0.003719
0.222001 0.924330 0.000000
0.321777 0.920680 0.000000
0.421612 0.917080 0.000000
0.521495 0.913540 0.000000
0.621415 0.910069 0.000000
0.721363 0.906676 0.000000
0.821328 0.903371 0.000000
0.921299 0.900163 0.000000
1.000000 0.896452 0.000000
1.000000 0.893146 0.000000
1.000000 0.893155 0.000000
1.000000 0.893155 0.000000
0.044739 1.000000 0.000000
0.044739 1.000000 0.000000
0.044582 1.000000 0.000000
0.043938 1.000000 0.000000
0.136086 1.000000 0.000000
0.235062 1.000000 0.000000
0.334073 1.000000 0.000000
0.433107 1.000000 0.000000
0.532154 0.997761 0.000000
0.631205 0.994832 0.000000
0.730250 0.992012 0.000000
0.829277 0.989311 0.000000
0.928276 0.986737 0.000000
1.000000 0.984299 0.000000
1.000000 0.981087 0.000000
1.000000 0.981140 0.000000
1.000000 0.981140 0.000000
0.050541 1.000000 0.000000
0.050541 1.000000 0.000000
0.050541 1.000000 0.000000
0.050541 1.000000 0.000000
0.141657 1.000000 0.000000
0.240418 1.000000 0.000000
0.339211 1.000000 0.000000
0.438022 1.000000 0.000000
0.536837 1.000000 0.000000
0.635642 1.000000 0.000000
0.734423 1.000000 0.000000
0.833167 1.000000 0.000000
0.931859 1.000000 0.000000
1.000000 1.000000 0.000000
1.000000 1.000000 0.000000
1.000000 1.000000 0.000000
1.000000 1.000000 0.000000
0.050541 1.000000 0.000000
0.050541 1.000000 0.000000
0.050541 1.000000 0.000000
0.050541 1.000000 0.000000
0.141970 1.000000 0.000000
0.240731 1.000000 0.000000
0.339524 1.000000 0.000000
0.438335 1.000000 0.000000
0.537150 1.000000 0.000000
0.635955 1.000000 0.000000
0.734736 1.000000 0.000000
0.833479 1.000000 0.000000
0.932171 1.000000 0.000000
1.000000 1.000000 0.000000
1.000000 1.000000 0.000000
1.000000 1.000000 0.000000
1.000000 1.000000 0.000000
0.050541 1.000000 0.000000
0.050541 1.000000 0.000000
0.050541 1.000000 0.000000
0.050541 1.000000 0.000000
0.141970 1.000000 0.000000
0.240731 1.000000 0.000000
0.339524 1.000000 0.000000
0.438335 1.000000 0.000000
0.537150 1.000000 0.000000
0.635955 1.000000 0.000000
0.734736 1.000000 0.000000
0.833479 1.000000 0.000000
0.932171 1.000000 0.000000
1.000000 1.000000 0.000000
1.000000 1.000000 0.000000
1.000000 1.000000 0.000000
1.000000 1.000000 0.000000
0.000000 0.085999 0.122553
0.000000 0.085999 0.122553
0.000000 0.085091 0.122089
0.031738 0.076615 0.117702
0.136146 0.068858 0.113535
0.239103 0.065916 0.108876
0.340052 0.063693 0.104485
0.438961 0.061747 0.100403
0.535853 0.060051 0.096595
0.630746 0.058578 0.093032
0.723659 0.057304 0.089685
0.814608 0.056208 0.086530
0.903607 0.055268 0.083543
0.943847 0.054883 0.082221
0.943847 0.054883 0.082221
0.943847 0.054883 0.082221
0.943847 0.054883 0.082221
0.000000 0.085999 0.122553
0.000000 0.085999 0.122553
0.000000 0.085091 0.122089
0.031738 0.076615 0.117702
0.136146 0.068858 0.113535
0.239103 0.065916 0.108876
0.340052 0.063693 0.104485
0.438961 0.061747 0.100403
0.535853 0.060051 0.096595
0.630746 0.058578 0.093032
0.723659 0.057304 0.089685
0.814608 0.056208 0.086530
0.903607 0.055268 0.083543
0.943847 0.054883 0.082221
0.943847 0.054883 0.082221
0.943847 0.054883 0.082221
0.943847 0.054883 0.082221
0.000000 0.094454 0.120969
0.000000 0.094454 0.120969
0.000000 0.093605 0.120486
0.031039 0.085482 0.116124
0.135460 0.078072 0.111984
0.237908 0.071368 0.108050
0.338396 0.065359 0.104306
0.437142 0.061781 0.100476
0.534077 0.060080 0.096663
0.629020 0.058603 0.093095
0.721989 0.057326 0.089744
0.813001 0.056226 0.086585
0.902069 0.055283 0.083594
0.943847 0.054883 0.082221
0.943847 0.054883 0.082221
0.943847 0.054883 0.082221
0.943847 0.054883 0.082221
0.000000 0.176285 0.106207
0.000000 0.176285 0.106207
0.000000 0.175716 0.106300
0.022241 0.168487 0.102922
0.127195 0.161389 0.099404
0.230212 0.154949 0.096044
0.331306 0.149169 0.092827
0.430489 0.144037 0.089737
0.527772 0.139543 0.086761
0.623165 0.135676 0.083884
0.716679 0.132426 0.081093
0.808325 0.129783 0.078374
0.898114 0.127736 0.075713
0.951462 0.126479 0.074161
0.951416 0.126050 0.074208
0.951418 0.126066 0.074206
0.951418 0.126066 0.074206
0.000000 0.259830 0.093805
0.000000 0.259830 0.093805
0.000000 0.259207 0.093890
0.013495 0.252999 0.091624
0.118224 0.246553 0.088542
0.221948 0.240281 0.085594
0.323775 0.234615 0.082743
0.423727 0.229562 0.079973
0.521815 0.225112 0.077270
0.618051 0.221255 0.074620
0.712443 0.217982 0.072010
0.805002 0.215282 0.069426
0.895740 0.213145 0.066856
0.960795 0.211644 0.065011
0.960709 0.210880 0.065093
0.960707 0.210862 0.065095
0.960707 0.210862 0.065095
0.000000 0.344599 0.083108
0.000000 0.344599 0.083108
0.000000 0.343929 0.083187
0.006022 0.338436 0.081682
0.109769 0.332647 0.078898
0.213520 0.326957 0.076172
0.316224 0.321315 0.073527
0.417070 0.316227 0.070920
0.516087 0.311708 0.068334
0.613287 0.307750 0.065755
0.708678 0.304341 0.063172
0.802272 0.301472 0.060570
0.894079 0.299135 0.057937
0.970964 0.297350 0.055680
0.970826 0.296251 0.055803
0.970821 0.296207 0.055808
0.970821 0.296207 0.055808
0.000000 0.430109 0.073467
0.000000 0.430109 0.073467
0.000000 0.429401 0.073544
0.000244 0.424411 0.072563
0.103133 0.419163 0.069920
0.206064 0.413981 0.067287
0.309047 0.408856 0.064652
0.410939 0.403654 0.062048
0.511007 0.398954 0.059425
0.609292 0.394782 0.056764
0.705804 0.391127 0.054055
0.800553 0.387980 0.051283
0.893547 0.385333 0.048438
0.982430 0.383181 0.045589
0.982225 0.381751 0.045767
0.982217 0.381689 0.045774
0.982217 0.381689 0.045774
0.000000 0.515899 0.064263
0.000000 0.515899 0.064263
0.000000 0.515163 0.064342
0.000000 0.510541 0.063740
0.098734 0.505722 0.061081
0.200968 0.500935 0.058387
0.303291 0.496172 0.055643
0.405717 0.491421 0.052835
0.506997 0.486471 0.050015
0.606488 0.481974 0.047121
0.704239 0.477963 0.044135
0.800261 0.474429 0.041043
0.894575 0.471355 0.037836
0.987184 0.468740 0.034501
0.995359 0.466942 0.034414
0.995347 0.466869 0.034425
0.995347 0.466869 0.034425
0.000000 0.601528 0.054903
0.000000 0.601528 0.054903
0.000000 0.600773 0.054988
0.000000 0.596447 0.054693
0.096981 0.591945 0.051863
0.198641 0.587442 0.048952
0.300428 0.582928 0.045944
0.402353 0.578394 0.042827
0.504425 0.573829 0.039587
0.605292 0.568943 0.036300
0.704405 0.564466 0.032893
0.801806 0.560452 0.029366
0.897486 0.556912 0.025732
0.991433 0.553853 0.022004
1.000000 0.551667 0.021478
1.000000 0.551594 0.021490
1.000000 0.551594 0.021490
0.000000 0.686573 0.044823
0.000000 0.686573 0.044823
0.000000 0.685810 0.044918
0.000000 0.681757 0.044904
0.098283 0.677460 0.041751
0.199477 0.673130 0.038469
0.300836 0.668755 0.035046
0.402366 0.664334 0.031481
0.504056 0.659877 0.027786
0.605897 0.655392 0.023974
0.706397 0.650542 0.020180
0.805088 0.646129 0.016321
0.902022 0.642220 0.012397
0.997188 0.638822 0.008422
1.000000 0.636254 0.007404
1.000000 0.636188 0.007416
1.000000 0.636188 0.007416
0.000000 0.770639 0.033485
0.000000 0.770639 0.033485
0.000000 0.769878 0.033596
0.002291 0.766110 0.033870
0.102942 0.761927 0.030264
0.203750 0.757710 0.026532
0.304705 0.753470 0.022689
0.405796 0.749215 0.018746
0.507011 0.744955 0.014718
0.608342 0.740700 0.010618
0.709776 0.736458 0.006458
0.809712 0.731815 0.002398
0.907783 0.727640 0.000000
1.000000 0.724006 0.000000
1.000000 0.721096 0.000000
1.000000 0.721047 0.000000
1.000000 0.721047 0.000000
0.011326 0.853607 0.020724
0.011326 0.853607 0.020724
0.011182 0.852851 0.020846
0.010786 0.849369 0.021395
0.110986 0.845363 0.017427
0.211306 0.841355 0.013377
0.311738 0.837354 0.009260
0.412270 0.833371 0.005088
0.512893 0.829414 0.000874
0.613594 0.825493 0.000000
0.714365 0.821618 0.000000
0.815195 0.817797 0.000000
0.914372 0.813531 0.000000
1.000000 0.809761 0.000000
1.000000 0.806589 0.000000
1.000000 0.806565 0.000000
1.000000 0.806565 0.000000
0.027581 0.935796 0.007014
0.027581 0.935796 0.007014
0.027428 0.935049 0.007142
0.026765 0.931812 0.007695
0.122032 0.928110 0.003717
0.221747 0.924415 0.000000
0.321538 0.920759 0.000000
0.421395 0.917151 0.000000
0.521307 0.913601 0.000000
0.621263 0.910119 0.000000
0.721254 0.906713 0.000000
0.821269 0.903393 0.000000
0.921298 0.900168 0.000000
1.000000 0.896443 0.000000
1.000000 0.893123 0.000000
1.000000 0.893133 0.000000
1.000000 0.893133 0.000000
0.044768 1.000000 0.000000
0.044768 1.000000 0.000000
0.044611 1.000000 0.000000
0.043967 1.000000 0.000000
0.135688 1.000000 0.000000
0.234681 1.000000 0.000000
0.333715 1.000000 0.000000
0.432780 1.000000 0.000000
0.531866 0.997859 0.000000
0.630962 0.994917 0.000000
0.730059 0.992083 0.000000
0.829145 0.989364 0.000000
0.928212 0.986772 0.000000
1.000000 0.984314 0.000000
1.000000 0.981085 0.000000
1.000000 0.981139 0.000000
1.000000 0.981139 0.000000
0.050541 1.000000 0.000000
0.050541 1.000000 0.000000
0.050541 1.000000 0.000000
0.050541 1.000000 0.000000
0.141067 1.000000 0.000000
0.239856 1.000000 0.000000
0.338684 1.000000 0.000000
0.437539 1.000000 0.000000
0.536405 1.000000 0.000000
0.635269 1.000000 0.000000
0.734116 1.000000 0.000000
0.832933 1.000000 0.000000
0.931706 1.000000 0.000000
1.000000 1.000000 0.000000
1.000000 1.000000 0.000000
1.000000 1.000000 0.000000
1.000000 1.000000 0.000000
0.050541 1.000000 0.000000
0.050541 1.000000 0.000000
0.050541 1.000000 0.000000
0.050541 1.000000 0.000000
0.141349 1.000000 0.000000
0.240141 1.000000 0.000000
0.338972 1.000000 0.000000
0.437830 1.000000 0.000000
0.536699 1.000000 0.000000
0.635566 1.000000 0.000000
0.734416 1.000000 0.000000
0.833236 1.000000 0.000000
0.932012 1.000000 0.000000
1.000000 1.000000 0.000000
1.000000 1.000000 0.000000
1.000000 1.000000 0.000000
1.000000 1.000000 0.000000
0.050541 1.000000 0.000000
0.050541 1.000000 0.000000
0.050541 1.000000 0.000000
0.050541 1.000000 0.000000
0.141349 1.000000 0.000000
0.240141 1.000000 0.000000
0.338972 1.000000 0.000000
0.437830 1.000000 0.000000
0.536699 1.000000 0.000000
0.635566 1.000000 0.000000
0.734416 1.000000 0.000000
0.833236 1.000000 0.000000
0.932012 1.000000 0.000000
1.000000 1.000000 0.000000
1.000000 1.000000 0.000000
1.000000 1.000000 0.000000
1.000000 1.000000 0.000000
0.000000 0.083398 0.214399
0.000000 0.083398 0.214399
0.000000 0.082501 0.213497
0.030997 0.074122 0.203491
0.135685 0.067754 0.193344
0.238808 0.065333 0.183362
0.339882 0.063203 0.174198
0.438930 0.061335 0.165819
0.535972 0.059704 0.158195
0.631027 0.058285 0.151298
0.724112 0.057057 0.145101
0.815242 0.055998 0.139580
0.904433 0.055089 0.134714
0.944371 0.054722 0.132009
0.944361 0.054725 0.131100
0.944361 0.054725 0.131043
