resources/luts/true-contrast.cube
# Generated by FotoReady. Released under the project GPL-3.0-or-later license.
TITLE "true-contrast"
LUT_3D_SIZE 5
DOMAIN_MIN 0 0 0
DOMAIN_MAX 1 1 1
0.000000 0.000000 0.000000
0.229402 0.000029 0.000012
0.571124 0.000177 0.000074
0.896667 0.000436 0.000181
1.000000 0.000542 0.000226
0.000356 0.215730 0.000119
0.210003 0.209890 0.000189
0.555381 0.202402 0.000343
0.884583 0.198330 0.000540
1.000000 0.197420 0.000622
0.002251 0.543497 0.000750
0.186625 0.538767 0.000894
0.532766 0.532042 0.001205
0.867755 0.526179 0.001552
1.000000 0.524319 0.001709
0.005666 0.863904 0.001889
0.175981 0.860316 0.002098
0.516506 0.855581 0.002561
0.852853 0.851015 0.003063
1.000000 0.848318 0.003310
0.007673 1.000000 0.002558
0.175185 1.000000 0.002817
0.512899 1.000000 0.003379
0.846549 1.000000 0.003984
1.000000 1.000000 0.004304
0.000004 0.000003 0.233185
0.227454 0.000050 0.227412
0.569542 0.000224 0.216497
0.895450 0.000506 0.208930
1.000000 0.000621 0.206007
0.000424 0.213751 0.213554
0.208025 0.207896 0.207595
0.557856 0.199684 0.199156
0.891523 0.194888 0.194072
1.000000 0.193547 0.192621
0.002397 0.541897 0.188081
0.181273 0.538652 0.179386
0.531564 0.530808 0.171100
0.871109 0.524216 0.171591
1.000000 0.521941 0.173244
0.005880 0.862688 0.174351
0.167157 0.862140 0.162819
0.511930 0.856272 0.156296
0.852471 0.850586 0.149901
1.000000 0.847514 0.154450
0.007937 1.000000 0.171662
0.164544 1.000000 0.158774
0.506551 1.000000 0.153271
0.844441 1.000000 0.147871
1.000000 1.000000 0.145199
0.000026 0.000021 0.578955
0.221392 0.000094 0.574199
0.567138 0.000313 0.566877
0.893624 0.000633 0.552247
1.000000 0.000762 0.545268
0.000545 0.210225 0.562789
0.205254 0.205095 0.562668
0.555132 0.196921 0.554245
0.889392 0.192709 0.542141
1.000000 0.191698 0.536744
0.002686 0.539597 0.538344
0.178659 0.535976 0.534512
0.528996 0.528169 0.526241
0.875105 0.520549 0.518100
1.000000 0.517696 0.515035
0.006326 0.861060 0.517496
0.165244 0.860135 0.510960
0.504640 0.856464 0.499029
0.851198 0.849202 0.491037
1.000000 0.845594 0.491019
0.008480 1.000000 0.511099
0.163048 1.000000 0.503241
0.496784 1.000000 0.489498
0.840761 1.000000 0.482575
1.000000 1.000000 0.479138
0.000064 0.000051 0.906319
0.216492 0.000148 0.902572
0.556273 0.000401 0.896814
0.891840 0.000772 0.891196
1.000000 0.000915 0.880238
0.000679 0.207838 0.893593
0.203622 0.203430 0.899267
0.547574 0.196905 0.892471
0.887304 0.190569 0.885806
1.000000 0.189883 0.876539
0.002958 0.535139 0.874474
0.182604 0.532275 0.876585
0.526469 0.525570 0.876978
0.872624 0.517985 0.868852
1.000000 0.515460 0.862036
0.006783 0.859466 0.856300
0.163370 0.858168 0.854697
0.502265 0.853986 0.849817
0.848868 0.846760 0.841840
1.000000 0.842630 0.837345
0.009035 1.000000 0.846268
0.161587 1.000000 0.843376
0.494854 1.000000 0.836733
0.836095 1.000000 0.827080
1.000000 1.000000 0.822896
0.000078 0.000063 1.000000
0.214103 0.000166 1.000000
0.550432 0.000429 1.000000
0.882651 0.000809 1.000000
1.000000 0.000973 1.000000
0.000725 0.206936 1.000000
0.203144 0.202942 1.000000
0.543728 0.197353 1.000000
0.880197 0.191927 1.000000
1.000000 0.188844 1.000000
0.003061 0.533096 1.000000
0.185229 0.530662 1.000000
0.525495 0.524570 1.000000
0.868475 0.517886 1.000000
1.000000 0.514229 1.000000
0.006950 0.856378 1.000000
0.168889 0.855538 1.000000
0.504283 0.851969 1.000000
0.847503 0.845343 1.000000
1.000000 0.841257 1.000000
0.009300 1.000000 1.000000
0.160826 1.000000 1.000000
0.493868 1.000000 1.000000
0.834902 1.000000 1.000000
1.000000 1.000000 1.000000
