resources/luts/true-contrast.cube
# Generated by FotoReady. Released under the project GPL-3.0-or-later license.
TITLE "true-contrast"
LUT_3D_SIZE 9
DOMAIN_MIN 0 0 0
DOMAIN_MAX 1 1 1
0.000000 0.000000 0.000000
0.050287 0.000001 0.000001
0.229402 0.000029 0.000012
0.402520 0.000088 0.000037
0.571124 0.000177 0.000074
0.735745 0.000293 0.000122
0.896667 0.000436 0.000181
1.000000 0.000542 0.000226
1.000000 0.000542 0.000226
0.000017 0.047148 0.000006
0.045790 0.045785 0.000009
0.225226 0.041127 0.000030
0.398670 0.037407 0.000062
0.567608 0.034562 0.000105
0.732574 0.032567 0.000160
0.893853 0.031404 0.000225
1.000000 0.030999 0.000274
1.000000 0.031023 0.000275
0.000356 0.215730 0.000119
0.030423 0.214404 0.000127
0.210003 0.209890 0.000189
0.384952 0.205706 0.000261
0.555381 0.202402 0.000343
0.721829 0.199948 0.000436
0.884583 0.198330 0.000540
1.000000 0.197457 0.000622
1.000000 0.197420 0.000622
0.001107 0.380737 0.000369
0.018545 0.379447 0.000377
0.196673 0.375451 0.000478
0.371907 0.371553 0.000590
0.543803 0.367796 0.000711
0.711708 0.364892 0.000842
0.875912 0.362825 0.000983
1.000000 0.361501 0.001101
1.000000 0.361423 0.001101
0.002251 0.543497 0.000750
0.009937 0.542250 0.000753
0.186625 0.538767 0.000894
0.360444 0.535374 0.001045
0.532766 0.532042 0.001205
0.702114 0.528692 0.001374
0.867755 0.526179 0.001552
1.000000 0.524417 0.001710
1.000000 0.524319 0.001709
0.003775 0.704474 0.001258
0.004503 0.703278 0.001255
0.179760 0.700305 0.001435
0.352171 0.697414 0.001624
0.523097 0.694579 0.001822
0.693008 0.691790 0.002031
0.860086 0.688827 0.002246
1.000000 0.686630 0.002446
1.000000 0.686529 0.002446
0.005666 0.863904 0.001889
0.005652 0.862787 0.001884
0.175981 0.860316 0.002098
0.346971 0.857924 0.002325
0.516506 0.855581 0.002561
0.685052 0.853279 0.002807
0.852853 0.851015 0.003063
1.000000 0.848401 0.003310
1.000000 0.848318 0.003310
0.007673 1.000000 0.002558
0.007673 1.000000 0.002558
0.174977 1.000000 0.002817
0.344624 1.000000 0.003093
0.512831 1.000000 0.003379
0.680061 1.000000 0.003676
0.846556 1.000000 0.003984
1.000000 1.000000 0.004300
1.000000 1.000000 0.004301
0.007673 1.000000 0.002558
0.007673 1.000000 0.002558
0.175185 1.000000 0.002817
0.344754 1.000000 0.003093
0.512899 1.000000 0.003379
0.680084 1.000000 0.003676
0.846549 1.000000 0.003984
1.000000 1.000000 0.004303
1.000000 1.000000 0.004304
0.000000 0.000000 0.051144
0.049844 0.000002 0.049842
0.228990 0.000032 0.044870
0.402141 0.000094 0.040813
0.570778 0.000185 0.037607
0.735433 0.000303 0.035224
0.896391 0.000446 0.033647
1.000000 0.000554 0.032839
1.000000 0.000554 0.032804
0.000020 0.046687 0.046678
0.045323 0.045317 0.045302
0.225252 0.040569 0.040524
0.399197 0.036757 0.036666
0.568649 0.033818 0.033666
0.734143 0.031726 0.031497
0.895964 0.030464 0.030144
1.000000 0.029955 0.029567
1.000000 0.029962 0.029574
0.000365 0.215282 0.031052
0.029536 0.214121 0.029276
0.209584 0.209469 0.024537
0.385056 0.205191 0.022127
0.556021 0.201789 0.020562
0.723018 0.199238 0.019820
0.886337 0.197518 0.019886
1.000000 0.196539 0.020717
1.000000 0.196487 0.020930
0.001115 0.380301 0.018648
0.017193 0.379368 0.016436
0.195809 0.375228 0.012156
0.371539 0.371185 0.007957
0.543992 0.367329 0.007804
0.712469 0.364325 0.008464
0.877260 0.362155 0.009927
1.000000 0.360723 0.012148
1.000000 0.360634 0.012514
0.002255 0.543076 0.009251
0.008079 0.542392 0.006571
0.185274 0.538762 0.002745
0.359609 0.535220 0.001043
0.532460 0.531738 0.001204
0.702402 0.528284 0.001373
0.868649 0.525666 0.001551
1.000000 0.523795 0.003786
1.000000 0.523687 0.004257
0.003773 0.704070 0.002771
0.003767 0.703669 0.001256
0.177886 0.700543 0.001434
0.350835 0.697501 0.001622
0.522311 0.694512 0.001821
0.692787 0.691569 0.002030
0.860483 0.688506 0.002245
1.000000 0.686206 0.002444
1.000000 0.686099 0.002444
0.005661 0.863526 0.001887
0.005661 0.863454 0.001887
0.173582 0.860816 0.002097
0.345149 0.858268 0.002324
0.515255 0.855771 0.002560
0.684369 0.853316 0.002806
0.852736 0.850899 0.003063
1.000000 0.848183 0.003309
1.000000 0.848096 0.003309
0.007673 1.000000 0.002558
0.007673 1.000000 0.002558
0.172106 1.000000 0.002812
0.342333 1.000000 0.003089
0.511114 1.000000 0.003376
0.678915 1.000000 0.003674
0.845978 1.000000 0.003983
1.000000 1.000000 0.004300
1.000000 1.000000 0.004301
0.007673 1.000000 0.002558
0.007673 1.000000 0.002558
0.172284 1.000000 0.002813
0.342436 1.000000 0.003089
0.511159 1.000000 0.003376
0.678918 1.000000 0.003674
0.845955 1.000000 0.003983
1.000000 1.000000 0.004303
1.000000 1.000000 0.004304
0.000004 0.000003 0.233185
0.047894 0.000009 0.231987
0.227454 0.000050 0.227412
0.400756 0.000123 0.221521
0.569542 0.000224 0.216497
0.734346 0.000352 0.212306
0.895450 0.000506 0.208930
1.000000 0.000621 0.206329
1.000000 0.000621 0.206007
0.000036 0.044999 0.229074
0.043711 0.043701 0.228342
0.223652 0.038963 0.223568
0.397751 0.035302 0.217887
0.567356 0.032514 0.213080
0.733001 0.030571 0.209115
0.894974 0.029458 0.205973
1.000000 0.029096 0.203614
1.000000 0.029126 0.203348
0.000424 0.213751 0.213554
0.027964 0.212538 0.212329
0.208025 0.207896 0.207595
0.385201 0.203350 0.202943
0.557856 0.199684 0.199156
0.726533 0.196870 0.196204
0.891523 0.194888 0.194072
1.000000 0.193633 0.192706
1.000000 0.193547 0.192621
0.001216 0.378947 0.199305
0.015804 0.377959 0.197675
0.193024 0.374390 0.191991
0.370316 0.369937 0.187378
0.544459 0.365817 0.185002
0.714616 0.362550 0.183454
0.881078 0.360118 0.182718
1.000000 0.358410 0.182742
1.000000 0.358292 0.182847
0.002397 0.541897 0.188081
0.006870 0.541156 0.186013
0.181273 0.538652 0.179386
0.357168 0.534699 0.175219
0.531564 0.530808 0.171100
0.703187 0.527093 0.170943
0.871109 0.524216 0.171591
1.000000 0.522071 0.172998
1.000000 0.521941 0.173244
0.003955 0.703063 0.179784
0.003947 0.702607 0.177248
0.172671 0.701153 0.169682
0.347178 0.697697 0.165959
0.520197 0.694299 0.162279
0.692207 0.690948 0.158634
0.861580 0.687628 0.160658
1.000000 0.685061 0.163444
1.000000 0.684938 0.163783
0.005880 0.862688 0.174351
0.005874 0.862557 0.171324
0.167157 0.862140 0.162819
0.340281 0.859180 0.159537
0.511930 0.856272 0.156296
0.682578 0.853409 0.153086
0.852471 0.850586 0.149901
1.000000 0.847611 0.154065
1.000000 0.847514 0.154450
0.007936 1.000000 0.171505
0.007931 1.000000 0.168118
0.164445 1.000000 0.158676
0.336235 1.000000 0.155849
0.506566 1.000000 0.153059
0.675908 1.000000 0.150300
0.844505 1.000000 0.147565
1.000000 1.000000 0.144849
1.000000 1.000000 0.145234
0.007937 1.000000 0.171662
0.007931 1.000000 0.168258
0.164544 1.000000 0.158774
0.336269 1.000000 0.156006
0.506551 1.000000 0.153271
0.675860 1.000000 0.150560
0.844441 1.000000 0.147871
1.000000 1.000000 0.145200
1.000000 1.000000 0.145199
0.000013 0.000010 0.408614
0.046258 0.000018 0.407519
0.224271 0.000071 0.403351
0.399398 0.000155 0.399269
0.568332 0.000267 0.392456
0.733282 0.000405 0.386488
0.894531 0.000568 0.381343
1.000000 0.000690 0.376977
1.000000 0.000690 0.376380
0.000055 0.043624 0.404856
0.042411 0.042397 0.404766
0.220813 0.038087 0.400414
0.396333 0.033875 0.396146
0.566088 0.031235 0.389561
0.731883 0.029439 0.383829
0.894004 0.028472 0.378928
1.000000 0.028254 0.374816
1.000000 0.028306 0.374287
0.000483 0.211841 0.390721
0.028113 0.210705 0.390174
0.206493 0.206349 0.387690
0.383681 0.201813 0.383042
0.556486 0.198295 0.377477
0.725312 0.195627 0.372759
0.890451 0.193792 0.368868
1.000000 0.192682 0.365749
1.000000 0.192617 0.365432
0.001319 0.377619 0.377003
0.014442 0.376576 0.375953
0.191531 0.372875 0.372099
0.368835 0.368431 0.367490
0.544640 0.364050 0.362928
0.716449 0.360525 0.359207
0.884556 0.357836 0.356309
1.000000 0.355856 0.354172
1.000000 0.355711 0.354028
0.002540 0.540740 0.363982
0.005685 0.539943 0.362521
0.179958 0.537306 0.357725
0.354492 0.533910 0.352189
0.530411 0.529620 0.347666
0.703686 0.525646 0.345336
0.873253 0.522511 0.343822
1.000000 0.520098 0.343069
1.000000 0.519946 0.343101
0.004138 0.702077 0.353898
0.004130 0.701566 0.352000
0.171533 0.699976 0.346263
0.343313 0.697621 0.339806
0.517856 0.693824 0.335722
0.691380 0.690076 0.331675
0.862397 0.686498 0.331537
1.000000 0.683666 0.332164
1.000000 0.683527 0.332326
0.006102 0.861869 0.346674
0.006096 0.861685 0.344327
0.166194 0.861132 0.337651
0.335233 0.859812 0.330276
0.508406 0.856506 0.326631
0.680568 0.853246 0.323018
0.851968 0.850028 0.319434
1.000000 0.846793 0.321441
1.000000 0.846686 0.321685
0.008207 1.000000 0.342088
0.008203 1.000000 0.339381
0.163672 1.000000 0.331769
0.329987 1.000000 0.323484
0.501848 1.000000 0.320292
0.672712 1.000000 0.317133
0.842826 1.000000 0.314001
1.000000 1.000000 0.310886
1.000000 1.000000 0.311167
0.008207 1.000000 0.342120
0.008203 1.000000 0.339399
0.163791 1.000000 0.331758
0.329956 1.000000 0.323454
0.501778 1.000000 0.320332
0.672619 1.000000 0.317238
0.842724 1.000000 0.314167
1.000000 1.000000 0.311116
1.000000 1.000000 0.311110
0.000026 0.000021 0.578955
0.044913 0.000032 0.577964
0.221392 0.000094 0.574199
0.395010 0.000188 0.570513
0.567138 0.000313 0.566877
0.732231 0.000461 0.559147
0.893624 0.000633 0.552247
1.000000 0.000762 0.546133
1.000000 0.000762 0.545268
0.000078 0.042538 0.575552
0.041403 0.041384 0.576105
0.218280 0.037498 0.572173
0.392299 0.033704 0.568316
0.564835 0.029970 0.564504
0.730778 0.028320 0.557021
0.893047 0.027498 0.550377
1.000000 0.027422 0.544527
1.000000 0.027496 0.543745
0.000545 0.210225 0.562789
0.028540 0.209168 0.562923
0.205254 0.205095 0.562668
0.380942 0.200976 0.558432
0.555132 0.196921 0.554245
0.724106 0.194399 0.547775
0.889392 0.192709 0.542141
1.000000 0.191742 0.537285
1.000000 0.191698 0.536744
0.001418 0.375480 0.550421
0.016282 0.374523 0.550087
0.191705 0.371105 0.548464
0.367370 0.366941 0.546048
0.543186 0.362569 0.541490
0.715143 0.359189 0.536018
0.883398 0.356645 0.531376
1.000000 0.354811 0.527503
1.000000 0.354685 0.527165
0.002686 0.539597 0.538344
0.004515 0.538744 0.537492
0.178659 0.535976 0.534512
0.353065 0.532450 0.530761
0.528996 0.528169 0.526241
0.703909 0.523939 0.521757
0.875105 0.520549 0.518100
1.000000 0.517868 0.515206
1.000000 0.517696 0.515035
0.004323 0.701103 0.526488
0.004315 0.700538 0.525230
0.170408 0.698813 0.521307
0.342061 0.696328 0.516635
0.515263 0.693079 0.511202
0.690288 0.688939 0.506756
0.862936 0.685105 0.504474
1.000000 0.682010 0.502963
1.000000 0.681857 0.502956
0.006326 0.861060 0.517496
0.006321 0.860824 0.515822
0.165244 0.860135 0.510960
0.334156 0.858686 0.505371
0.504640 0.856464 0.499029
0.678303 0.852811 0.495018
0.851198 0.849202 0.491037
1.000000 0.845710 0.490908
1.000000 0.845594 0.491019
0.008480 1.000000 0.511186
0.008477 1.000000 0.509153
0.162909 1.000000 0.503355
0.329101 1.000000 0.496856
0.496904 1.000000 0.489618
0.669278 1.000000 0.486063
0.840894 1.000000 0.482537
1.000000 1.000000 0.479025
1.000000 1.000000 0.479210
0.008480 1.000000 0.511099
0.008477 1.000000 0.509057
0.163048 1.000000 0.503241
0.329094 1.000000 0.496734
0.496784 1.000000 0.489498
0.669143 1.000000 0.486024
0.840761 1.000000 0.482575
1.000000 1.000000 0.479148
1.000000 1.000000 0.479138
0.000043 0.000035 0.744758
0.043847 0.000048 0.743871
0.218801 0.000120 0.740507
0.390919 0.000223 0.737215
0.561558 0.000356 0.733969
0.731192 0.000519 0.730760
0.892727 0.000701 0.722116
1.000000 0.000837 0.714264
1.000000 0.000837 0.713140
0.000104 0.041733 0.741713
0.040677 0.040652 0.742913
0.216038 0.037188 0.739397
0.388566 0.033809 0.735949
0.559623 0.030486 0.732544
0.729683 0.027210 0.729170
0.892099 0.026533 0.720793
1.000000 0.026599 0.713216
1.000000 0.026694 0.712188
0.000611 0.208893 0.730314
0.029242 0.207915 0.731131
0.204299 0.204124 0.733094
0.378495 0.200420 0.729267
0.551207 0.196776 0.725485
0.722911 0.193181 0.721738
0.888344 0.191635 0.714370
1.000000 0.190811 0.707788
1.000000 0.190787 0.707031
0.001519 0.373627 0.719287
0.018387 0.372757 0.719674
0.192154 0.369622 0.720267
0.366189 0.365734 0.720031
0.540528 0.361774 0.715880
0.713849 0.357864 0.711764
0.882250 0.355464 0.705390
1.000000 0.353774 0.699790
1.000000 0.353668 0.699265
0.002821 0.537227 0.708538
0.008011 0.536471 0.708445
0.180499 0.533984 0.707681
0.353276 0.530736 0.706110
0.527592 0.526730 0.703752
0.702516 0.522508 0.699272
0.873860 0.519262 0.693881
1.000000 0.516728 0.689262
1.000000 0.516574 0.688933
0.004512 0.700139 0.698033
0.004504 0.699519 0.697417
0.169294 0.697660 0.695297
0.340821 0.695046 0.692399
0.513897 0.691670 0.688726
0.688934 0.687539 0.684283
0.863202 0.683451 0.679871
1.000000 0.680096 0.676233
1.000000 0.679929 0.676067
0.006553 0.860259 0.687290
0.006548 0.859971 0.686286
0.164303 0.859148 0.683226
0.333089 0.857570 0.679411
0.503448 0.855220 0.674829
0.675784 0.852110 0.669483
0.850164 0.848112 0.665107
1.000000 0.844365 0.662854
1.000000 0.844241 0.662841
0.008756 1.000000 0.679265
0.008754 1.000000 0.677903
0.162156 1.000000 0.673908
0.328224 1.000000 0.669185
0.495907 1.000000 0.663707
0.665600 1.000000 0.657477
0.838711 1.000000 0.653561
1.000000 1.000000 0.649651
1.000000 1.000000 0.649750
0.008756 1.000000 0.679068
0.008754 1.000000 0.677700
0.162314 1.000000 0.673699
0.328242 1.000000 0.668978
0.495815 1.000000 0.663514
0.665430 1.000000 0.657307
0.838550 1.000000 0.653483
1.000000 1.000000 0.649681
1.000000 1.000000 0.649670
0.000064 0.000051 0.906319
0.043055 0.000067 0.905537
0.216492 0.000148 0.902572
0.387115 0.000260 0.899672
0.556273 0.000401 0.896814
0.724434 0.000572 0.893990
0.891840 0.000772 0.891196
1.000000 0.000916 0.881614
1.000000 0.000915 0.880238
0.000134 0.041204 0.903634
0.040228 0.040196 0.905486
0.214080 0.037152 0.902384
0.385123 0.034186 0.899345
0.554709 0.031273 0.896343
0.723307 0.028404 0.893371
0.891159 0.025575 0.890424
1.000000 0.025783 0.881128
1.000000 0.025898 0.879861
0.000679 0.207838 0.893593
0.030213 0.206941 0.895099
0.203622 0.203430 0.899267
0.376334 0.200139 0.895849
0.547574 0.196905 0.892471
0.717816 0.193716 0.889125
0.887304 0.190569 0.885806
1.000000 0.189888 0.877505
1.000000 0.189883 0.876539
0.001623 0.372054 0.883901
0.020755 0.371273 0.885013
0.192874 0.368417 0.887812
0.365288 0.364806 0.889747
0.538155 0.361255 0.886000
0.710014 0.357752 0.882286
0.881112 0.354292 0.878600
1.000000 0.352746 0.871283
1.000000 0.352659 0.870579
0.002958 0.535139 0.874474
0.011765 0.534481 0.875143
0.182604 0.532275 0.876585
0.353760 0.529302 0.877185
0.526469 0.525570 0.876978
0.699930 0.521755 0.872900
0.872624 0.517985 0.868852
1.000000 0.515596 0.862515
1.000000 0.515460 0.862036
0.004680 0.697537 0.865283
0.004674 0.697012 0.865461
0.172777 0.695448 0.865553
0.342682 0.693110 0.864826
0.514150 0.690007 0.863304
0.687589 0.686148 0.861000
0.861869 0.682069 0.856591
1.000000 0.678861 0.851236
1.000000 0.678712 0.850949
0.006783 0.859466 0.856300
0.006778 0.859126 0.855963
0.163370 0.858168 0.854697
0.332031 0.856462 0.852649
0.502265 0.853986 0.849817
0.674477 0.850749 0.846212
0.848868 0.846760 0.841840
1.000000 0.842760 0.837474
1.000000 0.842630 0.837345
0.009035 1.000000 0.846570
0.009034 1.000000 0.845874
0.161410 1.000000 0.843675
0.327357 1.000000 0.840719
0.494918 1.000000 0.836993
0.664493 1.000000 0.832506
0.836278 1.000000 0.827262
1.000000 1.000000 0.822956
1.000000 1.000000 0.822976
0.009035 1.000000 0.846268
0.009033 1.000000 0.845571
0.161587 1.000000 0.843376
0.327397 1.000000 0.840434
0.494854 1.000000 0.836733
0.664353 1.000000 0.832279
0.836095 1.000000 0.827080
1.000000 1.000000 0.822906
1.000000 1.000000 0.822896
0.000078 0.000063 1.000000
0.042522 0.000079 1.000000
0.214441 0.000166 1.000000
0.383572 0.000283 1.000000
0.551250 0.000430 1.000000
0.717939 0.000606 1.000000
0.883881 0.000811 1.000000
1.000000 0.000973 1.000000
1.000000 0.000973 1.000000
0.000154 0.040935 1.000000
0.040036 0.040000 1.000000
0.212381 0.037372 1.000000
0.381942 0.034814 1.000000
0.550059 0.032307 1.000000
0.717197 0.029841 1.000000
0.883596 0.027414 1.000000
1.000000 0.024948 1.000000
1.000000 0.025083 1.000000
0.000725 0.207037 1.000000
0.031425 0.206219 1.000000
0.203184 0.202982 1.000000
0.374415 0.200101 1.000000
0.544187 0.197272 1.000000
0.712970 0.194488 1.000000
0.881007 0.191744 1.000000
1.000000 0.188938 1.000000
1.000000 0.188953 1.000000
0.001697 0.370731 1.000000
0.023353 0.370038 1.000000
0.193821 0.367456 1.000000
0.364613 0.364113 1.000000
0.536014 0.360970 1.000000
0.706415 0.357872 1.000000
0.876063 0.354816 1.000000
1.000000 0.351687 1.000000
1.000000 0.351619 1.000000
0.003063 0.533299 1.000000
0.015740 0.532739 1.000000
0.184930 0.530808 1.000000
0.354465 0.528105 1.000000
0.525567 0.524641 1.000000
0.697573 0.521234 1.000000
0.868818 0.517869 1.000000
1.000000 0.514434 1.000000
1.000000 0.514317 1.000000
0.004816 0.695186 1.000000
0.008557 0.694768 1.000000
0.176478 0.693483 1.000000
0.344764 0.691417 1.000000
0.514628 0.688584 1.000000
0.686474 0.684994 1.000000
0.859307 0.681323 1.000000
1.000000 0.677604 1.000000
1.000000 0.677472 1.000000
0.006954 0.856608 1.000000
0.006950 0.856370 1.000000
0.168446 0.855712 1.000000
0.335489 0.854280 1.000000
0.504123 0.852076 1.000000
0.674745 0.849111 1.000000
0.847555 0.845395 1.000000
1.000000 0.841417 1.000000
1.000000 0.841303 1.000000
0.009300 1.000000 1.000000
0.009300 1.000000 1.000000
0.160655 1.000000 1.000000
0.326482 1.000000 1.000000
0.493927 1.000000 1.000000
0.663388 1.000000 1.000000
0.835035 1.000000 1.000000
1.000000 1.000000 0.999050
1.000000 1.000000 0.999001
0.009300 1.000000 1.000000
0.009300 1.000000 1.000000
0.160850 1.000000 1.000000
0.326545 1.000000 1.000000
0.493890 1.000000 1.000000
0.663281 1.000000 1.000000
0.834913 1.000000 1.000000
1.000000 1.000000 0.998934
1.000000 1.000000 0.998927
0.000078 0.000063 1.000000
0.042453 0.000079 1.000000
0.214103 0.000166 1.000000
0.382985 0.000283 1.000000
0.550432 0.000429 1.000000
0.716907 0.000605 1.000000
0.882651 0.000809 1.000000
1.000000 0.000973 1.000000
1.000000 0.000973 1.000000
0.000154 0.040917 1.000000
0.040032 0.039996 1.000000
0.212117 0.037440 1.000000
0.381440 0.034949 1.000000
0.549336 0.032503 1.000000
0.716270 0.030094 1.000000
0.882481 0.027720 1.000000
1.000000 0.025304 1.000000
1.000000 0.024971 1.000000
0.000725 0.206936 1.000000
0.031645 0.206133 1.000000
0.203144 0.202942 1.000000
0.374157 0.200123 1.000000
0.543728 0.197353 1.000000
0.712328 0.194622 1.000000
0.880197 0.191927 1.000000
1.000000 0.189168 1.000000
1.000000 0.188844 1.000000
0.001696 0.370569 1.000000
0.023745 0.369891 1.000000
0.193976 0.367353 1.000000
0.364551 0.364051 1.000000
0.535771 0.360962 1.000000
0.706009 0.357915 1.000000
0.875509 0.354904 1.000000
1.000000 0.351818 1.000000
1.000000 0.351518 1.000000
0.003061 0.533096 1.000000
0.016254 0.532552 1.000000
0.185229 0.530662 1.000000
0.354569 0.527998 1.000000
0.525495 0.524570 1.000000
0.697358 0.521209 1.000000
0.868475 0.517886 1.000000
1.000000 0.514490 1.000000
1.000000 0.514229 1.000000
0.004814 0.694960 1.000000
0.009146 0.694558 1.000000
0.176873 0.693314 1.000000
0.344986 0.691285 1.000000
0.514696 0.688486 1.000000
0.686406 0.684927 1.000000
0.859131 0.681294 1.000000
1.000000 0.677610 1.000000
1.000000 0.677403 1.000000
0.006950 0.856378 1.000000
0.006947 0.856156 1.000000
0.168889 0.855538 1.000000
0.335782 0.854141 1.000000
0.504283 0.851969 1.000000
0.674790 0.849034 1.000000
0.847503 0.845343 1.000000
1.000000 0.841397 1.000000
1.000000 0.841257 1.000000
0.009300 1.000000 1.000000
0.009300 1.000000 1.000000
0.161104 1.000000 1.000000
0.326801 1.000000 1.000000
0.494135 1.000000 1.000000
0.663502 1.000000 1.000000
0.835074 1.000000 1.000000
1.000000 1.000000 1.000000
1.000000 1.000000 1.000000
0.009300 1.000000 1.000000
0.009300 1.000000 1.000000
0.160826 1.000000 1.000000
0.326521 1.000000 1.000000
0.493868 1.000000 1.000000
0.663262 1.000000 1.000000
0.834902 1.000000 1.000000
1.000000 1.000000 1.000000
1.000000 1.000000 1.000000
