resources/luts/true-contrast.cube
# Generated by FotoReady. Released under the project GPL-3.0-or-later license.
TITLE "true-contrast"
LUT_3D_SIZE 17
DOMAIN_MIN 0 0 0
DOMAIN_MAX 1 1 1
0.000000 0.000000 0.000000
0.000000 0.000000 0.000000
0.050287 0.000001 0.000001
0.140794 0.000011 0.000004
0.229402 0.000029 0.000012
0.316577 0.000054 0.000023
0.402520 0.000088 0.000037
0.487344 0.000129 0.000054
0.571124 0.000177 0.000074
0.653911 0.000232 0.000097
0.735745 0.000293 0.000122
0.816655 0.000361 0.000151
0.896667 0.000436 0.000181
0.975799 0.000516 0.000215
1.000000 0.000542 0.000226
1.000000 0.000542 0.000226
1.000000 0.000542 0.000226
0.000000 0.000000 0.000000
0.000000 0.000000 0.000000
0.050287 0.000001 0.000001
0.140794 0.000011 0.000004
0.229402 0.000029 0.000012
0.316577 0.000054 0.000023
0.402520 0.000088 0.000037
0.487344 0.000129 0.000054
0.571124 0.000177 0.000074
0.653911 0.000232 0.000097
0.735745 0.000293 0.000122
0.816655 0.000361 0.000151
0.896667 0.000436 0.000181
0.975799 0.000516 0.000215
1.000000 0.000542 0.000226
1.000000 0.000542 0.000226
1.000000 0.000542 0.000226
0.000017 0.047148 0.000006
0.000017 0.047148 0.000006
0.045790 0.045785 0.000009
0.136457 0.043331 0.000018
0.225226 0.041127 0.000030
0.312563 0.039155 0.000045
0.398670 0.037407 0.000062
0.483660 0.035877 0.000082
0.567608 0.034562 0.000105
0.650566 0.033460 0.000131
0.732574 0.032567 0.000160
0.813661 0.031882 0.000191
0.893853 0.031404 0.000225
0.973168 0.031130 0.000261
1.000000 0.030999 0.000274
1.000000 0.031023 0.000275
1.000000 0.031023 0.000275
0.000134 0.132067 0.000045
0.000134 0.132067 0.000045
0.037644 0.130722 0.000051
0.128358 0.128315 0.000071
0.217510 0.125994 0.000093
0.305226 0.123905 0.000117
0.391711 0.122041 0.000145
0.477077 0.120395 0.000175
0.561399 0.118965 0.000208
0.644731 0.117747 0.000244
0.727110 0.116739 0.000282
0.808569 0.115939 0.000323
0.889132 0.115347 0.000366
0.968817 0.114959 0.000412
1.000000 0.114705 0.000432
1.000000 0.114696 0.000432
1.000000 0.114696 0.000432
0.000356 0.215730 0.000119
0.000356 0.215730 0.000119
0.030423 0.214404 0.000127
0.120768 0.212128 0.000157
0.210003 0.209890 0.000189
0.298095 0.207685 0.000223
0.384952 0.205706 0.000261
0.470689 0.203946 0.000301
0.555381 0.202402 0.000343
0.639081 0.201070 0.000389
0.721829 0.199948 0.000436
0.803655 0.199036 0.000487
0.884583 0.198330 0.000540
0.964634 0.197829 0.000596
1.000000 0.197457 0.000622
1.000000 0.197420 0.000622
1.000000 0.197420 0.000622
0.000681 0.298560 0.000227
0.000681 0.298560 0.000227
0.024067 0.297252 0.000236
0.114046 0.295107 0.000275
0.202919 0.292997 0.000317
0.291129 0.290912 0.000362
0.378356 0.288818 0.000409
0.464461 0.286945 0.000459
0.549521 0.285287 0.000511
0.633587 0.283842 0.000566
0.716699 0.282608 0.000623
0.798889 0.281583 0.000683
0.880180 0.280764 0.000746
0.960594 0.280152 0.000811
1.000000 0.279664 0.000845
1.000000 0.279604 0.000845
1.000000 0.279604 0.000845
0.001107 0.380737 0.000369
0.001107 0.380737 0.000369
0.018545 0.379447 0.000377
0.108160 0.377433 0.000426
0.196673 0.375451 0.000478
0.284526 0.373493 0.000533
0.371907 0.371553 0.000590
0.458379 0.369567 0.000649
0.543803 0.367796 0.000711
0.628233 0.366239 0.000775
0.711708 0.364892 0.000842
0.794260 0.363755 0.000911
0.875912 0.362825 0.000983
0.956686 0.362101 0.001057
1.000000 0.361501 0.001101
1.000000 0.361423 0.001101
1.000000 0.361423 0.001101
0.001631 0.462361 0.000544
0.001631 0.462361 0.000544
0.013839 0.461092 0.000549
0.103091 0.459207 0.000609
0.191246 0.457353 0.000670
0.278744 0.455521 0.000735
0.365772 0.453708 0.000801
0.452433 0.451910 0.000871
0.538220 0.450027 0.000942
0.623012 0.448358 0.001016
0.706848 0.446900 0.001092
0.789760 0.445651 0.001171
0.871772 0.444609 0.001252
0.952905 0.443773 0.001336
1.000000 0.443064 0.001389
1.000000 0.442974 0.001389
1.000000 0.442974 0.001389
0.002251 0.543497 0.000750
0.002251 0.543497 0.000750
0.009937 0.542250 0.000753
0.098827 0.540494 0.000823
0.186625 0.538767 0.000894
0.273769 0.537062 0.000968
0.360444 0.535374 0.001045
0.446754 0.533701 0.001124
0.532766 0.532042 0.001205
0.617918 0.530261 0.001288
0.702114 0.528692 0.001374
0.785385 0.527331 0.001462
0.867755 0.526179 0.001552
0.949245 0.525232 0.001645
1.000000 0.524417 0.001710
1.000000 0.524319 0.001709
1.000000 0.524319 0.001709
0.002967 0.624191 0.000989
0.002967 0.624191 0.000989
0.006827 0.622968 0.000989
0.095357 0.621340 0.001068
0.182799 0.619740 0.001149
0.269590 0.618161 0.001233
0.355913 0.616598 0.001319
0.441873 0.615050 0.001407
0.527536 0.613515 0.001498
0.612948 0.611993 0.001592
0.697503 0.610312 0.001687
0.781131 0.608841 0.001784
0.863858 0.607577 0.001884
0.945710 0.606516 0.001986
1.000000 0.605593 0.002062
1.000000 0.605490 0.002062
1.000000 0.605490 0.002062
0.003775 0.704474 0.001258
0.003775 0.704474 0.001258
0.004503 0.703278 0.001255
0.092673 0.701778 0.001344
0.179760 0.700305 0.001435
0.266198 0.698851 0.001528
0.352171 0.697414 0.001624
0.437782 0.695990 0.001722
0.523097 0.694579 0.001822
0.608161 0.693179 0.001925
0.693008 0.691790 0.002031
0.776996 0.690205 0.002137
0.860086 0.688827 0.002246
0.942299 0.687655 0.002357
1.000000 0.686630 0.002446
1.000000 0.686529 0.002446
1.000000 0.686529 0.002446
0.004676 0.784371 0.001559
0.004676 0.784371 0.001559
0.004662 0.783212 0.001554
0.090768 0.781835 0.001651
0.177501 0.780488 0.001751
0.263587 0.779160 0.001854
0.349202 0.777847 0.001959
0.434456 0.776547 0.002067
0.519420 0.775259 0.002176
0.604139 0.773981 0.002289
0.688646 0.772713 0.002404
0.772968 0.771455 0.002522
0.856418 0.769967 0.002639
0.938991 0.768684 0.002759
1.000000 0.767560 0.002863
1.000000 0.767465 0.002862
1.000000 0.767465 0.002862
0.005666 0.863904 0.001889
0.005666 0.863904 0.001889
0.005652 0.862787 0.001884
0.089618 0.861534 0.001988
0.175981 0.860316 0.002098
0.261705 0.859113 0.002210
0.346971 0.857924 0.002325
0.431883 0.856747 0.002442
0.516506 0.855581 0.002561
0.600884 0.854425 0.002683
0.685052 0.853279 0.002807
0.769035 0.852142 0.002934
0.852853 0.851015 0.003063
0.935784 0.849622 0.003193
1.000000 0.848401 0.003310
1.000000 0.848318 0.003310
1.000000 0.848318 0.003310
0.006746 0.943077 0.002249
0.006746 0.943077 0.002249
0.006731 0.942031 0.002244
0.089184 0.940901 0.002355
0.175199 0.939807 0.002475
0.260578 0.938728 0.002597
0.345501 0.937662 0.002721
0.430071 0.936607 0.002847
0.514352 0.935563 0.002976
0.598391 0.934529 0.003107
0.682219 0.933504 0.003241
0.765864 0.932489 0.003377
0.849345 0.931482 0.003515
0.932678 0.930484 0.003657
1.000000 0.929169 0.003790
1.000000 0.929102 0.003790
1.000000 0.929102 0.003790
0.007673 1.000000 0.002558
0.007673 1.000000 0.002558
0.007673 1.000000 0.002558
0.089293 1.000000 0.002683
0.174977 1.000000 0.002817
0.260027 1.000000 0.002954
0.344624 1.000000 0.003093
0.428871 1.000000 0.003235
0.512831 1.000000 0.003379
0.596550 1.000000 0.003526
0.680061 1.000000 0.003676
0.763390 1.000000 0.003829
0.846556 1.000000 0.003984
0.929576 1.000000 0.004142
1.000000 1.000000 0.004300
1.000000 1.000000 0.004301
1.000000 1.000000 0.004301
0.007673 1.000000 0.002558
0.007673 1.000000 0.002558
0.007673 1.000000 0.002558
0.089547 1.000000 0.002683
0.175185 1.000000 0.002817
0.260194 1.000000 0.002954
0.344754 1.000000 0.003093
0.428968 1.000000 0.003235
0.512899 1.000000 0.003379
0.596594 1.000000 0.003526
0.680084 1.000000 0.003676
0.763396 1.000000 0.003829
0.846549 1.000000 0.003984
0.929560 1.000000 0.004142
1.000000 1.000000 0.004303
1.000000 1.000000 0.004304
1.000000 1.000000 0.004304
0.007673 1.000000 0.002558
0.007673 1.000000 0.002558
0.007673 1.000000 0.002558
0.089547 1.000000 0.002683
0.175185 1.000000 0.002817
0.260194 1.000000 0.002954
0.344754 1.000000 0.003093
0.428968 1.000000 0.003235
0.512899 1.000000 0.003379
0.596594 1.000000 0.003526
0.680084 1.000000 0.003676
0.763396 1.000000 0.003829
0.846549 1.000000 0.003984
0.929560 1.000000 0.004142
1.000000 1.000000 0.004303
1.000000 1.000000 0.004304
1.000000 1.000000 0.004304
0.000000 0.000000 0.000000
0.000000 0.000000 0.000000
0.050287 0.000001 0.000001
0.140794 0.000011 0.000004
0.229402 0.000029 0.000012
0.316577 0.000054 0.000023
0.402520 0.000088 0.000037
0.487344 0.000129 0.000054
0.571124 0.000177 0.000074
0.653911 0.000232 0.000097
0.735745 0.000293 0.000122
0.816655 0.000361 0.000151
0.896667 0.000436 0.000181
0.975799 0.000516 0.000215
1.000000 0.000542 0.000226
1.000000 0.000542 0.000226
1.000000 0.000542 0.000226
0.000000 0.000000 0.000000
0.000000 0.000000 0.000000
0.050287 0.000001 0.000001
0.140794 0.000011 0.000004
0.229402 0.000029 0.000012
0.316577 0.000054 0.000023
0.402520 0.000088 0.000037
0.487344 0.000129 0.000054
0.571124 0.000177 0.000074
0.653911 0.000232 0.000097
0.735745 0.000293 0.000122
0.816655 0.000361 0.000151
0.896667 0.000436 0.000181
0.975799 0.000516 0.000215
1.000000 0.000542 0.000226
1.000000 0.000542 0.000226
1.000000 0.000542 0.000226
0.000017 0.047148 0.000006
0.000017 0.047148 0.000006
0.045790 0.045785 0.000009
0.136457 0.043331 0.000018
0.225226 0.041127 0.000030
0.312563 0.039155 0.000045
0.398670 0.037407 0.000062
0.483660 0.035877 0.000082
0.567608 0.034562 0.000105
0.650566 0.033460 0.000131
0.732574 0.032567 0.000160
0.813661 0.031882 0.000191
0.893853 0.031404 0.000225
0.973168 0.031130 0.000261
1.000000 0.030999 0.000274
1.000000 0.031023 0.000275
1.000000 0.031023 0.000275
0.000134 0.132067 0.000045
0.000134 0.132067 0.000045
0.037644 0.130722 0.000051
0.128358 0.128315 0.000071
0.217510 0.125994 0.000093
0.305226 0.123905 0.000117
0.391711 0.122041 0.000145
0.477077 0.120395 0.000175
0.561399 0.118965 0.000208
0.644731 0.117747 0.000244
0.727110 0.116739 0.000282
0.808569 0.115939 0.000323
0.889132 0.115347 0.000366
0.968817 0.114959 0.000412
1.000000 0.114705 0.000432
1.000000 0.114696 0.000432
1.000000 0.114696 0.000432
0.000356 0.215730 0.000119
0.000356 0.215730 0.000119
0.030423 0.214404 0.000127
0.120768 0.212128 0.000157
0.210003 0.209890 0.000189
0.298095 0.207685 0.000223
0.384952 0.205706 0.000261
0.470689 0.203946 0.000301
0.555381 0.202402 0.000343
0.639081 0.201070 0.000389
0.721829 0.199948 0.000436
0.803655 0.199036 0.000487
0.884583 0.198330 0.000540
0.964634 0.197829 0.000596
1.000000 0.197457 0.000622
1.000000 0.197420 0.000622
1.000000 0.197420 0.000622
0.000681 0.298560 0.000227
0.000681 0.298560 0.000227
0.024067 0.297252 0.000236
0.114046 0.295107 0.000275
0.202919 0.292997 0.000317
0.291129 0.290912 0.000362
0.378356 0.288818 0.000409
0.464461 0.286945 0.000459
0.549521 0.285287 0.000511
0.633587 0.283842 0.000566
0.716699 0.282608 0.000623
0.798889 0.281583 0.000683
0.880180 0.280764 0.000746
0.960594 0.280152 0.000811
1.000000 0.279664 0.000845
1.000000 0.279604 0.000845
1.000000 0.279604 0.000845
0.001107 0.380737 0.000369
0.001107 0.380737 0.000369
0.018545 0.379447 0.000377
0.108160 0.377433 0.000426
0.196673 0.375451 0.000478
0.284526 0.373493 0.000533
0.371907 0.371553 0.000590
0.458379 0.369567 0.000649
0.543803 0.367796 0.000711
0.628233 0.366239 0.000775
0.711708 0.364892 0.000842
0.794260 0.363755 0.000911
0.875912 0.362825 0.000983
0.956686 0.362101 0.001057
1.000000 0.361501 0.001101
1.000000 0.361423 0.001101
1.000000 0.361423 0.001101
0.001631 0.462361 0.000544
0.001631 0.462361 0.000544
0.013839 0.461092 0.000549
0.103091 0.459207 0.000609
0.191246 0.457353 0.000670
0.278744 0.455521 0.000735
0.365772 0.453708 0.000801
0.452433 0.451910 0.000871
0.538220 0.450027 0.000942
0.623012 0.448358 0.001016
0.706848 0.446900 0.001092
0.789760 0.445651 0.001171
0.871772 0.444609 0.001252
0.952905 0.443773 0.001336
1.000000 0.443064 0.001389
1.000000 0.442974 0.001389
1.000000 0.442974 0.001389
0.002251 0.543497 0.000750
0.002251 0.543497 0.000750
0.009937 0.542250 0.000753
0.098827 0.540494 0.000823
0.186625 0.538767 0.000894
0.273769 0.537062 0.000968
0.360444 0.535374 0.001045
0.446754 0.533701 0.001124
0.532766 0.532042 0.001205
0.617918 0.530261 0.001288
0.702114 0.528692 0.001374
0.785385 0.527331 0.001462
0.867755 0.526179 0.001552
0.949245 0.525232 0.001645
1.000000 0.524417 0.001710
1.000000 0.524319 0.001709
1.000000 0.524319 0.001709
0.002967 0.624191 0.000989
0.002967 0.624191 0.000989
0.006827 0.622968 0.000989
0.095357 0.621340 0.001068
0.182799 0.619740 0.001149
0.269590 0.618161 0.001233
0.355913 0.616598 0.001319
0.441873 0.615050 0.001407
0.527536 0.613515 0.001498
0.612948 0.611993 0.001592
0.697503 0.610312 0.001687
0.781131 0.608841 0.001784
0.863858 0.607577 0.001884
0.945710 0.606516 0.001986
1.000000 0.605593 0.002062
1.000000 0.605490 0.002062
1.000000 0.605490 0.002062
0.003775 0.704474 0.001258
0.003775 0.704474 0.001258
0.004503 0.703278 0.001255
0.092673 0.701778 0.001344
0.179760 0.700305 0.001435
0.266198 0.698851 0.001528
0.352171 0.697414 0.001624
0.437782 0.695990 0.001722
0.523097 0.694579 0.001822
0.608161 0.693179 0.001925
0.693008 0.691790 0.002031
0.776996 0.690205 0.002137
0.860086 0.688827 0.002246
0.942299 0.687655 0.002357
1.000000 0.686630 0.002446
1.000000 0.686529 0.002446
1.000000 0.686529 0.002446
0.004676 0.784371 0.001559
0.004676 0.784371 0.001559
0.004662 0.783212 0.001554
0.090768 0.781835 0.001651
0.177501 0.780488 0.001751
0.263587 0.779160 0.001854
0.349202 0.777847 0.001959
0.434456 0.776547 0.002067
0.519420 0.775259 0.002176
0.604139 0.773981 0.002289
0.688646 0.772713 0.002404
0.772968 0.771455 0.002522
0.856418 0.769967 0.002639
0.938991 0.768684 0.002759
1.000000 0.767560 0.002863
1.000000 0.767465 0.002862
1.000000 0.767465 0.002862
0.005666 0.863904 0.001889
0.005666 0.863904 0.001889
0.005652 0.862787 0.001884
0.089618 0.861534 0.001988
0.175981 0.860316 0.002098
0.261705 0.859113 0.002210
0.346971 0.857924 0.002325
0.431883 0.856747 0.002442
0.516506 0.855581 0.002561
0.600884 0.854425 0.002683
0.685052 0.853279 0.002807
0.769035 0.852142 0.002934
0.852853 0.851015 0.003063
0.935784 0.849622 0.003193
1.000000 0.848401 0.003310
1.000000 0.848318 0.003310
1.000000 0.848318 0.003310
0.006746 0.943077 0.002249
0.006746 0.943077 0.002249
0.006731 0.942031 0.002244
0.089184 0.940901 0.002355
0.175199 0.939807 0.002475
0.260578 0.938728 0.002597
0.345501 0.937662 0.002721
0.430071 0.936607 0.002847
0.514352 0.935563 0.002976
0.598391 0.934529 0.003107
0.682219 0.933504 0.003241
0.765864 0.932489 0.003377
0.849345 0.931482 0.003515
0.932678 0.930484 0.003657
1.000000 0.929169 0.003790
1.000000 0.929102 0.003790
1.000000 0.929102 0.003790
0.007673 1.000000 0.002558
0.007673 1.000000 0.002558
0.007673 1.000000 0.002558
0.089293 1.000000 0.002683
0.174977 1.000000 0.002817
0.260027 1.000000 0.002954
0.344624 1.000000 0.003093
0.428871 1.000000 0.003235
0.512831 1.000000 0.003379
0.596550 1.000000 0.003526
0.680061 1.000000 0.003676
0.763390 1.000000 0.003829
0.846556 1.000000 0.003984
0.929576 1.000000 0.004142
1.000000 1.000000 0.004300
1.000000 1.000000 0.004301
1.000000 1.000000 0.004301
0.007673 1.000000 0.002558
0.007673 1.000000 0.002558
0.007673 1.000000 0.002558
0.089547 1.000000 0.002683
0.175185 1.000000 0.002817
0.260194 1.000000 0.002954
0.344754 1.000000 0.003093
0.428968 1.000000 0.003235
0.512899 1.000000 0.003379
0.596594 1.000000 0.003526
0.680084 1.000000 0.003676
0.763396 1.000000 0.003829
0.846549 1.000000 0.003984
0.929560 1.000000 0.004142
1.000000 1.000000 0.004303
1.000000 1.000000 0.004304
1.000000 1.000000 0.004304
0.007673 1.000000 0.002558
0.007673 1.000000 0.002558
0.007673 1.000000 0.002558
0.089547 1.000000 0.002683
0.175185 1.000000 0.002817
0.260194 1.000000 0.002954
0.344754 1.000000 0.003093
0.428968 1.000000 0.003235
0.512899 1.000000 0.003379
0.596594 1.000000 0.003526
0.680084 1.000000 0.003676
0.763396 1.000000 0.003829
0.846549 1.000000 0.003984
0.929560 1.000000 0.004142
1.000000 1.000000 0.004303
1.000000 1.000000 0.004304
1.000000 1.000000 0.004304
0.000000 0.000000 0.051144
0.000000 0.000000 0.051144
0.049844 0.000002 0.049842
0.140366 0.000013 0.047234
0.228990 0.000032 0.044870
0.316182 0.000059 0.042733
0.402141 0.000094 0.040813
0.486982 0.000136 0.039106
0.570778 0.000185 0.037607
0.653582 0.000240 0.036314
0.735433 0.000303 0.035224
0.816361 0.000371 0.034335
0.896391 0.000446 0.033647
0.975541 0.000527 0.033156
1.000000 0.000554 0.032839
1.000000 0.000554 0.032804
1.000000 0.000554 0.032804
0.000000 0.000000 0.051144
0.000000 0.000000 0.051144
0.049844 0.000002 0.049842
0.140366 0.000013 0.047234
0.228990 0.000032 0.044870
0.316182 0.000059 0.042733
0.402141 0.000094 0.040813
0.486982 0.000136 0.039106
0.570778 0.000185 0.037607
0.653582 0.000240 0.036314
0.735433 0.000303 0.035224
0.816361 0.000371 0.034335
0.896391 0.000446 0.033647
0.975541 0.000527 0.033156
1.000000 0.000554 0.032839
1.000000 0.000554 0.032804
1.000000 0.000554 0.032804
0.000020 0.046687 0.046678
0.000020 0.046687 0.046678
0.045323 0.045317 0.045302
0.136236 0.042818 0.042791
0.225252 0.040569 0.040524
0.312838 0.038551 0.038486
0.399197 0.036757 0.036666
0.484442 0.035180 0.035061
0.568649 0.033818 0.033666
0.651869 0.032667 0.032479
0.734143 0.031726 0.031497
0.815500 0.030992 0.030719
0.895964 0.030464 0.030144
0.975557 0.030141 0.029769
1.000000 0.029955 0.029567
1.000000 0.029962 0.029574
1.000000 0.029962 0.029574
0.000141 0.131613 0.038437
0.000141 0.131613 0.038437
0.036972 0.130346 0.036865
0.127915 0.127871 0.034363
0.217319 0.125503 0.032464
0.305290 0.123368 0.030791
0.392032 0.121456 0.029335
0.477659 0.119763 0.028091
0.562245 0.118285 0.027057
0.645844 0.117019 0.026229
0.728496 0.115962 0.025606
0.810229 0.115113 0.025185
0.891070 0.114470 0.024966
0.971039 0.114032 0.024948
1.000000 0.113723 0.025097
1.000000 0.113698 0.025214
1.000000 0.113698 0.025214
0.000365 0.215282 0.031052
0.000365 0.215282 0.031052
0.029536 0.214121 0.029276
0.120115 0.211777 0.026890
0.209584 0.209469 0.024537
0.297936 0.207218 0.023225
0.385056 0.205191 0.022127
0.471059 0.203383 0.021241
0.556021 0.201789 0.020562
0.639994 0.200409 0.020089
0.723018 0.199238 0.019820
0.805124 0.198275 0.019752
0.886337 0.197518 0.019886
0.966676 0.196967 0.020219
1.000000 0.196539 0.020717
1.000000 0.196487 0.020930
1.000000 0.196487 0.020930
0.000691 0.298118 0.024466
0.000691 0.298118 0.024466
0.022953 0.297068 0.022476
0.113170 0.294854 0.020206
0.202283 0.292674 0.017967
0.290735 0.290517 0.015748
0.378230 0.288375 0.015007
0.464607 0.286452 0.014475
0.549941 0.284746 0.014149
0.634286 0.283251 0.014028
0.717681 0.281967 0.014110
0.800156 0.280891 0.014393
0.881737 0.280022 0.014877
0.962444 0.279358 0.015559
1.000000 0.278814 0.016404
1.000000 0.278741 0.016700
1.000000 0.278741 0.016700
0.001115 0.380301 0.018648
0.001115 0.380301 0.018648
0.017193 0.379368 0.016436
0.107052 0.377282 0.014281
0.195809 0.375228 0.012156
0.283909 0.373198 0.010049
0.371539 0.371185 0.007957
0.458288 0.369149 0.007778
0.543992 0.367329 0.007804
0.628706 0.365721 0.008033
0.712469 0.364325 0.008464
0.795312 0.363137 0.009096
0.877260 0.362155 0.009927
0.958333 0.361380 0.010956
1.000000 0.360723 0.012148
1.000000 0.360634 0.012514
1.000000 0.360634 0.012514
0.001637 0.461933 0.013580
0.001637 0.461933 0.013580
0.012240 0.461120 0.011138
0.101740 0.459163 0.009098
0.190144 0.457236 0.007086
0.277893 0.455331 0.005091
0.365174 0.453443 0.003111
0.452092 0.451570 0.001141
0.538165 0.449637 0.001517
0.623247 0.447917 0.002095
0.707376 0.446408 0.002874
0.790585 0.445108 0.003853
0.872898 0.444016 0.005031
0.954336 0.443128 0.006406
1.000000 0.442363 0.007943
1.000000 0.442261 0.008368
1.000000 0.442261 0.008368
0.002255 0.543076 0.009251
0.002255 0.543076 0.009251
0.008079 0.542392 0.006571
0.097222 0.540562 0.004644
0.185274 0.538762 0.002745
0.272674 0.536982 0.000967
0.359609 0.535220 0.001043
0.446182 0.533472 0.001122
0.532460 0.531738 0.001204
0.617907 0.529906 0.001287
0.702402 0.528284 0.001373
0.785974 0.526872 0.001461
0.868649 0.525666 0.001551
0.950448 0.524667 0.001903
1.000000 0.523795 0.003786
1.000000 0.523687 0.004257
1.000000 0.523687 0.004257
0.002967 0.623778 0.005650
0.002967 0.623778 0.005650
0.004700 0.623229 0.002724
0.093488 0.621526 0.001067
0.181191 0.619853 0.001148
0.268244 0.618199 0.001231
0.354833 0.616562 0.001317
0.441061 0.614938 0.001406
0.526995 0.613327 0.001497
0.612682 0.611727 0.001591
0.697540 0.609994 0.001685
0.781475 0.608470 0.001783
0.864513 0.607154 0.001883
0.946673 0.606043 0.001985
1.000000 0.605065 0.002060
1.000000 0.604955 0.002059
1.000000 0.604955 0.002059
0.003773 0.704070 0.002771
0.003773 0.704070 0.002771
0.003767 0.703669 0.001256
0.090534 0.702091 0.001343
0.177886 0.700543 0.001434
0.264592 0.699014 0.001527
0.350835 0.697501 0.001622
0.436720 0.696000 0.001720
0.522311 0.694512 0.001821
0.607655 0.693035 0.001924
0.692787 0.691569 0.002030
0.777084 0.689934 0.002136
0.860483 0.688506 0.002245
0.943004 0.687285 0.002356
1.000000 0.686206 0.002444
1.000000 0.686099 0.002444
1.000000 0.686099 0.002444
0.004671 0.783979 0.001557
0.004671 0.783979 0.001557
0.004668 0.783739 0.001556
0.088349 0.782280 0.001650
0.175352 0.780857 0.001750
0.261711 0.779453 0.001853
0.347609 0.778063 0.001958
0.433150 0.776686 0.002065
0.518400 0.775320 0.002175
0.603403 0.773965 0.002288
0.688194 0.772621 0.002403
0.772799 0.771287 0.002520
0.856558 0.769748 0.002638
0.939439 0.768416 0.002759
1.000000 0.767239 0.002861
1.000000 0.767139 0.002860
1.000000 0.767139 0.002860
0.005661 0.863526 0.001887
0.005661 0.863526 0.001887
0.005661 0.863454 0.001887
0.086927 0.862113 0.001987
0.173582 0.860816 0.002097
0.259595 0.859535 0.002209
0.345149 0.858268 0.002324
0.430347 0.857014 0.002441
0.515255 0.855771 0.002560
0.599918 0.854538 0.002682
0.684369 0.853316 0.002806
0.768636 0.852103 0.002933
0.852736 0.850899 0.003063
0.935976 0.849456 0.003192
1.000000 0.848183 0.003309
1.000000 0.848096 0.003309
1.000000 0.848096 0.003309
0.006741 0.942722 0.002247
0.006741 0.942722 0.002247
0.006743 0.942829 0.002248
0.086264 0.941608 0.002355
0.172570 0.940435 0.002474
0.258238 0.939278 0.002596
0.343449 0.938134 0.002720
0.428305 0.937003 0.002846
0.512872 0.935882 0.002975
0.597195 0.934771 0.003106
0.681308 0.933670 0.003240
0.765235 0.932578 0.003376
0.848999 0.931495 0.003515
0.932614 0.930420 0.003656
1.000000 0.929055 0.003789
1.000000 0.928985 0.003789
1.000000 0.928985 0.003789
0.007673 1.000000 0.002558
0.007673 1.000000 0.002558
0.007673 1.000000 0.002558
0.086130 1.000000 0.002678
0.172106 1.000000 0.002812
0.257447 1.000000 0.002950
0.342333 1.000000 0.003089
0.426867 1.000000 0.003231
0.511114 1.000000 0.003376
0.595119 1.000000 0.003524
0.678915 1.000000 0.003674
0.762528 1.000000 0.003827
0.845978 1.000000 0.003983
0.929282 1.000000 0.004142
1.000000 1.000000 0.004300
1.000000 1.000000 0.004301
1.000000 1.000000 0.004301
0.007673 1.000000 0.002558
0.007673 1.000000 0.002558
0.007673 1.000000 0.002558
0.086352 1.000000 0.002678
0.172284 1.000000 0.002813
0.257585 1.000000 0.002950
0.342436 1.000000 0.003089
0.426939 1.000000 0.003231
0.511159 1.000000 0.003376
0.595140 1.000000 0.003524
0.678918 1.000000 0.003674
0.762516 1.000000 0.003827
0.845955 1.000000 0.003983
0.929251 1.000000 0.004142
1.000000 1.000000 0.004303
1.000000 1.000000 0.004304
1.000000 1.000000 0.004304
0.007673 1.000000 0.002558
0.007673 1.000000 0.002558
0.007673 1.000000 0.002558
0.086352 1.000000 0.002678
0.172284 1.000000 0.002813
0.257585 1.000000 0.002950
0.342436 1.000000 0.003089
0.426939 1.000000 0.003231
0.511159 1.000000 0.003376
0.595140 1.000000 0.003524
0.678918 1.000000 0.003674
0.762516 1.000000 0.003827
0.845955 1.000000 0.003983
0.929251 1.000000 0.004142
1.000000 1.000000 0.004303
1.000000 1.000000 0.004304
1.000000 1.000000 0.004304
0.000002 0.000001 0.143196
0.000002 0.000001 0.143196
0.048827 0.000005 0.141946
0.139554 0.000019 0.139538
0.228217 0.000041 0.136709
0.315446 0.000071 0.134109
0.401443 0.000108 0.131729
0.486322 0.000152 0.129564
0.570156 0.000204 0.127608
0.652997 0.000262 0.125860
0.734886 0.000327 0.124316
0.815851 0.000398 0.122974
0.895917 0.000476 0.121833
0.975104 0.000559 0.120892
1.000000 0.000587 0.120123
1.000000 0.000587 0.119943
