resources/luts/vintage-warm.cube
TITLE "vintage-warm"
LUT_3D_SIZE 16
DOMAIN_MIN 0 0 0
DOMAIN_MAX 1 1 1
0.105441 0.106224 0.095633
0.169139 0.108063 0.097388
0.230603 0.109881 0.099139
0.290756 0.111681 0.100885
0.349978 0.113464 0.102628
0.408482 0.115233 0.104367
0.466402 0.116988 0.106102
0.523829 0.118733 0.107834
0.580833 0.120468 0.109562
0.637464 0.122196 0.111287
0.693764 0.123918 0.113009
0.749766 0.125637 0.114728
0.805498 0.127353 0.116443
0.860981 0.129068 0.118156
0.916237 0.130784 0.119867
0.971282 0.132503 0.121574
0.109469 0.168146 0.099074
0.172958 0.169850 0.100821
0.234311 0.171542 0.102564
0.294387 0.173222 0.104303
0.353552 0.174893 0.106038
0.412010 0.176555 0.107770
0.469891 0.178210 0.109499
0.527286 0.179861 0.111224
0.584262 0.181508 0.112946
0.640870 0.183153 0.114664
0.697150 0.184798 0.116380
0.753135 0.186443 0.118093
0.808852 0.188092 0.119804
0.864324 0.189745 0.121511
0.919594 0.191418 0.123216
0.974693 0.193120 0.124919
0.113458 0.227808 0.102500
0.176753 0.229435 0.104239
0.238002 0.231055 0.105975
0.298006 0.232669 0.107706
0.357116 0.234277 0.109435
0.415530 0.235881 0.111160
0.473376 0.237483 0.112882
0.530741 0.239084 0.114601
0.587692 0.240686 0.116317
0.644279 0.242289 0.118030
0.700541 0.243896 0.119741
0.756512 0.245508 0.121448
0.812242 0.247142 0.123153
0.867767 0.248806 0.124856
0.923103 0.250500 0.126556
0.978264 0.252223 0.128253
0.117417 0.286144 0.105911
0.180530 0.287718 0.107643
0.241679 0.289290 0.109371
0.301615 0.290859 0.111097
0.360673 0.292428 0.112819
0.419047 0.293996 0.114538
0.476859 0.295565 0.116254
0.534198 0.297137 0.117967
0.591126 0.298714 0.119678
0.647694 0.300296 0.121386
0.703966 0.301899 0.123091
0.759987 0.303534 0.124793
0.815780 0.305200 0.126493
0.871364 0.306896 0.128191
0.926756 0.308622 0.129886
0.981971 0.310378 0.131579
0.121350 0.343544 0.109308
0.184293 0.345081 0.111033
0.245347 0.346619 0.112756
0.305218 0.348160 0.114475
0.364228 0.349702 0.116191
0.422564 0.351248 0.117905
0.480345 0.352799 0.119615
0.537659 0.354356 0.121323
0.594590 0.355935 0.123028
0.651203 0.357545 0.124731
0.707534 0.359187 0.126431
0.763611 0.360860 0.128129
0.819458 0.362564 0.129824
0.875093 0.364298 0.131517
0.930534 0.366062 0.133208
0.985794 0.367857 0.134897
0.125263 0.400227 0.112692
0.188046 0.401738 0.114412
0.249010 0.403256 0.116128
0.308819 0.404778 0.117842
0.367784 0.406306 0.119552
0.426084 0.407841 0.121260
0.483857 0.409396 0.122965
0.541207 0.410984 0.124668
0.598192 0.412604 0.126368
0.654858 0.414257 0.128066
0.711240 0.415941 0.129762
0.767365 0.417656 0.131455
0.823258 0.419402 0.133146
0.878937 0.421179 0.134834
0.934419 0.422986 0.136521
0.989718 0.424823 0.138206
0.129160 0.456336 0.116065
0.191792 0.457832 0.117779
0.252671 0.459337 0.119489
0.312422 0.460851 0.121197
0.371358 0.462383 0.122903
0.429680 0.463949 0.124606
0.487501 0.465549 0.126306
0.544898 0.467182 0.128004
0.601930 0.468848 0.129699
0.658641 0.470545 0.131393
0.715066 0.472274 0.133084
0.771233 0.474035 0.134772
0.827165 0.475826 0.136459
0.882880 0.477648 0.138144
0.938396 0.479501 0.139826
0.993726 0.481384 0.141507
0.133045 0.511973 0.119426
0.195536 0.513462 0.121135
0.256343 0.514969 0.122840
0.316088 0.516512 0.124543
0.375057 0.518091 0.126243
0.433418 0.519705 0.127941
0.491278 0.521353 0.129637
0.548716 0.523033 0.131330
0.605787 0.524746 0.133021
0.662536 0.526491 0.134710
0.718998 0.528267 0.136397
0.775199 0.530075 0.138082
0.831163 0.531914 0.139764
0.886908 0.533783 0.141445
0.942451 0.535684 0.143123
0.997804 0.537612 0.144800
0.136926 0.567214 0.122777
0.199324 0.568729 0.124480
0.260128 0.570285 0.126181
0.319892 0.571879 0.127879
0.378889 0.573508 0.129575
0.437281 0.575171 0.131268
0.495175 0.576868 0.132959
0.552645 0.578598 0.134648
0.609749 0.580359 0.136335
0.666530 0.582153 0.138020
0.723020 0.583979 0.139702
0.779249 0.585836 0.141383
0.835238 0.587724 0.143062
0.891005 0.589641 0.144738
0.946560 0.591566 0.146413
1.000000 0.593493 0.148086
0.140898 0.622176 0.126118
0.203245 0.623745 0.127817
0.264044 0.625354 0.129512
0.323821 0.626999 0.131206
0.382839 0.628679 0.132897
0.441256 0.630394 0.134586
0.499176 0.632141 0.136273
0.556673 0.633922 0.137958
0.613802 0.635734 0.139640
0.670607 0.637579 0.141321
0.727120 0.639455 0.143000
0.783369 0.641361 0.144677
0.839369 0.643278 0.146352
0.895137 0.645197 0.148025
0.950687 0.647117 0.149696
1.000000 0.649031 0.151366
0.144995 0.676927 0.129450
0.207289 0.678551 0.131144
0.268077 0.680213 0.132835
0.327861 0.681911 0.134524
0.386893 0.683644 0.136211
0.445328 0.685411 0.137896
0.503267 0.687211 0.139579
0.560784 0.689043 0.141259
0.617932 0.690907 0.142938
0.674754 0.692803 0.144615
0.731278 0.694712 0.146290
0.787525 0.696624 0.147963
0.843519 0.698537 0.149635
0.899277 0.700450 0.151304
0.954815 0.702361 0.152972
1.000000 0.704252 0.154639
0.149204 0.731497 0.132773
0.211441 0.733177 0.134462
0.272214 0.734894 0.136149
0.331997 0.736646 0.137834
0.391038 0.738433 0.139517
0.449484 0.740253 0.141198
0.507436 0.742106 0.142877
0.564965 0.743991 0.144554
0.622122 0.745893 0.146229
0.678941 0.747799 0.147902
0.735455 0.749705 0.149573
0.791692 0.751612 0.151243
0.847671 0.753517 0.152911
0.903412 0.755420 0.154577
0.958929 0.757319 0.156242
1.000000 0.759183 0.157905
0.153511 0.785912 0.136087
0.215689 0.787649 0.137772
0.276440 0.789422 0.139455
0.336218 0.791229 0.141136
0.395259 0.793070 0.142815
0.453711 0.794945 0.144492
0.511666 0.796841 0.146167
0.569189 0.798741 0.147840
0.626333 0.800642 0.149512
0.683138 0.802543 0.151182
0.739636 0.804443 0.152850
0.795853 0.806341 0.154516
0.851810 0.808234 0.156181
0.907525 0.810122 0.157844
0.963014 0.812004 0.159505
1.000000 0.813841 0.161165
0.157904 0.840194 0.139393
0.220019 0.841989 0.141074
0.280744 0.843818 0.142753
0.340510 0.845682 0.144430
0.399545 0.847572 0.146105
0.457983 0.849468 0.147779
0.515921 0.851364 0.149450
0.573425 0.853261 0.151120
0.630549 0.855157 0.152788
0.687331 0.857049 0.154455
0.743805 0.858938 0.156119
0.799994 0.860822 0.157782
0.855921 0.862700 0.159444
0.911604 0.864570 0.161104
0.967056 0.866431 0.162762
1.000000 0.868238 0.164419
0.162370 0.894362 0.142691
0.224420 0.896215 0.144369
0.285111 0.898099 0.146044
0.344851 0.899992 0.147717
0.403857 0.901885 0.149389
0.462269 0.903779 0.151059
0.520181 0.905671 0.152727
0.577659 0.907560 0.154393
0.634754 0.909446 0.156058
0.691507 0.911326 0.157721
0.747947 0.913200 0.159383
0.804102 0.915066 0.161043
0.859991 0.916924 0.162701
0.915633 0.918771 0.164358
0.971042 0.920607 0.166013
1.000000 0.922384 0.167667
0.166899 0.948432 0.145982
0.228873 0.950324 0.147656
0.289510 0.952217 0.149327
0.349207 0.954108 0.150997
0.408176 0.955998 0.152666
0.466554 0.957885 0.154332
0.524431 0.959768 0.155997
0.581875 0.961645 0.157660
0.638934 0.963516 0.159322
0.695649 0.965380 0.160982
0.752050 0.967234 0.162640
0.808162 0.969079 0.164297
0.864006 0.970912 0.165952
0.919599 0.972733 0.167606
0.974957 0.974540 0.169259
1.000000 0.976288 0.170910
0.106229 0.106937 0.147712
0.169886 0.108767 0.149383
0.231328 0.110578 0.151053
0.291465 0.112370 0.152721
0.350677 0.114147 0.154388
0.409172 0.115910 0.156053
0.467084 0.117661 0.157716
0.524505 0.119402 0.159377
0.581503 0.121134 0.161037
0.638129 0.122859 0.162696
0.694425 0.124579 0.164352
0.750424 0.126296 0.166008
0.806152 0.128012 0.167662
0.861633 0.129727 0.169314
0.916887 0.131443 0.170965
0.971933 0.133165 0.172614
0.110248 0.168809 0.150992
0.173699 0.170507 0.152660
0.235031 0.172193 0.154327
0.295093 0.173869 0.155991
0.354247 0.175535 0.157655
0.412697 0.177194 0.159316
0.470571 0.178847 0.160976
0.527960 0.180496 0.162635
0.584931 0.182142 0.164291
0.641534 0.183786 0.165947
0.697811 0.185430 0.167601
0.753793 0.187077 0.169253
0.809507 0.188726 0.170904
0.864981 0.190383 0.172554
0.920264 0.192067 0.174202
0.975374 0.193779 0.175849
0.114231 0.228443 0.154265
0.177490 0.230065 0.155930
0.238719 0.231681 0.157593
0.298709 0.233292 0.159255
0.357809 0.234898 0.160915
0.416216 0.236500 0.162574
0.474054 0.238101 0.164230
0.531414 0.239702 0.165886
0.588361 0.241303 0.167540
0.644944 0.242907 0.169192
0.701203 0.244515 0.170843
0.757176 0.246132 0.172493
0.812918 0.247777 0.174141
0.868454 0.249451 0.175788
0.923800 0.251156 0.177434
0.978971 0.252890 0.179078
0.118185 0.286759 0.157532
0.181264 0.288330 0.159194
0.242394 0.289899 0.160854
0.302317 0.291467 0.162513
0.361366 0.293034 0.164170
0.419732 0.294602 0.165825
0.477538 0.296172 0.167479
0.534871 0.297745 0.169132
0.591795 0.299322 0.170783
0.648365 0.300909 0.172432
0.704648 0.302524 0.174081
0.760679 0.304169 0.175728
0.816482 0.305846 0.177373
0.872076 0.307552 0.179018
0.927477 0.309289 0.180661
0.982700 0.311056 0.182302
0.122113 0.344145 0.160793
0.185024 0.345680 0.162452
0.246060 0.347218 0.164109
0.305919 0.348757 0.165764
0.364920 0.350300 0.167418
0.423248 0.351847 0.169071
0.481025 0.353400 0.170722
0.538337 0.354961 0.172372
0.595279 0.356550 0.174020
0.651902 0.358171 0.175667
0.708242 0.359824 0.177313
0.764329 0.361508 0.178957
0.820184 0.363222 0.180600
0.875828 0.364967 0.182242
0.931276 0.366743 0.183882
0.986544 0.368548 0.185522
0.126022 0.400819 0.164048
0.188775 0.402329 0.165703
0.249722 0.403847 0.167357
0.309520 0.405370 0.169010
0.368476 0.406899 0.170661
0.426771 0.408438 0.172311
0.484554 0.410004 0.173960
0.541913 0.411603 0.175607
0.598907 0.413234 0.177252
0.655582 0.414898 0.178897
0.711972 0.416592 0.180540
0.768105 0.418319 0.182181
0.824005 0.420076 0.183822
0.879692 0.421863 0.185461
0.935180 0.423681 0.187099
0.990484 0.425530 0.188736
0.129916 0.456921 0.167297
0.192520 0.458418 0.168949
0.253383 0.459925 0.170601
0.313124 0.461441 0.172250
0.372066 0.462983 0.173899
0.430395 0.464561 0.175546
0.488223 0.466172 0.177192
0.545629 0.467816 0.178836
0.602668 0.469493 0.180479
0.659387 0.471202 0.182121
0.715819 0.472942 0.183762
0.771992 0.474713 0.185401
0.827930 0.476515 0.187039
0.883652 0.478348 0.188676
0.939173 0.480212 0.190311
0.994507 0.482106 0.191946
0.133800 0.512554 0.170540
0.196264 0.514046 0.172190
0.257067 0.515562 0.173838
0.316816 0.517117 0.175485
0.375791 0.518708 0.177131
0.434158 0.520333 0.178776
0.492025 0.521992 0.180419
0.549469 0.523683 0.182061
0.606546 0.525408 0.183701
0.663302 0.527163 0.185341
0.719769 0.528951 0.186979
0.775975 0.530770 0.188616
0.831944 0.532620 0.190251
0.887694 0.534501 0.191886
0.943241 0.536412 0.193519
0.998596 0.538345 0.195151
0.137688 0.567800 0.173778
0.200075 0.569327 0.175425
0.260878 0.570895 0.177071
0.320645 0.572500 0.178715
0.379646 0.574141 0.180358
0.438043 0.575815 0.182000
0.495942 0.577524 0.183641
0.553418 0.579265 0.185280
0.610527 0.581038 0.186919
0.667312 0.582843 0.188555
0.723807 0.584680 0.190191
0.780040 0.586548 0.191826
0.836033 0.588447 0.193459
0.891802 0.590369 0.195091
0.947356 0.592296 0.196722
1.000000 0.594224 0.198352
0.141684 0.622779 0.177010
0.204021 0.624360 0.178655
0.264818 0.625981 0.180298
0.324596 0.627637 0.181940
0.383617 0.629329 0.183581
0.442037 0.631055 0.185220
0.499961 0.632814 0.186858
0.557462 0.634606 0.188495
0.614595 0.636430 0.190131
0.671403 0.638286 0.191766
0.727920 0.640173 0.193399
0.784171 0.642086 0.195031
0.840170 0.644004 0.196662
0.895936 0.645924 0.198292
0.951485 0.647845 0.199921
1.000000 0.649756 0.201549
0.145804 0.677547 0.180238
0.208086 0.679183 0.181880
0.268872 0.680857 0.183520
0.328655 0.682567 0.185160
0.387689 0.684312 0.186798
0.446126 0.686090 0.188435
0.504068 0.687901 0.190071
0.561587 0.689745 0.191705
0.618739 0.691621 0.193339
0.675562 0.693525 0.194971
0.732084 0.695435 0.196602
0.788330 0.697348 0.198232
0.844322 0.699261 0.199861
0.900077 0.701174 0.201489
0.955612 0.703085 0.203116
1.000000 0.704972 0.204742
0.150032 0.732134 0.183460
0.212258 0.733827 0.185099
0.273026 0.735556 0.186738
0.332809 0.737320 0.188375
0.391849 0.739118 0.190011
0.450297 0.740950 0.191645
0.508250 0.742814 0.193279
0.565781 0.744709 0.194911
0.622935 0.746613 0.196542
0.679752 0.748519 0.198172
0.736264 0.750426 0.199801
0.792497 0.752333 0.201429
0.848473 0.754238 0.203056
0.904209 0.756139 0.204682
0.959721 0.758036 0.206306
1.000000 0.759897 0.207930
0.154356 0.786568 0.186678
0.216522 0.788317 0.188315
0.277268 0.790102 0.189951
0.337044 0.791921 0.191585
0.396085 0.793774 0.193219
0.454536 0.795659 0.194851
0.512488 0.797558 0.196482
0.570009 0.799459 0.198113
0.627149 0.801360 0.199742
0.683950 0.803262 0.201369
0.740444 0.805161 0.202996
0.796656 0.807057 0.204622
0.852608 0.808949 0.206247
0.908318 0.810836 0.207870
0.963800 0.812715 0.209493
1.000000 0.814548 0.211114
0.158764 0.840868 0.189890
0.220867 0.842675 0.191525
0.281585 0.844516 0.193159
0.341348 0.846392 0.194791
0.400379 0.848286 0.196422
0.458813 0.850183 0.198053
0.516746 0.852080 0.199682
0.574246 0.853977 0.201310
0.631364 0.855872 0.202936
0.688142 0.857764 0.204562
0.744609 0.859651 0.206187
0.800792 0.861533 0.207811
0.856713 0.863409 0.209433
0.912388 0.865276 0.211055
0.967833 0.867134 0.212675
1.000000 0.868936 0.214295
0.163244 0.895055 0.193099
0.225280 0.896920 0.194731
0.285963 0.898811 0.196362
0.345694 0.900704 0.197993
0.404694 0.902599 0.199622
0.463100 0.904492 0.201250
0.521005 0.906384 0.202877
0.578477 0.908272 0.204502
0.635566 0.910156 0.206127
0.692312 0.912035 0.207751
0.748745 0.913907 0.209374
0.804892 0.915770 0.210995
0.860774 0.917624 0.212616
0.916407 0.919468 0.214236
0.971806 0.921300 0.215854
1.000000 0.923073 0.217472
0.167782 0.949140 0.196302
0.229739 0.951034 0.197933
0.290364 0.952927 0.199562
0.350051 0.954819 0.201190
0.409013 0.956709 0.202817
0.467383 0.958595 0.204443
0.525253 0.960477 0.206067
0.582688 0.962353 0.207691
0.639740 0.964221 0.209314
0.696447 0.966082 0.210936
0.752839 0.967934 0.212556
0.808942 0.969775 0.214176
0.864776 0.971604 0.215795
0.920360 0.973420 0.217412
0.975706 0.975222 0.219029
1.000000 0.976965 0.220645
0.107016 0.107649 0.197987
0.170631 0.109470 0.199616
0.232052 0.111273 0.201244
0.292175 0.113059 0.202871
0.351375 0.114830 0.204497
0.409861 0.116588 0.206122
0.467765 0.118335 0.207745
0.525180 0.120072 0.209368
0.582173 0.121801 0.210990
0.638795 0.123524 0.212610
0.695087 0.125242 0.214230
0.751082 0.126958 0.215849
0.806807 0.128672 0.217466
0.862286 0.130387 0.219083
0.917538 0.132104 0.220699
0.972590 0.133832 0.222314
0.111027 0.169472 0.201184
0.174439 0.171163 0.202811
0.235752 0.172845 0.204437
0.295800 0.174516 0.206062
0.354943 0.176179 0.207686
0.413384 0.177835 0.209308
0.471251 0.179486 0.210930
0.528634 0.181133 0.212551
0.585600 0.182777 0.214171
0.642200 0.184421 0.215789
0.698473 0.186065 0.217407
0.754451 0.187712 0.219024
0.810163 0.189363 0.220639
0.865645 0.191027 0.222254
0.920939 0.192721 0.223868
0.976059 0.194443 0.225481
0.115004 0.229078 0.204377
0.178227 0.230696 0.206002
0.239436 0.232308 0.207626
0.299413 0.233916 0.209249
0.358503 0.235520 0.210871
0.416902 0.237121 0.212491
0.474734 0.238721 0.214111
0.532089 0.240321 0.215730
0.589030 0.241923 0.217347
0.645610 0.243528 0.218964
0.701865 0.245137 0.220580
0.757845 0.246762 0.222195
0.813598 0.248417 0.223809
0.869145 0.250102 0.225422
0.924501 0.251816 0.227034
0.979681 0.253561 0.228645
0.118952 0.287375 0.207566
0.181997 0.288943 0.209189
0.243109 0.290510 0.210811
0.303019 0.292077 0.212432
0.362059 0.293643 0.214051
0.420417 0.295211 0.215670
0.478217 0.296781 0.217288
0.535546 0.298355 0.218905
0.592466 0.299934 0.220521
0.649041 0.301528 0.222136
0.705335 0.303153 0.223750
0.761376 0.304809 0.225363
0.817188 0.306496 0.226975
0.872791 0.308213 0.228586
0.928201 0.309960 0.230196
0.983432 0.311737 0.231806
0.122876 0.344748 0.210751
0.185755 0.346281 0.212372
0.246774 0.347818 0.213992
0.306621 0.349357 0.215611
0.365613 0.350901 0.217228
0.423934 0.352449 0.218845
0.481705 0.354002 0.220461
0.539021 0.355571 0.222076
0.595972 0.357171 0.223690
0.652605 0.358803 0.225303
0.708954 0.360466 0.226915
0.765049 0.362160 0.228527
0.820913 0.363885 0.230137
0.876565 0.365641 0.231747
0.932021 0.367427 0.233355
0.987295 0.369243 0.234963
0.126781 0.401412 0.213932
0.189505 0.402923 0.215551
0.250435 0.404440 0.217169
0.310222 0.405964 0.218786
0.369169 0.407495 0.220402
0.427465 0.409040 0.222017
0.485255 0.410617 0.223631
0.542623 0.412226 0.225244
0.599626 0.413869 0.226856
0.656308 0.415543 0.228467
0.712706 0.417248 0.230078
0.768847 0.418985 0.231687
0.824755 0.420753 0.233296
0.880447 0.422551 0.234904
0.935942 0.424380 0.236511
0.991252 0.426239 0.238117
0.130673 0.457509 0.217109
0.193249 0.459006 0.218726
0.254096 0.460515 0.220342
0.313831 0.462036 0.221957
0.372779 0.463589 0.223571
0.431115 0.465178 0.225185
0.488950 0.466800 0.226797
0.546363 0.468455 0.228408
0.603409 0.470142 0.230019
0.660135 0.471862 0.231628
0.716573 0.473613 0.233237
0.772753 0.475395 0.234845
0.828697 0.477208 0.236452
0.884424 0.479052 0.238058
0.939950 0.480927 0.239663
0.995289 0.482832 0.241267
0.134555 0.513139 0.220283
0.196994 0.514633 0.221898
0.257797 0.516161 0.223512
0.317549 0.517727 0.225125
0.376529 0.519329 0.226738
0.434901 0.520965 0.228349
0.492774 0.522635 0.229959
0.550224 0.524338 0.231569
0.607308 0.526073 0.233178
0.664069 0.527840 0.234786
0.720541 0.529638 0.236393
0.776753 0.531468 0.237999
0.832726 0.533329 0.239604
0.888480 0.535221 0.241208
0.944031 0.537142 0.242812
0.999386 0.539077 0.244415
0.138454 0.568392 0.223453
0.200831 0.569930 0.225066
0.261633 0.571510 0.226678
0.321401 0.573126 0.228290
0.380406 0.574778 0.229900
0.438808 0.576464 0.231510
0.496711 0.578183 0.233119
0.554192 0.579935 0.234726
0.611305 0.581720 0.236333
0.668095 0.583536 0.237940
0.724594 0.585384 0.239545
0.780831 0.587263 0.241149
0.836827 0.589173 0.242753
0.892596 0.591097 0.244356
0.948150 0.593025 0.245958
1.000000 0.594954 0.247559
0.142474 0.623387 0.226619
0.204800 0.624980 0.228230
0.265594 0.626612 0.229841
0.325374 0.628280 0.231451
0.384397 0.629983 0.233059
0.442820 0.631720 0.234667
0.500748 0.633491 0.236274
0.558252 0.635294 0.237880
0.615389 0.637129 0.239486
0.672201 0.638996 0.241090
0.728720 0.640894 0.242694
0.784971 0.642810 0.244297
0.840969 0.644729 0.245899
0.896734 0.646650 0.247500
0.952280 0.648570 0.249101
1.000000 0.650479 0.250700
0.146615 0.678171 0.229782
0.208886 0.679819 0.231391
0.269668 0.681505 0.233000
0.329451 0.683227 0.234608
0.388487 0.684983 0.236215
0.446926 0.686772 0.237821
0.504870 0.688595 0.239427
0.562392 0.690450 0.241031
0.619545 0.692337 0.242635
0.676369 0.694245 0.244238
0.732889 0.696157 0.245840
0.789133 0.698070 0.247441
0.845122 0.699984 0.249042
0.900875 0.701896 0.250641
0.956405 0.703806 0.252240
1.000000 0.705690 0.253838
0.150862 0.732776 0.232941
0.213076 0.734480 0.234549
0.273840 0.736221 0.236156
0.333621 0.737997 0.237762
0.392662 0.739807 0.239368
0.451110 0.741650 0.240972
0.509065 0.743525 0.242576
0.566595 0.745426 0.244179
0.623748 0.747332 0.245781
0.680562 0.749239 0.247382
0.737071 0.751146 0.248983
0.793300 0.753052 0.250582
0.849272 0.754956 0.252181
0.905004 0.756857 0.253780
0.960511 0.758752 0.255377
1.000000 0.760609 0.256973
0.155203 0.787227 0.236097
0.217357 0.788988 0.237703
0.278097 0.790785 0.239309
0.337871 0.792616 0.240913
0.396911 0.794480 0.242517
0.455360 0.796374 0.244120
0.513309 0.798274 0.245722
0.570826 0.800175 0.247323
0.627963 0.802077 0.248924
0.684760 0.803978 0.250524
0.741249 0.805877 0.252123
0.797456 0.807772 0.253721
0.853403 0.809663 0.255318
0.909107 0.811547 0.256915
0.964582 0.813424 0.258511
1.000000 0.815252 0.260106
0.159626 0.841545 0.239250
0.221715 0.843364 0.240854
0.282427 0.845217 0.242458
0.342186 0.847103 0.244061
0.401211 0.848999 0.245663
0.459640 0.850896 0.247265
0.517568 0.852794 0.248865
0.575063 0.854691 0.250465
0.632177 0.856585 0.252064
0.688949 0.858476 0.253662
0.745410 0.860362 0.255259
0.801587 0.862243 0.256856
0.857501 0.864115 0.258452
0.913169 0.865980 0.260047
0.968605 0.867834 0.261641
1.000000 0.869632 0.263235
0.164118 0.895750 0.242399
0.226140 0.897627 0.244002
0.286812 0.899521 0.245604
0.346536 0.901416 0.247206
0.405529 0.903310 0.248806
0.463928 0.905204 0.250406
0.521827 0.907095 0.252005
0.579292 0.908983 0.253603
0.636375 0.910865 0.255201
0.693114 0.912742 0.256797
0.749540 0.914611 0.258393
0.805679 0.916472 0.259988
0.861552 0.918323 0.261583
0.917176 0.920163 0.263177
0.972566 0.921991 0.264769
1.000000 0.923759 0.266362
0.168664 0.949847 0.245545
0.230602 0.951743 0.247147
0.291216 0.953637 0.248747
0.350893 0.955529 0.250347
0.409847 0.957418 0.251946
0.468209 0.959303 0.253544
0.526071 0.961184 0.255142
0.583499 0.963058 0.256739
0.640543 0.964924 0.258335
0.697241 0.966782 0.259930
0.753624 0.968631 0.261524
0.809718 0.970468 0.263118
0.865543 0.972293 0.264711
0.921116 0.974104 0.266303
0.976452 0.975902 0.267895
1.000000 0.977640 0.269486
0.107801 0.108358 0.247200
0.171377 0.110172 0.248801
0.232776 0.111968 0.250401
0.292884 0.113748 0.252000
0.352073 0.115513 0.253598
0.410550 0.117266 0.255195
0.468448 0.119008 0.256792
0.525856 0.120742 0.258388
0.582843 0.122468 0.259983
0.639461 0.124189 0.261577
0.695749 0.125905 0.263171
0.751741 0.127620 0.264764
0.807463 0.129334 0.266356
0.862939 0.131050 0.267948
0.918189 0.132767 0.269539
0.973252 0.134503 0.271129
0.111805 0.170134 0.250342
0.175180 0.171820 0.251941
0.236472 0.173496 0.253539
0.296506 0.175163 0.255137
0.355639 0.176823 0.256733
0.414071 0.178476 0.258329
0.471931 0.180125 0.259924
0.529309 0.181770 0.261519
0.586270 0.183414 0.263113
0.642866 0.185057 0.264706
0.699135 0.186702 0.266298
0.755111 0.188350 0.267889
0.810821 0.190002 0.269480
0.866313 0.191676 0.271070
0.921618 0.193379 0.272660
0.976749 0.195112 0.274248
0.115776 0.229713 0.253480
0.178963 0.231327 0.255078
0.240153 0.232936 0.256675
0.300118 0.234541 0.258270
0.359198 0.236143 0.259866
0.417588 0.237743 0.261460
0.475414 0.239342 0.263054
0.532763 0.240942 0.264647
0.589701 0.242544 0.266239
0.646276 0.244150 0.267831
0.702529 0.245762 0.269422
0.758520 0.247396 0.271012
0.814283 0.249061 0.272601
0.869840 0.250756 0.274190
0.925205 0.252481 0.275778
0.980395 0.254235 0.277365
0.119718 0.287992 0.256616
0.182731 0.289557 0.258212
0.243824 0.291122 0.259807
0.303722 0.292687 0.261402
0.362752 0.294253 0.262995
0.421103 0.295821 0.264588
0.478897 0.297391 0.266181
0.536221 0.298966 0.267772
0.593137 0.300547 0.269363
0.649722 0.302151 0.270953
0.706026 0.303787 0.272543
0.762077 0.305453 0.274132
0.817898 0.307150 0.275720
0.873510 0.308878 0.277307
0.928928 0.310635 0.278894
0.984167 0.312423 0.280480
0.123638 0.345351 0.259748
0.186487 0.346883 0.261343
0.247488 0.348419 0.262937
0.307323 0.349959 0.264530
0.366306 0.351503 0.266122
0.424620 0.353052 0.267714
0.482385 0.354607 0.269305
0.539710 0.356185 0.270895
0.596670 0.357796 0.272484
0.653312 0.359438 0.274073
0.709670 0.361112 0.275661
0.765773 0.362817 0.277249
0.821645 0.364552 0.278835
0.877304 0.366319 0.280421
0.932767 0.368115 0.282007
0.988048 0.369942 0.283592
0.127540 0.402007 0.262878
0.190234 0.403517 0.264471
0.251149 0.405035 0.266064
0.310924 0.406560 0.267655
0.369863 0.408093 0.269246
0.428163 0.409647 0.270836
0.485962 0.411234 0.272426
0.543337 0.412854 0.274015
0.600348 0.414507 0.275603
0.657039 0.416192 0.277190
0.713444 0.417908 0.278777
0.769592 0.419656 0.280363
0.825506 0.421434 0.281949
0.881205 0.423243 0.283533
0.936706 0.425082 0.285117
0.992021 0.426952 0.286701
0.131429 0.458098 0.266005
0.193978 0.459596 0.267597
0.254810 0.461106 0.269188
0.314543 0.462635 0.270778
0.373496 0.464200 0.272367
0.431839 0.465799 0.273956
0.489681 0.467432 0.275544
0.547100 0.469098 0.277132
0.604154 0.470796 0.278719
0.660886 0.472526 0.280305
0.717330 0.474288 0.281890
0.773516 0.476080 0.283475
0.829466 0.477904 0.285059
0.885198 0.479759 0.286643
0.940729 0.481644 0.288225
0.996072 0.483560 0.289808
0.135310 0.513725 0.269129
0.197730 0.515225 0.270719
0.258531 0.516765 0.272309
0.318286 0.518342 0.273898
0.377270 0.519954 0.275486
0.435648 0.521602 0.277073
