resources/luts/vintage-warm.cube
TITLE "vintage-warm"
LUT_3D_SIZE 6
DOMAIN_MIN 0 0 0
DOMAIN_MAX 1 1 1
0.105441 0.106224 0.095633
0.290756 0.111681 0.100885
0.466402 0.116988 0.106102
0.637464 0.122196 0.111287
0.805498 0.127353 0.116443
0.971282 0.132503 0.121574
0.117417 0.286144 0.105911
0.301615 0.290859 0.111097
0.476859 0.295565 0.116254
0.647694 0.300296 0.121386
0.815780 0.305200 0.126493
0.981971 0.310378 0.131579
0.129160 0.456336 0.116065
0.312422 0.460851 0.121197
0.487501 0.465549 0.126306
0.658641 0.470545 0.131393
0.827165 0.475826 0.136459
0.993726 0.481384 0.141507
0.140898 0.622176 0.126118
0.323821 0.626999 0.131206
0.499176 0.632141 0.136273
0.670607 0.637579 0.141321
0.839369 0.643278 0.146352
1.000000 0.649031 0.151366
0.153511 0.785912 0.136087
0.336218 0.791229 0.141136
0.511666 0.796841 0.146167
0.683138 0.802543 0.151182
0.851810 0.808234 0.156181
1.000000 0.813841 0.161165
0.166899 0.948432 0.145982
0.349207 0.954108 0.150997
0.524431 0.959768 0.155997
0.695649 0.965380 0.160982
0.864006 0.970912 0.165952
1.000000 0.976288 0.170910
0.107801 0.108358 0.247200
0.292884 0.113748 0.252000
0.468448 0.119008 0.256792
0.639461 0.124189 0.261577
0.807463 0.129334 0.266356
0.973252 0.134503 0.271129
0.119718 0.287992 0.256616
0.303722 0.292687 0.261402
0.478897 0.297391 0.266181
0.649722 0.302151 0.270953
0.817898 0.307150 0.275720
0.984167 0.312423 0.280480
0.131429 0.458098 0.266005
0.314543 0.462635 0.270778
0.489681 0.467432 0.275544
0.660886 0.472526 0.280305
0.829466 0.477904 0.285059
0.996072 0.483560 0.289808
0.143268 0.623999 0.275369
0.326154 0.628927 0.280130
0.501536 0.634170 0.284884
0.672999 0.639708 0.289633
0.841767 0.645454 0.294376
1.000000 0.651201 0.299113
0.156052 0.787890 0.284710
0.338698 0.793313 0.289458
0.514129 0.798989 0.294202
0.685568 0.804694 0.298939
0.854195 0.810375 0.303671
1.000000 0.815955 0.308398
0.169545 0.950555 0.294027
0.351734 0.956238 0.298765
0.526887 0.961889 0.303497
0.698032 0.967481 0.308224
0.866305 0.972980 0.312945
1.000000 0.978312 0.317662
0.110150 0.110475 0.390939
0.295011 0.115805 0.395582
0.470494 0.121027 0.400221
0.641460 0.126185 0.404856
0.809433 0.131325 0.409488
0.975267 0.136541 0.414116
0.122015 0.289841 0.400050
0.305831 0.294523 0.404686
0.480939 0.299229 0.409317
0.651794 0.304046 0.413945
0.820050 0.309136 0.418570
0.986387 0.314500 0.423191
0.133699 0.459871 0.409147
0.316706 0.464458 0.413775
0.491894 0.469351 0.418400
0.663154 0.474539 0.423021
0.831782 0.480012 0.427639
0.998423 0.485757 0.432253
0.145671 0.625859 0.418230
0.328511 0.630888 0.422851
0.503912 0.636230 0.427469
0.675398 0.641863 0.432083
0.844156 0.647624 0.436694
1.000000 0.653361 0.441301
0.158608 0.789898 0.427299
0.341187 0.795425 0.431913
0.516584 0.801131 0.436524
0.687983 0.806835 0.441132
0.856559 0.812502 0.445736
1.000000 0.818054 0.450338
0.172182 0.952674 0.436355
0.354247 0.958359 0.440963
0.529322 0.963999 0.445567
0.700389 0.969566 0.450168
0.868574 0.975028 0.454766
1.000000 0.980317 0.459361
0.112489 0.112574 0.530957
0.297134 0.117852 0.535504
0.472539 0.123041 0.540049
0.643461 0.128183 0.544591
0.811406 0.133322 0.549131
0.977319 0.138609 0.553668
0.124306 0.291689 0.539882
0.307940 0.296363 0.544424
0.482984 0.301076 0.548964
0.653903 0.305974 0.553501
0.822231 0.311154 0.558036
0.988630 0.316607 0.562568
0.135968 0.461653 0.548797
0.318908 0.466315 0.553334
0.494138 0.471301 0.557869
0.665445 0.476583 0.562401
0.834114 0.482149 0.566931
1.000000 0.487956 0.571459
0.148102 0.627751 0.557702
0.330892 0.632879 0.562235
0.506305 0.638318 0.566765
0.677800 0.644025 0.571292
0.846539 0.649790 0.575818
1.000000 0.655515 0.580341
0.161180 0.791936 0.566598
0.343684 0.797556 0.571126
0.519034 0.803270 0.575651
0.690386 0.808969 0.580174
0.858905 0.814619 0.584695
1.000000 0.820139 0.589213
0.174814 0.954792 0.575485
0.356749 0.960474 0.580008
0.531740 0.966098 0.584529
0.702722 0.971637 0.589047
0.870814 0.977060 0.593563
1.000000 0.982304 0.598077
0.114819 0.114657 0.668508
0.299254 0.119889 0.672987
0.474584 0.125050 0.677464
0.645462 0.130181 0.681939
0.813405 0.135338 0.686412
0.979406 0.140706 0.690883
0.126593 0.293536 0.677299
0.310050 0.298206 0.681774
0.485055 0.302946 0.686247
0.656045 0.307933 0.690718
0.824439 0.313201 0.695188
0.990894 0.318743 0.699655
0.138242 0.463447 0.686083
0.321143 0.468203 0.690554
0.496409 0.473282 0.695023
0.667757 0.478656 0.699491
0.836460 0.484314 0.703956
1.000000 0.490155 0.708420
0.150560 0.629674 0.694859
0.333294 0.634900 0.699326
0.508714 0.640435 0.703792
0.680203 0.646186 0.708256
0.848916 0.651953 0.712718
1.000000 0.657660 0.717178
0.163767 0.794004 0.703628
0.346183 0.799689 0.708092
0.521479 0.805406 0.712554
0.692777 0.811096 0.717014
0.861234 0.816725 0.721473
1.000000 0.822211 0.725930
0.177440 0.956907 0.712390
0.359240 0.962582 0.716850
0.534140 0.968187 0.721309
0.705033 0.973695 0.725766
0.873025 0.979074 0.730221
1.000000 0.984272 0.734674
0.117139 0.116725 0.804216
0.301373 0.121917 0.808642
0.476629 0.127056 0.813066
0.647466 0.132181 0.817488
0.815442 0.137382 0.821909
0.981525 0.142829 0.826329
0.128875 0.295382 0.812903
0.312161 0.300054 0.817326
0.487163 0.304846 0.821747
0.658219 0.309920 0.826166
0.826673 0.315276 0.830584
0.993177 0.320907 0.835001
0.140548 0.465269 0.821584
0.323410 0.470121 0.826004
0.498706 0.475292 0.830422
0.670088 0.480757 0.834838
0.838820 0.486502 0.839254
1.000000 0.492347 0.843667
0.153041 0.631627 0.830259
0.335715 0.636950 0.834676
0.511136 0.642579 0.839091
0.682605 0.648347 0.843505
0.851286 0.654111 0.847917
1.000000 0.659799 0.852328
0.166366 0.796099 0.838929
0.348681 0.801822 0.843342
0.523917 0.807539 0.847755
0.695155 0.813216 0.852165
0.863543 0.818819 0.856575
1.000000 0.824270 0.860982
0.180059 0.959019 0.847592
0.361720 0.964684 0.852003
0.536523 0.970266 0.856412
0.707320 0.975738 0.860820
0.875208 0.981072 0.865227
1.000000 0.986221 0.869632
