resources/luts/warm-print.cube
TITLE "warm-print"
LUT_3D_SIZE 6
DOMAIN_MIN 0 0 0
DOMAIN_MAX 1 1 1
0.000000 0.000800 0.002400
0.228398 0.000773 0.002319
0.447666 0.000704 0.002113
0.663615 0.000607 0.001820
0.877437 0.000491 0.001474
1.000000 0.000421 0.001264
0.000000 0.216950 0.002139
0.224572 0.214992 0.001847
0.443917 0.213017 0.001502
0.659910 0.211033 0.001136
0.873764 0.209053 0.000779
1.000000 0.207170 0.000586
0.000000 0.424347 0.001551
0.220745 0.422400 0.001178
0.440168 0.420454 0.000810
0.656406 0.418621 0.000481
0.870846 0.416988 0.000218
1.000000 0.415359 0.000103
0.000000 0.628570 0.000863
0.217062 0.626729 0.000525
0.437091 0.625098 0.000245
0.653978 0.623637 0.000062
0.868877 0.622305 0.000000
1.000000 0.620834 0.000000
0.000576 0.831101 0.000281
0.214415 0.829627 0.000084
0.434983 0.828305 0.000000
0.652193 0.827059 0.000000
0.867227 0.825816 0.000000
1.000000 0.824358 0.000000
0.001872 1.000000 0.000020
0.212150 1.000000 0.000000
0.432952 1.000000 0.000000
0.650208 1.000000 0.000000
0.865125 1.000000 0.000000
1.000000 1.000000 0.000000
0.000000 0.000797 0.202769
0.227655 0.000754 0.200939
0.446938 0.000673 0.198998
0.662895 0.000568 0.196982
0.876723 0.000450 0.194925
1.000000 0.000379 0.193010
0.000000 0.216211 0.199091
0.223829 0.214246 0.197076
0.443189 0.212266 0.195018
0.659191 0.210283 0.192950
0.873084 0.208322 0.190900
1.000000 0.206480 0.189013
0.000000 0.423612 0.195129
0.220001 0.421664 0.193054
0.439460 0.419731 0.190992
0.655836 0.417969 0.188979
0.870377 0.416393 0.187041
1.000000 0.414793 0.185244
0.000006 0.627846 0.191104
0.216451 0.626075 0.189083
0.436598 0.624504 0.187127
0.653563 0.623090 0.185276
0.868505 0.621789 0.183545
1.000000 0.620323 0.181841
0.000800 0.830507 0.187220
0.213965 0.829079 0.185355
0.434593 0.827793 0.183608
0.651823 0.826553 0.181903
0.866847 0.825301 0.180198
1.000000 0.823832 0.178493
0.002204 1.000000 0.183673
0.211759 1.000000 0.181966
0.432573 1.000000 0.180261
0.649803 1.000000 0.178556
0.864662 1.000000 0.176850
1.000000 1.000000 0.175143
0.000000 0.000788 0.395111
0.226912 0.000731 0.393272
0.446210 0.000640 0.391335
0.662176 0.000529 0.389335
0.876010 0.000408 0.387305
1.000000 0.000337 0.385425
0.000000 0.215470 0.391431
0.223086 0.213498 0.389431
0.442461 0.211515 0.387399
0.658471 0.209532 0.385368
0.872450 0.207615 0.383366
1.000000 0.205814 0.381525
0.000000 0.422875 0.387508
0.219258 0.420928 0.385470
0.438800 0.419033 0.383455
0.655306 0.417338 0.381499
0.869944 0.415818 0.379628
1.000000 0.414247 0.377890
0.000054 0.627146 0.383562
0.215881 0.625444 0.381597
0.436141 0.623932 0.379708
0.653178 0.622563 0.377935
0.868158 0.621286 0.376261
1.000000 0.619823 0.374593
0.001062 0.829934 0.379795
0.213547 0.828551 0.378004
0.434228 0.827294 0.376322
0.651474 0.826057 0.374654
0.866479 0.824793 0.372986
1.000000 0.823310 0.371317
0.002566 1.000000 0.376384
0.211393 1.000000 0.374716
0.432210 1.000000 0.373047
0.649404 1.000000 0.371379
0.864192 1.000000 0.369710
1.000000 1.000000 0.368041
0.000000 0.000774 0.584527
0.226169 0.000704 0.582670
0.445482 0.000605 0.580726
0.661457 0.000489 0.578731
0.875297 0.000366 0.576716
1.000000 0.000296 0.574857
0.000000 0.214727 0.580825
0.222342 0.212750 0.578830
0.441733 0.210765 0.576813
0.657753 0.208784 0.574806
0.871858 0.206932 0.572839
1.000000 0.205169 0.571031
0.000000 0.422139 0.576920
0.218514 0.420194 0.574907
0.438182 0.418359 0.572926
0.654806 0.416727 0.571014
0.869529 0.415257 0.569198
1.000000 0.413713 0.567506
0.000148 0.626470 0.573029
0.215343 0.624833 0.571108
0.435703 0.623374 0.569273
0.652801 0.622046 0.567563
0.867810 0.620781 0.565915
1.000000 0.619320 0.564267
0.001346 0.829376 0.569353
0.213139 0.828034 0.567624
0.433863 0.826794 0.565976
0.651114 0.825555 0.564328
0.866091 0.824274 0.562680
1.000000 0.822773 0.561032
0.002933 1.000000 0.566036
0.211020 1.000000 0.564388
0.431830 1.000000 0.562740
0.648978 1.000000 0.561092
0.863686 1.000000 0.559444
1.000000 1.000000 0.557796
0.000000 0.000756 0.772063
0.225426 0.000675 0.770186
0.444754 0.000569 0.768235
0.660737 0.000449 0.766242
0.874583 0.000326 0.764240
1.000000 0.000257 0.762398
0.000000 0.213982 0.768335
0.221599 0.212001 0.766343
0.441004 0.210015 0.764338
0.657067 0.208054 0.762354
0.871303 0.206270 0.760419
1.000000 0.204543 0.758640
0.000000 0.421403 0.764443
0.217788 0.419470 0.762452
0.437602 0.417706 0.760503
0.654334 0.416132 0.758633
0.869130 0.414708 0.756868
1.000000 0.413189 0.755217
0.000282 0.625817 0.760601
0.214833 0.624239 0.758722
0.435282 0.622829 0.756938
0.652431 0.621534 0.755277
0.867458 0.620275 0.753643
1.000000 0.618811 0.752009
0.001649 0.828833 0.757011
0.212740 0.827525 0.755337
0.433496 0.826294 0.753703
0.650741 0.825048 0.752070
0.865681 0.823745 0.750436
1.000000 0.822223 0.748802
0.003303 1.000000 0.753763
0.210639 1.000000 0.752130
0.431432 1.000000 0.750496
0.648524 1.000000 0.748862
0.863142 1.000000 0.747228
1.000000 1.000000 0.745594
0.000000 0.000738 0.934181
0.224683 0.000647 0.933910
0.444026 0.000535 0.933573
0.660018 0.000412 0.933205
0.873870 0.000290 0.932838
1.000000 0.000239 0.932632
0.000000 0.213240 0.933616
0.220856 0.211256 0.933249
0.440276 0.209270 0.932877
0.656417 0.207346 0.932535
0.870764 0.205621 0.932252
1.000000 0.203926 0.932121
0.000000 0.420672 0.932920
0.217099 0.418769 0.932572
0.437040 0.417067 0.932274
0.653864 0.415545 0.932065
0.868723 0.414161 0.931971
1.000000 0.412660 0.931968
0.000438 0.625180 0.932308
0.214329 0.623653 0.932089
0.434856 0.622286 0.931975
0.652047 0.621014 0.931968
0.867085 0.619758 0.931968
1.000000 0.618291 0.931968
0.001948 0.828292 0.931982
0.212327 0.827010 0.931968
0.433109 0.825784 0.931968
0.650344 0.824528 0.931968
0.865241 0.823200 0.931968
1.000000 0.821656 0.931968
0.003657 1.000000 0.931968
0.210236 1.000000 0.931968
0.431006 1.000000 0.931968
0.648036 1.000000 0.931968
0.862558 1.000000 0.931968
1.000000 1.000000 0.931968
