resources/luts/warm-print.cube
TITLE "warm-print"
LUT_3D_SIZE 16
DOMAIN_MIN 0 0 0
DOMAIN_MAX 1 1 1
0.000000 0.000800 0.002400
0.078608 0.000797 0.002390
0.154074 0.000787 0.002362
0.228398 0.000773 0.002319
0.301989 0.000754 0.002262
0.375041 0.000731 0.002193
0.447666 0.000704 0.002113
0.519937 0.000674 0.002023
0.591907 0.000642 0.001925
0.663615 0.000607 0.001820
0.735090 0.000570 0.001709
0.806358 0.000531 0.001593
0.877437 0.000491 0.001474
0.948343 0.000451 0.001353
1.000000 0.000421 0.001264
1.000000 0.000421 0.001264
0.000000 0.075211 0.002366
0.077291 0.074557 0.002323
0.152784 0.073898 0.002267
0.227123 0.073234 0.002199
0.300725 0.072567 0.002120
0.373785 0.071897 0.002031
0.446416 0.071223 0.001935
0.518693 0.070548 0.001831
0.590668 0.069870 0.001722
0.662380 0.069190 0.001609
0.733860 0.068509 0.001491
0.805130 0.067828 0.001372
0.876212 0.067145 0.001251
0.947121 0.066462 0.001130
1.000000 0.065790 0.001041
1.000000 0.065148 0.001043
0.000000 0.146629 0.002275
0.075974 0.145979 0.002207
0.151493 0.145325 0.002127
0.225847 0.144667 0.002038
0.299460 0.144007 0.001940
0.372529 0.143345 0.001836
0.445167 0.142680 0.001726
0.517449 0.142014 0.001612
0.589429 0.141347 0.001494
0.661145 0.140679 0.001374
0.732629 0.140010 0.001252
0.803903 0.139341 0.001131
0.874988 0.138673 0.001010
0.945900 0.138005 0.000892
1.000000 0.137347 0.000803
1.000000 0.136719 0.000805
0.000000 0.216950 0.002139
0.074656 0.216301 0.002051
0.150203 0.215648 0.001952
0.224572 0.214992 0.001847
0.298196 0.214335 0.001736
0.371272 0.213676 0.001621
0.443917 0.213017 0.001502
0.516205 0.212356 0.001381
0.588190 0.211695 0.001259
0.659910 0.211033 0.001136
0.731397 0.210372 0.001015
0.802675 0.209712 0.000896
0.873764 0.209053 0.000779
0.944711 0.208411 0.000667
1.000000 0.207791 0.000584
1.000000 0.207170 0.000586
0.000000 0.286566 0.001968
0.073337 0.285917 0.001865
0.148911 0.285265 0.001752
0.223297 0.284611 0.001635
0.296931 0.283956 0.001515
0.370016 0.283300 0.001393
0.442667 0.282644 0.001270
0.514961 0.281987 0.001146
0.586951 0.281331 0.001024
0.658675 0.280676 0.000904
0.730167 0.280022 0.000786
0.801478 0.279384 0.000674
0.872644 0.278770 0.000566
0.943679 0.278180 0.000465
1.000000 0.277599 0.000389
1.000000 0.276983 0.000391
0.000000 0.355662 0.001769
0.072018 0.355014 0.001656
0.147620 0.354362 0.001534
0.222021 0.353710 0.001410
0.295666 0.353057 0.001285
0.368759 0.352405 0.001160
0.441417 0.351752 0.001036
0.513717 0.351101 0.000915
0.585711 0.350450 0.000797
0.657466 0.349814 0.000683
0.729033 0.349203 0.000574
0.800432 0.348615 0.000472
0.871680 0.348048 0.000377
0.942789 0.347502 0.000290
1.000000 0.346958 0.000226
1.000000 0.346345 0.000228
0.000000 0.424347 0.001551
0.070698 0.423701 0.001433
0.146328 0.423050 0.001305
0.220745 0.422400 0.001178
0.294401 0.421751 0.001053
0.367503 0.421102 0.000930
0.440168 0.420454 0.000810
0.512494 0.419818 0.000695
0.584561 0.419208 0.000585
0.656406 0.418621 0.000481
0.728055 0.418056 0.000385
0.799529 0.417513 0.000297
0.870846 0.416988 0.000218
0.942017 0.416481 0.000150
1.000000 0.415969 0.000102
1.000000 0.415359 0.000103
0.000000 0.492695 0.001322
0.069377 0.492050 0.001204
0.145036 0.491402 0.001075
0.219468 0.490755 0.000949
0.293136 0.490110 0.000827
0.366261 0.489473 0.000710
0.438996 0.488862 0.000598
0.511413 0.488276 0.000493
0.583565 0.487712 0.000395
0.655487 0.487169 0.000305
0.727206 0.486645 0.000226
0.798744 0.486140 0.000156
0.870116 0.485652 0.000098
0.941336 0.485178 0.000053
1.000000 0.484696 0.000025
1.000000 0.484088 0.000025
0.000000 0.560755 0.001090
0.068056 0.560115 0.000975
0.143743 0.559470 0.000849
0.218202 0.558832 0.000729
0.291936 0.558219 0.000615
0.365156 0.557632 0.000507
0.437978 0.557067 0.000407
0.510476 0.556525 0.000316
0.582699 0.556002 0.000234
0.654686 0.555498 0.000163
0.726463 0.555011 0.000104
0.798051 0.554539 0.000057
0.869467 0.554081 0.000023
0.940725 0.553636 0.000004
1.000000 0.553180 0.000000
1.000000 0.552574 0.000000
0.000000 0.628570 0.000863
0.066737 0.627935 0.000754
0.142502 0.627319 0.000636
0.217062 0.626729 0.000525
0.290890 0.626163 0.000423
0.364194 0.625620 0.000329
0.437091 0.625098 0.000245
0.509656 0.624594 0.000172
0.581939 0.624107 0.000111
0.653978 0.623637 0.000062
0.725801 0.623180 0.000026
0.797428 0.622737 0.000005
0.868877 0.622305 0.000000
0.940160 0.621880 0.000000
1.000000 0.621437 0.000000
1.000000 0.620834 0.000000
0.000044 0.696190 0.000647
0.065531 0.695597 0.000549
0.141412 0.695030 0.000442
0.216066 0.694485 0.000345
0.289976 0.693962 0.000258
0.363352 0.693458 0.000183
0.436312 0.692972 0.000119
0.508932 0.692502 0.000068
0.581263 0.692047 0.000030
0.653342 0.691605 0.000007
0.725198 0.691175 0.000000
0.796852 0.690752 0.000000
0.868321 0.690332 0.000000
0.939618 0.689915 0.000000
1.000000 0.689479 0.000000
1.000000 0.688877 0.000000
0.000242 0.763696 0.000451
0.064471 0.763143 0.000367
0.140456 0.762619 0.000275
0.215192 0.762115 0.000196
0.289170 0.761629 0.000129
0.362605 0.761159 0.000075
0.435616 0.760705 0.000035
0.508279 0.760264 0.000010
0.580646 0.759835 0.000000
0.652754 0.759414 0.000000
0.724632 0.758997 0.000000
0.796301 0.758582 0.000000
0.867779 0.758167 0.000000
0.939078 0.757750 0.000000
1.000000 0.757316 0.000000
1.000000 0.756716 0.000000
0.000576 0.831101 0.000281
0.063533 0.830581 0.000213
0.139610 0.830095 0.000142
0.214415 0.829627 0.000084
0.288451 0.829173 0.000041
0.361933 0.828733 0.000013
0.434983 0.828305 0.000000
0.507677 0.827887 0.000000
0.580068 0.827472 0.000000
0.652193 0.827059 0.000000
0.724081 0.826647 0.000000
0.795753 0.826233 0.000000
0.867227 0.825816 0.000000
0.938517 0.825395 0.000000
1.000000 0.824957 0.000000
1.000000 0.824358 0.000000
0.001023 0.898410 0.000146
0.062695 0.897918 0.000097
0.138851 0.897466 0.000049
0.213714 0.897028 0.000017
0.287795 0.896601 0.000001
0.361313 0.896185 0.000000
0.434390 0.895773 0.000000
0.507103 0.895363 0.000000
0.579506 0.894953 0.000000
0.651636 0.894542 0.000000
0.723522 0.894128 0.000000
0.795187 0.893710 0.000000
0.866646 0.893286 0.000000
0.937915 0.892854 0.000000
1.000000 0.892406 0.000000
1.000000 0.891809 0.000000
0.001560 0.965628 0.000051
0.061934 0.965159 0.000023
0.138159 0.964735 0.000003
0.213067 0.964322 0.000000
0.287181 0.963913 0.000000
0.360722 0.963506 0.000000
0.433814 0.963099 0.000000
0.506536 0.962691 0.000000
0.578939 0.962280 0.000000
0.651063 0.961865 0.000000
0.722936 0.961444 0.000000
0.794580 0.961016 0.000000
0.866013 0.960578 0.000000
0.937249 0.960130 0.000000
1.000000 0.959665 0.000000
1.000000 0.959070 0.000000
0.001872 1.000000 0.000020
0.060931 1.000000 0.000004
0.137208 1.000000 0.000000
0.212150 1.000000 0.000000
0.286288 1.000000 0.000000
0.359847 1.000000 0.000000
0.432952 1.000000 0.000000
0.505681 1.000000 0.000000
0.578087 1.000000 0.000000
0.650208 1.000000 0.000000
0.722075 1.000000 0.000000
0.793708 1.000000 0.000000
0.865125 1.000000 0.000000
0.936340 1.000000 0.000000
1.000000 1.000000 0.000000
1.000000 1.000000 0.000000
0.000000 0.000800 0.071363
0.078352 0.000794 0.070762
0.153823 0.000783 0.070143
0.228150 0.000767 0.069510
0.301744 0.000747 0.068863
0.374797 0.000722 0.068204
0.447423 0.000694 0.067535
0.519695 0.000664 0.066856
0.591666 0.000630 0.066169
0.663375 0.000594 0.065476
0.734851 0.000557 0.064777
0.806120 0.000518 0.064074
0.877199 0.000478 0.063368
0.948106 0.000438 0.062659
1.000000 0.000408 0.061982
1.000000 0.000408 0.061395
0.000000 0.074963 0.070169
0.077036 0.074307 0.069536
0.152533 0.073646 0.068890
0.226875 0.072981 0.068232
0.300479 0.072313 0.067564
0.373541 0.071642 0.066887
0.446173 0.070968 0.066202
0.518451 0.070291 0.065510
0.590427 0.069613 0.064813
0.662140 0.068933 0.064112
0.733620 0.068252 0.063407
0.804892 0.067570 0.062700
0.875974 0.066887 0.061993
0.946884 0.066205 0.061285
1.000000 0.065532 0.060608
1.000000 0.064890 0.060023
0.000000 0.146383 0.068920
0.075718 0.145731 0.068262
0.151243 0.145076 0.067593
0.225600 0.144418 0.066915
0.299215 0.143757 0.066229
0.372285 0.143093 0.065537
0.444924 0.142428 0.064839
0.517208 0.141762 0.064137
0.589188 0.141094 0.063431
0.660905 0.140426 0.062724
0.732389 0.139757 0.062015
0.803664 0.139089 0.061307
0.874750 0.138420 0.060599
0.945663 0.137753 0.059894
1.000000 0.137096 0.059219
1.000000 0.136468 0.058633
0.000000 0.216704 0.067627
0.074400 0.216054 0.066950
0.149952 0.215400 0.066263
0.224324 0.214744 0.065569
0.297950 0.214086 0.064870
0.371028 0.213427 0.064167
0.443674 0.212767 0.063461
0.515964 0.212106 0.062753
0.587949 0.211445 0.062043
0.659671 0.210784 0.061334
0.731158 0.210123 0.060626
0.802437 0.209463 0.059920
0.873531 0.208807 0.059217
0.944493 0.208173 0.058519
1.000000 0.207558 0.057849
1.000000 0.206937 0.057262
0.000000 0.286321 0.066300
0.073081 0.285671 0.065609
0.148661 0.285018 0.064908
0.223049 0.284363 0.064203
0.296685 0.283708 0.063496
0.369772 0.283052 0.062786
0.442425 0.282396 0.062076
0.514719 0.281740 0.061365
0.586710 0.281084 0.060656
0.658436 0.280429 0.059949
0.729932 0.279778 0.059246
0.801258 0.279147 0.058547
0.872438 0.278541 0.057853
0.943484 0.277957 0.057166
1.000000 0.277381 0.056503
1.000000 0.276765 0.055916
0.000000 0.355417 0.064946
0.071762 0.354768 0.064246
0.147369 0.354116 0.063536
0.221773 0.353464 0.062824
0.295420 0.352811 0.062112
0.368515 0.352159 0.061401
0.441175 0.351507 0.060690
0.513475 0.350855 0.059982
0.585473 0.350207 0.059278
0.657244 0.349578 0.058577
0.728824 0.348974 0.057883
0.800236 0.348393 0.057194
0.871495 0.347833 0.056513
0.942613 0.347292 0.055841
1.000000 0.346752 0.055190
1.000000 0.346139 0.054603
0.000000 0.424103 0.063574
0.070442 0.423456 0.062870
0.146077 0.422806 0.062155
0.220497 0.422156 0.061441
0.294155 0.421506 0.060728
0.367259 0.420858 0.060019
0.439926 0.420211 0.059313
0.512268 0.419583 0.058611
0.584349 0.418980 0.057915
0.656207 0.418400 0.057225
0.727867 0.417842 0.056543
0.799352 0.417303 0.055869
0.870677 0.416784 0.055205
0.941855 0.416281 0.054551
1.000000 0.415774 0.053916
1.000000 0.415163 0.053328
0.000000 0.492451 0.062193
0.069121 0.491807 0.061488
0.144785 0.491159 0.060772
0.219221 0.490512 0.060059
0.292890 0.489867 0.059351
0.366031 0.489238 0.058647
0.438780 0.488635 0.057949
0.511211 0.488055 0.057258
0.583375 0.487497 0.056574
0.655307 0.486960 0.055899
0.727035 0.486442 0.055233
0.798581 0.485941 0.054578
0.869960 0.485457 0.053934
0.941186 0.484987 0.053303
1.000000 0.484508 0.052689
1.000000 0.483900 0.052099
0.000000 0.560513 0.060808
0.067799 0.559872 0.060107
0.143492 0.559228 0.059394
0.217965 0.558597 0.058688
0.291716 0.557991 0.057987
0.364950 0.557411 0.057294
0.437784 0.556853 0.056608
0.510293 0.556316 0.055931
0.582526 0.555799 0.055263
0.654520 0.555299 0.054606
0.726304 0.554816 0.053961
0.797898 0.554348 0.053328
0.869319 0.553894 0.052709
0.940581 0.553452 0.052105
1.000000 0.552998 0.051513
1.000000 0.552391 0.050923
0.000000 0.628328 0.059429
0.066488 0.627699 0.058735
0.142273 0.627090 0.058030
0.216850 0.626508 0.057333
0.290692 0.625949 0.056645
0.364007 0.625412 0.055965
0.436915 0.624894 0.055295
0.509488 0.624395 0.054636
0.581779 0.623913 0.053989
0.653824 0.623446 0.053355
0.725651 0.622994 0.052734
0.797282 0.622553 0.052127
0.868733 0.622124 0.051535
0.940018 0.621699 0.050944
1.000000 0.621257 0.050354
1.000000 0.620653 0.049763
0.000066 0.695962 0.058062
0.065307 0.695375 0.057378
0.141206 0.694814 0.056685
0.215874 0.694276 0.056002
0.289795 0.693758 0.055330
0.363180 0.693260 0.054668
0.436148 0.692778 0.054019
0.508774 0.692312 0.053382
0.581111 0.691860 0.052759
0.653194 0.691421 0.052150
0.725053 0.690993 0.051556
0.796709 0.690571 0.050966
0.868179 0.690152 0.050376
0.939476 0.689734 0.049785
1.000000 0.689298 0.049194
1.000000 0.688696 0.048603
0.000286 0.763481 0.056715
0.064267 0.762933 0.056045
0.140267 0.762415 0.055368
0.215015 0.761916 0.054703
0.289002 0.761434 0.054050
0.362445 0.760969 0.053410
0.435462 0.760518 0.052785
0.508129 0.760080 0.052174
0.580499 0.759654 0.051578
0.652610 0.759234 0.050988
0.724489 0.758817 0.050397
0.796158 0.758402 0.049807
0.867635 0.757986 0.049216
0.938932 0.757568 0.048625
1.000000 0.757134 0.048033
1.000000 0.756533 0.047442
0.000638 0.830898 0.055395
0.063345 0.830382 0.054741
0.139435 0.829901 0.054084
0.214249 0.829436 0.053440
0.288292 0.828986 0.052812
0.361780 0.828550 0.052198
0.434834 0.828125 0.051600
0.507530 0.827707 0.051010
0.579923 0.827293 0.050419
0.652048 0.826880 0.049828
0.723936 0.826467 0.049238
0.795607 0.826052 0.048646
0.867079 0.825634 0.048055
0.938365 0.825210 0.047464
1.000000 0.824771 0.046872
1.000000 0.824172 0.046280
0.001100 0.898217 0.054109
0.062518 0.897727 0.053474
0.138686 0.897279 0.052840
0.213556 0.896844 0.052223
0.287642 0.896421 0.051622
0.361163 0.896006 0.051031
0.434242 0.895594 0.050441
0.506957 0.895184 0.049850
0.579359 0.894774 0.049259
0.651488 0.894362 0.048668
0.723373 0.893946 0.048077
0.795034 0.893526 0.047485
0.866490 0.893100 0.046894
0.937754 0.892665 0.046302
1.000000 0.892215 0.045709
1.000000 0.891618 0.045117
0.001647 0.965442 0.052864
0.061766 0.964975 0.052250
0.138000 0.964555 0.051644
0.212913 0.964143 0.051053
0.287030 0.963734 0.050463
0.360573 0.963327 0.049872
0.433666 0.962920 0.049281
0.506386 0.962511 0.048690
0.578788 0.962099 0.048099
0.650909 0.961682 0.047507
0.722778 0.961259 0.046915
0.794419 0.960828 0.046323
0.865847 0.960388 0.045731
0.937077 0.959936 0.045139
1.000000 0.959469 0.044546
1.000000 0.958874 0.043953
0.001964 1.000000 0.051678
0.060766 1.000000 0.051076
0.137052 1.000000 0.050484
0.211998 1.000000 0.049894
0.286138 1.000000 0.049303
0.359698 1.000000 0.048712
0.432803 1.000000 0.048120
0.505530 1.000000 0.047529
0.577933 1.000000 0.046937
0.650051 1.000000 0.046345
0.721913 1.000000 0.045753
0.793541 1.000000 0.045161
0.864952 1.000000 0.044568
0.936160 1.000000 0.043975
1.000000 1.000000 0.043382
1.000000 1.000000 0.042789
0.000000 0.000799 0.137568
0.078097 0.000791 0.136972
0.153573 0.000778 0.136360
0.227902 0.000761 0.135733
0.301498 0.000739 0.135094
0.374553 0.000713 0.134444
0.447180 0.000684 0.133783
0.519454 0.000652 0.133113
0.591426 0.000618 0.132437
0.663135 0.000581 0.131754
0.734612 0.000543 0.131065
0.805881 0.000504 0.130373
0.876961 0.000464 0.129679
0.947868 0.000423 0.128982
1.000000 0.000393 0.128318
1.000000 0.000393 0.127744
0.000000 0.074714 0.136386
0.076780 0.074057 0.135760
0.152283 0.073394 0.135122
0.226627 0.072728 0.134472
0.300234 0.072059 0.133813
0.373297 0.071386 0.133145
0.445931 0.070711 0.132469
0.518210 0.070034 0.131788
0.590187 0.069355 0.131102
0.661900 0.068674 0.130412
0.733381 0.067993 0.129719
0.804654 0.067311 0.129024
0.875737 0.066628 0.128329
0.946647 0.065945 0.127634
1.000000 0.065273 0.126971
1.000000 0.064631 0.126399
0.000000 0.146136 0.135152
0.075462 0.145483 0.134502
0.150992 0.144827 0.133842
0.225352 0.144167 0.133173
0.298969 0.143505 0.132496
0.372041 0.142841 0.131814
0.444681 0.142176 0.131127
0.516966 0.141509 0.130436
0.588948 0.140841 0.129742
0.660666 0.140172 0.129047
0.732150 0.139504 0.128351
0.803426 0.138835 0.127656
0.874512 0.138167 0.126962
0.945425 0.137499 0.126271
1.000000 0.136847 0.125609
1.000000 0.136219 0.125037
0.000000 0.216458 0.133876
0.074144 0.215807 0.133208
0.149701 0.215152 0.132530
0.224077 0.214495 0.131847
0.297705 0.213837 0.131158
0.370784 0.213177 0.130466
0.443432 0.212517 0.129771
0.515722 0.211856 0.129075
0.587708 0.211194 0.128378
0.659431 0.210533 0.127682
0.730919 0.209873 0.126988
0.802198 0.209213 0.126296
0.873305 0.208563 0.125608
0.944283 0.207937 0.124925
1.000000 0.207329 0.124269
1.000000 0.206707 0.123696
0.000000 0.286074 0.132566
0.072825 0.285424 0.131886
0.148410 0.284770 0.131196
0.222801 0.284115 0.130502
0.296440 0.283460 0.129806
0.369528 0.282804 0.129108
0.442182 0.282147 0.128410
0.514478 0.281491 0.127713
0.586469 0.280836 0.127018
0.658196 0.280181 0.126325
0.729703 0.279535 0.125636
0.801045 0.278913 0.124952
0.872241 0.278315 0.124274
0.943302 0.277738 0.123602
1.000000 0.277169 0.122955
1.000000 0.276552 0.122382
0.000000 0.355171 0.131233
0.071505 0.354522 0.130545
0.147118 0.353869 0.129846
0.221525 0.353217 0.129146
0.295175 0.352564 0.128447
0.368271 0.351912 0.127748
0.440932 0.351260 0.127051
0.513234 0.350609 0.126357
0.585242 0.349965 0.125667
0.657029 0.349345 0.124982
0.728625 0.348749 0.124302
0.800051 0.348175 0.123630
0.871323 0.347622 0.122965
0.942454 0.347089 0.122310
1.000000 0.346555 0.121676
1.000000 0.345941 0.121102
0.000000 0.423857 0.129883
0.070185 0.423210 0.129192
0.145826 0.422560 0.128489
0.220249 0.421910 0.127788
0.293910 0.421261 0.127089
0.367014 0.420612 0.126393
0.439690 0.419970 0.125701
0.512049 0.419350 0.125014
0.584147 0.418755 0.124334
0.656019 0.418183 0.123660
0.727693 0.417632 0.122994
0.799190 0.417101 0.122337
0.870526 0.416587 0.121690
0.941714 0.416091 0.121054
1.000000 0.415588 0.120437
1.000000 0.414978 0.119863
0.000000 0.492206 0.128526
0.068864 0.491562 0.127834
0.144534 0.490914 0.127132
0.218973 0.490268 0.126433
0.292649 0.489625 0.125739
0.365808 0.489005 0.125050
0.438574 0.488410 0.124368
0.511021 0.487838 0.123692
0.583198 0.487288 0.123025
0.655143 0.486758 0.122366
0.726882 0.486246 0.121718
0.798438 0.485751 0.121081
0.869826 0.485273 0.120455
0.941059 0.484808 0.119843
1.000000 0.484333 0.119247
1.000000 0.483725 0.118672
0.000000 0.560269 0.127167
0.067542 0.559629 0.126480
0.143243 0.558986 0.125782
0.217736 0.558363 0.125090
0.291504 0.557767 0.124405
0.364755 0.557194 0.123727
0.437604 0.556644 0.123058
0.510125 0.556114 0.122397
0.582370 0.555603 0.121747
0.654375 0.555110 0.121108
0.726168 0.554632 0.120481
0.797770 0.554170 0.119867
0.869198 0.553720 0.119267
0.940465 0.553282 0.118683
1.000000 0.552830 0.118107
1.000000 0.552224 0.117531
0.000000 0.628086 0.125815
0.066246 0.627464 0.125136
0.142054 0.626864 0.124447
0.216648 0.626290 0.123766
0.290506 0.625739 0.123093
0.363836 0.625209 0.122431
0.436755 0.624699 0.121778
0.509340 0.624206 0.121137
0.581640 0.623729 0.120508
0.653693 0.623268 0.119892
0.725528 0.622820 0.119291
0.797164 0.622384 0.118704
0.868620 0.621957 0.118128
0.939908 0.621534 0.117552
1.000000 0.621093 0.116977
1.000000 0.620488 0.116401
0.000096 0.695736 0.124478
0.065093 0.695157 0.123810
0.141012 0.694604 0.123133
0.215696 0.694073 0.122467
0.289631 0.693562 0.121812
0.363028 0.693070 0.121168
0.436006 0.692594 0.120536
0.508641 0.692134 0.119918
0.580985 0.691687 0.119314
0.653074 0.691252 0.118726
0.724938 0.690827 0.118149
0.796598 0.690406 0.117573
0.868069 0.689988 0.116998
0.939368 0.689570 0.116422
1.000000 0.689135 0.115846
1.000000 0.688532 0.115270
0.000343 0.763271 0.123162
0.064077 0.762729 0.122508
0.140096 0.762218 0.121848
0.214857 0.761726 0.121201
0.288856 0.761250 0.120566
0.362308 0.760790 0.119945
0.435333 0.760344 0.119339
0.508007 0.759911 0.118748
0.580382 0.759488 0.118170
0.652496 0.759070 0.117595
0.724378 0.758654 0.117019
0.796048 0.758238 0.116443
0.867525 0.757822 0.115867
0.938821 0.757404 0.115291
1.000000 0.756968 0.114715
1.000000 0.756368 0.114139
0.000718 0.830701 0.121875
0.063175 0.830190 0.121238
0.139281 0.829716 0.120599
0.214107 0.829257 0.119974
0.288159 0.828812 0.119365
0.361654 0.828380 0.118770
0.434714 0.827959 0.118192
0.507415 0.827543 0.117616
0.579810 0.827130 0.117040
0.651937 0.826717 0.116464
0.723825 0.826304 0.115888
0.795495 0.825888 0.115312
0.866965 0.825468 0.114736
0.938248 0.825043 0.114160
1.000000 0.824602 0.113584
1.000000 0.824003 0.113007
0.001198 0.898032 0.120623
0.062365 0.897547 0.120006
0.138546 0.897105 0.119392
0.213425 0.896675 0.118794
0.287518 0.896255 0.118213
0.361044 0.895842 0.117637
0.434127 0.895431 0.117061
0.506843 0.895022 0.116485
0.579247 0.894611 0.115909
0.651375 0.894198 0.115333
0.723258 0.893782 0.114757
0.794916 0.893360 0.114181
0.866367 0.892931 0.113605
0.937626 0.892494 0.113028
1.000000 0.892041 0.112452
1.000000 0.891443 0.111875
0.001760 0.965269 0.119414
0.061624 0.964804 0.118819
0.137869 0.964389 0.118234
0.212790 0.963979 0.117658
0.286912 0.963572 0.117082
0.360457 0.963166 0.116507
0.433551 0.962758 0.115931
0.506272 0.962349 0.115355
0.578672 0.961935 0.114778
0.650790 0.961517 0.114202
0.722656 0.961091 0.113626
0.794291 0.960657 0.113050
0.865712 0.960213 0.112473
0.936935 0.959758 0.111896
1.000000 0.959286 0.111320
1.000000 0.958691 0.110743
0.002084 1.000000 0.118262
0.060632 1.000000 0.117679
0.136928 1.000000 0.117104
0.211880 1.000000 0.116528
0.286023 1.000000 0.115952
0.359585 1.000000 0.115376
0.432689 1.000000 0.114800
0.505415 1.000000 0.114223
0.577815 1.000000 0.113647
0.649929 1.000000 0.113071
0.721785 1.000000 0.112494
0.793407 1.000000 0.111918
0.864810 1.000000 0.111341
0.936008 1.000000 0.110764
1.000000 1.000000 0.110187
1.000000 1.000000 0.109611
0.000000 0.000797 0.202769
0.077841 0.000787 0.202174
0.153322 0.000773 0.201563
0.227655 0.000754 0.200939
0.301253 0.000730 0.200302
0.374309 0.000703 0.199655
0.446938 0.000673 0.198998
0.519212 0.000641 0.198332
0.591185 0.000606 0.197660
0.662895 0.000568 0.196982
0.734373 0.000530 0.196299
0.805643 0.000490 0.195613
0.876723 0.000450 0.194925
0.947631 0.000409 0.194235
1.000000 0.000379 0.193577
1.000000 0.000379 0.193010
0.000000 0.074465 0.201590
0.076524 0.073806 0.200966
0.152032 0.073142 0.200330
0.226380 0.072475 0.199684
0.299988 0.071804 0.199028
0.373053 0.071131 0.198364
0.445688 0.070455 0.197694
0.517968 0.069777 0.197017
0.589946 0.069097 0.196336
0.661661 0.068416 0.195652
0.733142 0.067734 0.194965
0.804415 0.067052 0.194277
0.875499 0.066369 0.193589
0.946410 0.065687 0.192902
1.000000 0.065014 0.192246
1.000000 0.064372 0.191681
0.000000 0.145889 0.200361
0.075206 0.145235 0.199714
0.150741 0.144577 0.199057
0.225104 0.143917 0.198392
0.298724 0.143254 0.197721
0.371797 0.142589 0.197043
0.444439 0.141923 0.196361
0.516724 0.141256 0.195676
0.588707 0.140588 0.194989
0.660426 0.139919 0.194300
0.731911 0.139250 0.193611
0.803188 0.138581 0.192923
0.874274 0.137914 0.192237
0.945189 0.137247 0.191555
1.000000 0.136601 0.190901
1.000000 0.135973 0.190336
0.000000 0.216211 0.199091
0.073888 0.215559 0.198428
0.149450 0.214904 0.197754
0.223829 0.214246 0.197076
0.297459 0.213587 0.196392
0.370540 0.212927 0.195706
0.443189 0.212266 0.195018
0.515480 0.211605 0.194328
0.587468 0.210944 0.193638
0.659191 0.210283 0.192950
0.730680 0.209622 0.192263
0.801961 0.208963 0.191579
0.873084 0.208322 0.190900
0.944078 0.207704 0.190226
1.000000 0.207102 0.189579
1.000000 0.206480 0.189013
0.000000 0.285828 0.197790
0.072569 0.285177 0.197115
0.148159 0.284523 0.196430
0.222553 0.283867 0.195742
0.296194 0.283211 0.195052
0.369284 0.282555 0.194361
0.441939 0.281899 0.193670
0.514236 0.281243 0.192980
0.586229 0.280587 0.192292
0.657956 0.279933 0.191608
0.729480 0.279296 0.190928
0.800838 0.278682 0.190252
0.872048 0.278091 0.189584
0.943123 0.277522 0.188922
1.000000 0.276959 0.188285
1.000000 0.276342 0.187719
0.000000 0.354925 0.196467
0.071249 0.354276 0.195785
0.146867 0.353623 0.195092
0.221277 0.352970 0.194399
0.294929 0.352317 0.193706
0.368027 0.351665 0.193015
0.440689 0.351013 0.192326
0.512992 0.350362 0.191640
0.585015 0.349726 0.190958
0.656819 0.349115 0.190282
0.728430 0.348527 0.189612
0.799870 0.347960 0.188949
0.871155 0.347414 0.188295
0.942297 0.346887 0.187650
1.000000 0.346358 0.187026
1.000000 0.345745 0.186460
0.000000 0.423612 0.195129
0.069929 0.422965 0.194444
0.145575 0.422314 0.193748
0.220001 0.421664 0.193054
0.293664 0.421015 0.192363
0.366770 0.420367 0.191675
0.439460 0.419731 0.190992
0.511836 0.419120 0.190314
0.583949 0.418533 0.189643
0.655836 0.417969 0.188979
0.727523 0.417425 0.188323
0.799031 0.416900 0.187677
0.870377 0.416393 0.187041
0.941575 0.415902 0.186417
1.000000 0.415404 0.185811
1.000000 0.414793 0.185244
0.000000 0.491961 0.193784
0.068607 0.491317 0.193100
0.144283 0.490670 0.192405
0.218725 0.490024 0.191715
0.292413 0.489387 0.191029
0.365590 0.488775 0.190349
